%
(KevNKevN)
(T1  D=0.25 CR=0 - ZMIN=-0.2675 - flat end mill)
G90 G94
G17
G20
G28 G91 Z0
G90

(2D Adaptive1)
M9
T1 M6
S1000 M3
G54
M9
G0 X-3.008 Y-0.6401
Z0.6
Z0.2
Z0.147
G1 Z0.122 F40
G3 X-3.2334 Y-0.715 Z0.109 I-0.1127 J-0.0375
X-3.008 Y-0.6401 Z0.0959 I0.1127 J0.0375
X-3.2334 Y-0.715 Z0.0829 I-0.1127 J-0.0375
X-3.008 Y-0.6401 Z0.0699 I0.1127 J0.0375
X-3.2334 Y-0.715 Z0.0569 I-0.1127 J-0.0375
X-3.008 Y-0.6401 Z0.0438 I0.1127 J0.0375
X-3.2334 Y-0.715 Z0.0308 I-0.1127 J-0.0375
X-3.008 Y-0.6401 Z0.0178 I0.1127 J0.0375
X-3.2334 Y-0.715 Z0.0048 I-0.1127 J-0.0375
X-3.008 Y-0.6401 Z-0.0083 I0.1127 J0.0375
X-3.2334 Y-0.715 Z-0.0213 I-0.1127 J-0.0375
X-3.008 Y-0.6401 Z-0.0343 I0.1127 J0.0375
X-3.2334 Y-0.715 Z-0.0474 I-0.1127 J-0.0375
X-3.008 Y-0.6401 Z-0.0604 I0.1127 J0.0375
X-3.2334 Y-0.715 Z-0.0734 I-0.1127 J-0.0375
X-3.008 Y-0.6401 Z-0.0864 I0.1127 J0.0375
X-3.2334 Y-0.715 Z-0.0995 I-0.1127 J-0.0375
X-3.008 Y-0.6401 Z-0.1125 I0.1127 J0.0375
X-3.2334 Y-0.715 Z-0.1255 I-0.1127 J-0.0375
X-3.008 Y-0.6401 Z-0.1386 I0.1127 J0.0375
X-3.2334 Y-0.715 Z-0.1516 I-0.1127 J-0.0375
X-3.008 Y-0.6401 Z-0.1646 I0.1127 J0.0375
X-3.2334 Y-0.715 Z-0.1776 I-0.1127 J-0.0375
X-3.008 Y-0.6401 Z-0.1907 I0.1127 J0.0375
X-3.2334 Y-0.715 Z-0.2037 I-0.1127 J-0.0375
X-3.008 Y-0.6401 Z-0.2167 I0.1127 J0.0375
X-3.2334 Y-0.715 Z-0.2297 I-0.1127 J-0.0375
X-3.008 Y-0.6401 Z-0.2428 I0.1127 J0.0375
X-3.2334 Y-0.715 Z-0.2558 I-0.1127 J-0.0375
X-3.002 Y-0.6776 Z-0.2675 I0.1127 J0.0375
X-3.2395 I-0.1188
X-3.0062 Y-0.709 I0.1187
X-3.002 Y-0.6776 I-0.1145 J0.0314
G1 X-2.9968 Y-0.6389
X-2.9945 Y-0.6346
X-2.9924 Y-0.629
X-2.9909 Y-0.6232
X-2.99 Y-0.6173
X-2.9896 Y-0.6113
X-2.9898 Y-0.6049
X-2.9904 Y-0.5982
X-2.9917 Y-0.591
X-2.9937 Y-0.5836
X-2.9965 Y-0.5759
X-3 Y-0.568
X-3.0044 Y-0.5601
X-3.0096 Y-0.5521
X-3.0157 Y-0.5443
X-3.0227 Y-0.5367
X-3.0306 Y-0.5294
X-3.0393 Y-0.5225
X-3.0489 Y-0.5162
X-3.0593 Y-0.5104
X-3.0703 Y-0.5054
X-3.082 Y-0.5012
X-3.0943 Y-0.4979
X-3.1071 Y-0.4955
X-3.1202 Y-0.4941
X-3.1337 Y-0.4938
X-3.1473 Y-0.4946
X-3.161 Y-0.4965
X-3.1747 Y-0.4995
X-3.1882 Y-0.5036
X-3.2015 Y-0.5089
X-3.2144 Y-0.5152
X-3.2268 Y-0.5227
X-3.2387 Y-0.5311
X-3.2499 Y-0.5406
X-3.2604 Y-0.5509
X-3.2701 Y-0.5622
X-3.2788 Y-0.5742
X-3.2866 Y-0.5869
X-3.2934 Y-0.6002
X-3.2991 Y-0.6141
X-3.3037 Y-0.6284
X-3.3071 Y-0.6431
X-3.3093 Y-0.658
X-3.3104 Y-0.6731
X-3.3102 Y-0.6882
X-3.3088 Y-0.7033
X-3.3062 Y-0.7183
X-3.3024 Y-0.733
X-3.2974 Y-0.7473
X-3.2913 Y-0.7612
X-3.2841 Y-0.7746
X-3.2758 Y-0.7874
X-3.2665 Y-0.7995
X-3.2563 Y-0.8108
X-3.2452 Y-0.8212
X-3.2333 Y-0.8307
X-3.2207 Y-0.8393
X-3.2074 Y-0.8468
X-3.1935 Y-0.8532
X-3.1792 Y-0.8585
X-3.1645 Y-0.8626
X-3.1496 Y-0.8655
X-3.1344 Y-0.8672
X-3.1191 Y-0.8677
X-3.1039 Y-0.867
X-3.0888 Y-0.865
X-3.0738 Y-0.8618
X-3.0592 Y-0.8575
X-3.0449 Y-0.852
X-3.0312 Y-0.8453
X-3.018 Y-0.8376
X-3.0055 Y-0.8289
X-2.9937 Y-0.8191
X-2.9828 Y-0.8085
X-2.9727 Y-0.797
X-2.9636 Y-0.7847
X-2.953 Y-0.7678
X-2.9364 Y-0.7357
X-2.9267 Y-0.7126
X-2.92 Y-0.6921
X-2.9155 Y-0.6734
X-2.9126 Y-0.6553
X-2.9113 Y-0.6377
Y-0.6207
X-2.9127 Y-0.6041
X-2.9154 Y-0.5878
X-2.9194 Y-0.5718
X-2.9247 Y-0.5562
X-2.9312 Y-0.5411
X-2.939 Y-0.5264
X-2.9479 Y-0.5122
X-2.9581 Y-0.4988
X-2.9695 Y-0.486
X-2.982 Y-0.474
X-2.9955 Y-0.463
X-3.0102 Y-0.4529
X-3.0258 Y-0.4439
X-3.0423 Y-0.4361
X-3.0596 Y-0.4296
X-3.0776 Y-0.4244
X-3.0962 Y-0.4206
X-3.1153 Y-0.4183
X-3.1347 Y-0.4175
X-3.1543 Y-0.4183
X-3.1739 Y-0.4206
X-3.1935 Y-0.4246
X-3.2128 Y-0.4302
X-3.2317 Y-0.4374
X-3.2502 Y-0.4461
X-3.2679 Y-0.4563
X-3.2849 Y-0.468
X-3.301 Y-0.4811
X-3.3161 Y-0.4955
X-3.33 Y-0.5111
X-3.3427 Y-0.5279
X-3.354 Y-0.5457
X-3.3639 Y-0.5644
X-3.3722 Y-0.5839
X-3.379 Y-0.604
X-3.3842 Y-0.6247
X-3.3877 Y-0.6458
X-3.3895 Y-0.6671
X-3.3896 Y-0.6885
X-3.388 Y-0.7099
X-3.3847 Y-0.7311
X-3.3796 Y-0.752
X-3.3729 Y-0.7725
X-3.3646 Y-0.7924
X-3.3546 Y-0.8115
X-3.3432 Y-0.8298
X-3.3303 Y-0.8472
X-3.3161 Y-0.8634
X-3.3006 Y-0.8785
X-3.284 Y-0.8923
X-3.2663 Y-0.9047
X-3.2476 Y-0.9156
X-3.2281 Y-0.9251
X-3.2079 Y-0.9329
X-3.1872 Y-0.9391
X-3.166 Y-0.9436
X-3.1445 Y-0.9464
X-3.1229 Y-0.9474
X-3.1012 Y-0.9467
X-3.0797 Y-0.9443
X-3.0585 Y-0.9401
X-3.0376 Y-0.9343
X-3.0173 Y-0.9268
X-2.9976 Y-0.9177
X-2.9787 Y-0.9071
X-2.9608 Y-0.8949
X-2.9431 Y-0.8808
X-2.924 Y-0.8628
X-2.9059 Y-0.8428
X-2.889 Y-0.8208
X-2.8738 Y-0.7974
X-2.8608 Y-0.7733
X-2.8501 Y-0.7489
X-2.8415 Y-0.7243
X-2.8352 Y-0.6997
X-2.8309 Y-0.6752
X-2.8286 Y-0.6508
X-2.8283 Y-0.6265
X-2.8299 Y-0.6025
X-2.8311 Y-0.5949
X-2.8332 Y-0.5859
X-2.8366 Y-0.5773
X-2.8414 Y-0.5694
X-2.9422 Y-0.4296
X-2.9511 Y-0.4185
X-2.9618 Y-0.4071
X-2.9745 Y-0.3956
X-2.9889 Y-0.3845
X-3.0047 Y-0.3743
X-3.0219 Y-0.365
X-3.0408 Y-0.3567
X-3.0612 Y-0.3496
X-3.0829 Y-0.344
X-3.1056 Y-0.34
X-3.1291 Y-0.3378
X-3.1531 Y-0.3375
X-3.1776 Y-0.3392
X-3.2023 Y-0.3429
X-3.2272 Y-0.3486
X-3.2518 Y-0.3565
X-3.2761 Y-0.3665
X-3.2997 Y-0.3784
X-3.3226 Y-0.3924
X-3.3444 Y-0.4083
X-3.365 Y-0.426
X-3.3842 Y-0.4455
X-3.4019 Y-0.4665
X-3.4179 Y-0.489
X-3.4321 Y-0.5127
X-3.4444 Y-0.5377
X-3.4547 Y-0.5636
X-3.4629 Y-0.5903
X-3.469 Y-0.6177
X-3.4728 Y-0.6455
X-3.4744 Y-0.6736
X-3.4738 Y-0.7018
X-3.4708 Y-0.7298
X-3.4657 Y-0.7576
X-3.4583 Y-0.7849
X-3.4487 Y-0.8115
X-3.437 Y-0.8374
X-3.4233 Y-0.8622
X-3.4076 Y-0.8858
X-3.3901 Y-0.9081
X-3.3708 Y-0.929
X-3.3499 Y-0.9482
X-3.3275 Y-0.9657
X-3.3037 Y-0.9814
X-3.2788 Y-0.9951
X-3.2528 Y-1.0068
X-3.226 Y-1.0163
X-3.1985 Y-1.0237
X-3.183 Y-1.0266
X-3.1716 Y-1.0275
X-3.1602 Y-1.0262
X-3.1492 Y-1.0227
X-3.1392 Y-1.0171
X-3.1305 Y-1.0097
X-3.1263 Y-1.0053
X-3.1216 Y-1.0006
X-3.1128 Y-0.993
X-3.1054 Y-0.9876
X-3.095 Y-0.981
X-3.0907 Y-0.9787
X-3.0862 Y-0.9765
X-3.0773 Y-0.9727
X-3.0685 Y-0.9696
X-3.0596 Y-0.9665
X-3.0508 Y-0.9646
X-3.0419 Y-0.9631
X-3.0331 Y-0.9622
X-3.0242 Y-0.9623
X-3.0065 Y-0.9628
X-3.005 Y-0.9631
X-2.9991 Y-0.9639
X-2.988 Y-0.9638
X-2.9765 Y-0.9627
X-2.9633 Y-0.9604
X-2.9495 Y-0.9568
X-2.934 Y-0.9515
X-2.9185 Y-0.9447
X-2.9011 Y-0.9353
X-2.8839 Y-0.9242
X-2.8661 Y-0.9105
X-2.8478 Y-0.894
X-2.83 Y-0.875
X-2.8133 Y-0.8542
X-2.7977 Y-0.8311
X-2.7835 Y-0.806
X-2.771 Y-0.7791
X-2.7606 Y-0.7509
X-2.7542 Y-0.7281
X-2.7521 Y-0.7152
X-2.7529 Y-0.7022
X-2.7566 Y-0.6896
X-2.763 Y-0.6782
X-2.8414 Y-0.5694
X-2.8874 Y-0.5057
X-2.8963 Y-0.4933
X-2.9422 Y-0.4296
X-3.0124 Y-0.3322
X-3.0197 Y-0.323
X-3.0266 Y-0.3157
X-3.0352 Y-0.3079
X-3.045 Y-0.3003
X-3.0569 Y-0.2927
X-3.0698 Y-0.2857
X-3.0853 Y-0.2789
X-3.1017 Y-0.2732
X-3.1205 Y-0.2683
X-3.1415 Y-0.2646
X-3.1633 Y-0.2626
X-3.187 Y-0.2623
X-3.2125 Y-0.264
X-3.2393 Y-0.268
X-3.2666 Y-0.2743
X-3.2939 Y-0.2831
X-3.3215 Y-0.2944
X-3.3491 Y-0.3084
X-3.3762 Y-0.325
X-3.4024 Y-0.3441
X-3.4274 Y-0.3656
X-3.4509 Y-0.3894
X-3.4642 Y-0.4052
X-3.4701 Y-0.4135
X-3.4744 Y-0.4228
X-3.4771 Y-0.4326
X-3.478 Y-0.4428
Y-0.8459
X-3.4771 Y-0.8637
X-3.4754 Y-0.8762
X-3.4723 Y-0.8909
X-3.4678 Y-0.9058
X-3.4612 Y-0.9229
X-3.453 Y-0.9398
X-3.4421 Y-0.9582
X-3.4286 Y-0.9774
X-3.4133 Y-0.9959
X-3.3949 Y-1.0147
X-3.3736 Y-1.0333
X-3.3497 Y-1.051
X-3.3236 Y-1.0672
X-3.2974 Y-1.0808
X-3.2739 Y-1.0906
X-3.2545 Y-1.0969
X-3.2373 Y-1.101
X-3.2256 Y-1.1029
X-3.2139 Y-1.1035
X-3.2024 Y-1.1018
X-3.1915 Y-1.0979
X-3.1815 Y-1.0919
X-3.173 Y-1.084
X-3.1662 Y-1.0746
X-3.1613 Y-1.064
X-3.1594 Y-1.0585
G3 X-3.1683 Y-1.0313 I-0.0239 J0.0072
G1 X-3.2066 Y-1.0022
X-3.4188 Y-0.8413
X-3.4379 Y-0.8268
G3 X-3.478 Y-0.8459 I-0.0151 J-0.0199
G1 Y-0.961
X-3.4772 Y-0.9756
X-3.4759 Y-0.986
X-3.4734 Y-0.9974
X-3.4696 Y-1.0102
X-3.4644 Y-1.0234
X-3.4572 Y-1.0384
X-3.4484 Y-1.0533
X-3.4369 Y-1.0697
X-3.423 Y-1.0864
X-3.407 Y-1.1028
X-3.3884 Y-1.119
X-3.3681 Y-1.134
X-3.3468 Y-1.1473
X-3.3262 Y-1.1579
X-3.3074 Y-1.1658
X-3.2903 Y-1.1714
X-3.275 Y-1.175
X-3.2596 Y-1.1774
X-3.2459 Y-1.1785
X-3.2319 Y-1.1784
X-3.2194 Y-1.1773
X-3.217 Y-1.1769
X-3.2058 Y-1.1739
X-3.1955 Y-1.1687
X-3.1863 Y-1.1616
X-3.1788 Y-1.1529
X-3.173 Y-1.1429
X-3.1694 Y-1.1319
X-3.168 Y-1.1205
X-3.1675 Y-1.1027
G3 X-3.1806 Y-1.0809 I-0.025 J-0.0002
G1 X-3.2262 Y-1.0563
X-3.4167 Y-0.9531
X-3.4411 Y-0.9399
G3 X-3.478 Y-0.961 I-0.0119 J-0.022
G1 Y-1.0673
X-3.4776 Y-1.0747
X-3.4763 Y-1.0842
X-3.474 Y-1.0949
X-3.4707 Y-1.1061
X-3.4658 Y-1.1186
X-3.4597 Y-1.1313
X-3.4516 Y-1.1451
X-3.4416 Y-1.1593
X-3.4301 Y-1.1731
X-3.4165 Y-1.1871
X-3.4012 Y-1.2004
X-3.3846 Y-1.2127
X-3.367 Y-1.2237
X-3.3486 Y-1.2332
X-3.3295 Y-1.2411
X-3.3102 Y-1.2474
X-3.2928 Y-1.2516
X-3.2758 Y-1.2542
X-3.2605 Y-1.2554
X-3.2459 Y-1.2553
X-3.2322 Y-1.2541
X-3.2192 Y-1.2519
X-3.212 Y-1.2501
X-3.2 Y-1.2456
X-3.1892 Y-1.2386
X-3.1803 Y-1.2294
X-3.1735 Y-1.2185
X-3.1694 Y-1.2063
X-3.168 Y-1.1936
Y-1.1205
G3 X-3.1879 Y-1.0968 I-0.025 J-0.0009
G1 X-3.2322 Y-1.0878
X-3.4136 Y-1.0507
X-3.448 Y-1.0437
G3 X-3.478 Y-1.0673 I-0.005 J-0.0245
G1 Y-1.1559
X-3.4774 Y-1.1674
X-3.4762 Y-1.1763
X-3.4742 Y-1.1857
X-3.4711 Y-1.1961
X-3.4669 Y-1.2069
X-3.4613 Y-1.2184
X-3.4542 Y-1.2305
X-3.4458 Y-1.2425
X-3.4353 Y-1.255
X-3.4232 Y-1.2674
X-3.4097 Y-1.2792
X-3.3945 Y-1.2905
X-3.3778 Y-1.3009
X-3.36 Y-1.3101
X-3.3414 Y-1.3178
X-3.3222 Y-1.3241
X-3.3027 Y-1.3288
X-3.2844 Y-1.3316
X-3.2664 Y-1.333
X-3.2512 Y-1.3329
X-3.2357 Y-1.3316
X-3.2224 Y-1.3293
X-3.2089 Y-1.3259
X-3.2075 Y-1.3255
X-3.1966 Y-1.3204
X-3.1869 Y-1.3132
X-3.1789 Y-1.3042
X-3.1729 Y-1.2937
X-3.1692 Y-1.2822
X-3.168 Y-1.2702
Y-1.1936
G3 X-3.1894 Y-1.1697 I-0.025 J-0.0009
G1 X-3.2326 Y-1.1634
X-3.4132 Y-1.1373
X-3.4494 Y-1.132
G3 X-3.478 Y-1.1559 I-0.0036 J-0.0247
G1 Y-1.2445
X-3.4775 Y-1.2533
X-3.4765 Y-1.2612
X-3.4745 Y-1.2703
X-3.4717 Y-1.2796
X-3.4677 Y-1.29
X-3.4626 Y-1.3005
X-3.456 Y-1.3117
X-3.4479 Y-1.3232
X-3.4385 Y-1.3346
X-3.427 Y-1.3464
X-3.414 Y-1.3577
X-3.3995 Y-1.3684
X-3.3833 Y-1.3785
X-3.3656 Y-1.3876
X-3.3469 Y-1.3955
X-3.3274 Y-1.4018
X-3.3076 Y-1.4066
X-3.2875 Y-1.4097
X-3.2699 Y-1.411
X-3.2528 Y-1.4109
X-3.2379 Y-1.4096
X-3.2233 Y-1.4072
X-3.2104 Y-1.4039
X-3.2075 Y-1.403
X-3.1966 Y-1.3979
X-3.1869 Y-1.3908
X-3.1789 Y-1.3817
X-3.1729 Y-1.3712
X-3.1692 Y-1.3597
X-3.168 Y-1.3477
Y-1.2702
G3 X-3.1905 Y-1.2462 I-0.025 J-0.0009
G1 X-3.2329 Y-1.242
X-3.413 Y-1.2242
X-3.4505 Y-1.2205
G3 X-3.478 Y-1.2445 I-0.0025 J-0.0249
G1 Y-1.3242
X-3.4774 Y-1.335
X-3.4764 Y-1.3429
X-3.4746 Y-1.3514
X-3.4718 Y-1.3606
X-3.468 Y-1.3703
X-3.4629 Y-1.3808
X-3.4567 Y-1.3913
X-3.4488 Y-1.4027
X-3.4397 Y-1.4136
X-3.4286 Y-1.4249
X-3.4157 Y-1.4362
X-3.4016 Y-1.4466
X-3.3856 Y-1.4566
X-3.368 Y-1.4657
X-3.3492 Y-1.4736
X-3.3297 Y-1.4799
X-3.3096 Y-1.4847
X-3.2894 Y-1.4879
X-3.2714 Y-1.4892
X-3.2538 Y-1.4891
X-3.2388 Y-1.4878
X-3.2239 Y-1.4853
X-3.2109 Y-1.4821
X-3.2075 Y-1.4809
X-3.1966 Y-1.4759
X-3.1869 Y-1.4687
X-3.1789 Y-1.4597
X-3.1729 Y-1.4492
X-3.1692 Y-1.4377
X-3.168 Y-1.4257
Y-1.3477
G3 X-3.1907 Y-1.3237 I-0.025 J-0.0009
G1 X-3.2329 Y-1.3199
X-3.413 Y-1.3036
X-3.4507 Y-1.3002
G3 X-3.478 Y-1.3242 I-0.0023 J-0.0249
G1 Y-1.4039
X-3.4774 Y-1.4148
X-3.4764 Y-1.4227
X-3.4746 Y-1.4309
X-3.4719 Y-1.4401
X-3.4682 Y-1.4495
X-3.4631 Y-1.4599
X-3.4571 Y-1.4702
X-3.4492 Y-1.4814
X-3.4402 Y-1.4923
X-3.4294 Y-1.5034
X-3.4165 Y-1.5146
X-3.4025 Y-1.525
X-3.3866 Y-1.5349
X-3.3691 Y-1.5439
X-3.3503 Y-1.5518
X-3.3307 Y-1.5582
X-3.3106 Y-1.563
X-3.2903 Y-1.5661
X-3.2721 Y-1.5675
X-3.2543 Y-1.5674
X-3.2392 Y-1.5661
X-3.2242 Y-1.5636
X-3.2111 Y-1.5603
X-3.2075 Y-1.5591
X-3.1966 Y-1.554
X-3.1869 Y-1.5468
X-3.1789 Y-1.5378
X-3.1729 Y-1.5273
X-3.1692 Y-1.5158
X-3.168 Y-1.5038
Y-1.4257
G3 X-3.1908 Y-1.4017 I-0.025 J-0.0009
G1 X-3.2329 Y-1.3981
X-3.413 Y-1.383
X-3.4509 Y-1.3799
G3 X-3.478 Y-1.4039 I-0.0021 J-0.0249
G1 Y-1.4836
X-3.4774 Y-1.4938
X-3.4764 Y-1.5016
X-3.4747 Y-1.5098
X-3.4719 Y-1.5189
X-3.4683 Y-1.5283
X-3.4633 Y-1.5386
X-3.4573 Y-1.5488
X-3.4495 Y-1.5599
X-3.4404 Y-1.5708
X-3.4297 Y-1.5818
X-3.4169 Y-1.5929
X-3.4029 Y-1.6033
X-3.3871 Y-1.6132
X-3.3696 Y-1.6222
X-3.3508 Y-1.63
X-3.3312 Y-1.6364
X-3.3111 Y-1.6413
X-3.2907 Y-1.6444
X-3.2724 Y-1.6458
X-3.2546 Y-1.6457
X-3.2394 Y-1.6444
X-3.2243 Y-1.6419
X-3.2113 Y-1.6386
X-3.2075 Y-1.6373
X-3.1966 Y-1.6323
X-3.1869 Y-1.6251
X-3.1789 Y-1.6161
X-3.1729 Y-1.6056
X-3.1692 Y-1.5941
X-3.168 Y-1.5821
Y-1.5038
G3 X-3.191 Y-1.4798 I-0.025 J-0.0009
G1 X-3.233 Y-1.4765
X-3.4129 Y-1.4625
X-3.451 Y-1.4596
G3 X-3.478 Y-1.4836 I-0.0019 J-0.0249
G1 Y-1.5633
X-3.4775 Y-1.5724
X-3.4765 Y-1.5802
X-3.4747 Y-1.5883
X-3.472 Y-1.5975
X-3.4684 Y-1.6068
X-3.4634 Y-1.6171
X-3.4574 Y-1.6273
X-3.4496 Y-1.6383
X-3.4406 Y-1.6492
X-3.4299 Y-1.6602
X-3.4171 Y-1.6713
X-3.4031 Y-1.6816
X-3.3873 Y-1.6915
X-3.3699 Y-1.7005
X-3.3511 Y-1.7083
X-3.3315 Y-1.7147
X-3.3113 Y-1.7196
X-3.291 Y-1.7227
X-3.2726 Y-1.7241
X-3.2547 Y-1.724
X-3.2395 Y-1.7227
X-3.2244 Y-1.7202
X-3.2113 Y-1.7169
X-3.2075 Y-1.7156
X-3.1966 Y-1.7106
X-3.1869 Y-1.7034
X-3.1789 Y-1.6943
X-3.1729 Y-1.6839
X-3.1692 Y-1.6724
X-3.168 Y-1.6604
Y-1.5821
G3 X-3.1911 Y-1.558 I-0.025 J-0.0009
G1 X-3.233 Y-1.555
X-3.4129 Y-1.542
X-3.4512 Y-1.5393
G3 X-3.478 Y-1.5633 I-0.0018 J-0.0249
G1 Y-1.643
X-3.4776 Y-1.6508
X-3.4765 Y-1.6587
X-3.4748 Y-1.6667
X-3.4721 Y-1.6759
X-3.4685 Y-1.6852
X-3.4635 Y-1.6955
X-3.4575 Y-1.7056
X-3.4497 Y-1.7167
X-3.4407 Y-1.7275
X-3.43 Y-1.7385
X-3.4173 Y-1.7496
X-3.4033 Y-1.76
X-3.3875 Y-1.7698
X-3.37 Y-1.7788
X-3.3512 Y-1.7867
X-3.3316 Y-1.793
X-3.3114 Y-1.7979
X-3.2911 Y-1.8011
X-3.2727 Y-1.8024
X-3.2548 Y-1.8023
X-3.2395 Y-1.801
X-3.2244 Y-1.7985
X-3.2114 Y-1.7952
X-3.2075 Y-1.7939
X-3.1966 Y-1.7889
X-3.1869 Y-1.7817
X-3.1789 Y-1.7726
X-3.1729 Y-1.7622
X-3.1692 Y-1.7507
X-3.168 Y-1.7387
Y-1.6604
G3 X-3.1913 Y-1.6363 I-0.025 J-0.0009
G1 X-3.233 Y-1.6335
X-3.4129 Y-1.6215
X-3.4513 Y-1.619
G3 X-3.478 Y-1.643 I-0.0017 J-0.0249
G1 Y-1.7228
X-3.4776 Y-1.7292
X-3.4766 Y-1.737
X-3.4749 Y-1.7451
X-3.4721 Y-1.7543
X-3.4685 Y-1.7635
X-3.4635 Y-1.7738
X-3.4575 Y-1.784
X-3.4498 Y-1.795
X-3.4408 Y-1.8059
X-3.4301 Y-1.8168
X-3.4174 Y-1.8279
X-3.4034 Y-1.8383
X-3.3876 Y-1.8481
X-3.3701 Y-1.8571
X-3.3513 Y-1.865
X-3.3317 Y-1.8714
X-3.3115 Y-1.8762
X-3.2911 Y-1.8794
X-3.2727 Y-1.8808
X-3.2548 Y-1.8807
X-3.2396 Y-1.8794
X-3.2245 Y-1.8768
X-3.2114 Y-1.8735
X-3.2103 Y-1.8732
X-3.1984 Y-1.8676
X-3.188 Y-1.8594
X-3.1798 Y-1.8492
X-3.174 Y-1.8373
X-3.1711 Y-1.8245
X-3.1686 Y-1.8025
X-3.1682 Y-1.7936
X-3.168 Y-1.7671
Y-1.7387
G3 X-3.1914 Y-1.7146 I-0.025 J-0.0009
G1 X-3.233 Y-1.712
X-3.4129 Y-1.701
X-3.4514 Y-1.6987
G3 X-3.478 Y-1.7228 I-0.0015 J-0.025
G1 Y-1.7671
X-3.4778 Y-1.7936
X-3.4773 Y-1.8025
X-3.4745 Y-1.8196
X-3.4724 Y-1.8279
X-3.4694 Y-1.837
X-3.4653 Y-1.8466
X-3.46 Y-1.8567
X-3.4533 Y-1.8673
X-3.4453 Y-1.8779
X-3.4354 Y-1.8891
X-3.4243 Y-1.8998
X-3.4113 Y-1.9104
X-3.3962 Y-1.9209
X-3.3798 Y-1.9303
X-3.3622 Y-1.9387
X-3.3433 Y-1.9459
X-3.3236 Y-1.9517
X-3.3103 Y-1.9544
X-3.3041 Y-1.9554
X-3.2978 Y-1.9556
X-3.2916 Y-1.9552
G3 X-3.2795 Y-1.9112 I-0.0038 J0.0247
G1 X-3.2958 Y-1.8979
X-3.4197 Y-1.7964
X-3.4365 Y-1.7827
G3 X-3.4773 Y-1.8025 I-0.0158 J-0.0193
G1 X-3.4743 Y-1.8291
X-3.4732 Y-1.8379
X-3.4705 Y-1.8468
X-3.4627 Y-1.8689
X-3.4618 Y-1.8711
X-3.4607 Y-1.8733
X-3.4493 Y-1.8915
X-3.4439 Y-1.8999
X-3.4404 Y-1.9038
X-3.4227 Y-1.9215
X-3.4198 Y-1.9243
X-3.417 Y-1.9265
X-3.392 Y-1.9422
X-3.3879 Y-1.9442
X-3.3784 Y-1.9475
X-3.3607 Y-1.9537
X-3.3563 Y-1.955
X-3.3519 Y-1.9556
X-3.3253 Y-1.9585
X-3.3209 Y-1.9586
X-3.2987 Y-1.9561
X-3.2899 Y-1.955
X-3.2832 Y-1.9531
X-3.2633 Y-1.9461
X-3.258 Y-1.9442
X-3.2544 Y-1.9425
X-3.229 Y-1.9265
X-3.2279 Y-1.9257
X-3.219 Y-1.9173
X-3.2102 Y-1.9085
X-3.202 Y-1.8999
X-3.2013 Y-1.8989
X-3.1908 Y-1.8822
X-3.1853 Y-1.8733
X-3.1836 Y-1.87
X-3.1816 Y-1.8645
X-3.1747 Y-1.8448
X-3.1727 Y-1.8379
X-3.1713 Y-1.8265
X-3.1711 Y-1.8245
G3 X-3.2079 Y-1.8005 I-0.0249 J0.0019
G1 X-3.2102 Y-1.8024 Z-0.2673
X-3.2125 Y-1.8042 Z-0.2668
X-3.2148 Y-1.806 Z-0.2659
X-3.2164 Y-1.8087 Z-0.2644
X-3.2179 Y-1.8112 Z-0.2625
X-3.2193 Y-1.8135 Z-0.2602
X-3.2199 Y-1.8157 Z-0.2576
X-3.2203 Y-1.8175 Z-0.2547
X-3.2206 Y-1.8189 Z-0.2516
X-3.2209 Y-1.8199 Z-0.2483
Y-1.8204 Z-0.2454
Y-1.8206 Z-0.2425
G0 Z0.2
X-2.9841 Y-0.4311
Z-0.2175
G1 Z-0.2425 F40
Y-0.4308 Z-0.2464
X-2.9842 Y-0.4299 Z-0.2502
X-2.9843 Y-0.4284 Z-0.2538
X-2.9845 Y-0.4264 Z-0.2572
X-2.9847 Y-0.4238 Z-0.2602
X-2.985 Y-0.4209 Z-0.2627
X-2.9853 Y-0.4175 Z-0.2648
X-2.9856 Y-0.4139 Z-0.2663
X-2.986 Y-0.4101 Z-0.2672
X-2.9863 Y-0.4062 Z-0.2675
G3 X-3.0124 Y-0.3322 I-0.1576 J-0.0139
G1 X-3.0685 Y-0.2543
X-3.0756 Y-0.2454
X-3.0821 Y-0.2385
X-3.0894 Y-0.2319
X-3.0985 Y-0.2249
X-3.1086 Y-0.2183
X-3.121 Y-0.2116
X-3.1344 Y-0.2058
X-3.1505 Y-0.2002
X-3.1675 Y-0.1958
X-3.1874 Y-0.1923
X-3.209 Y-0.1903
X-3.2319 Y-0.19
X-3.2575 Y-0.1917
X-3.2851 Y-0.1958
X-3.3128 Y-0.2023
X-3.3421 Y-0.2116
X-3.3726 Y-0.2241
X-3.4036 Y-0.2398
X-3.4344 Y-0.2587
X-3.454 Y-0.273
X-3.4622 Y-0.2803
X-3.4689 Y-0.2889
X-3.4739 Y-0.2987
X-3.4769 Y-0.3092
X-3.478 Y-0.3202
Y-0.4428
G3 X-3.4422 Y-0.4644 I0.025 J0.0009
G1 X-3.416 Y-0.4519
X-3.1107 Y-0.3061
X-3.0785 Y-0.2908
G3 X-3.0685 Y-0.2543 I-0.0108 J0.0226
G1 X-3.1209 Y-0.1816
X-3.1282 Y-0.1725
X-3.1343 Y-0.166
X-3.1414 Y-0.1595
X-3.1502 Y-0.1528
X-3.1599 Y-0.1465
X-3.1719 Y-0.14
X-3.1849 Y-0.1343
X-3.2005 Y-0.1289
X-3.2173 Y-0.1245
X-3.2365 Y-0.1212
X-3.2581 Y-0.1191
X-3.2808 Y-0.1189
X-3.3069 Y-0.1206
X-3.3348 Y-0.1248
X-3.3635 Y-0.1315
X-3.395 Y-0.1415
X-3.4246 Y-0.1536
X-3.4463 Y-0.1647
X-3.4501 Y-0.167
X-3.4596 Y-0.1742
X-3.4673 Y-0.1832
X-3.4732 Y-0.1935
X-3.4767 Y-0.2049
X-3.478 Y-0.2167
Y-0.3202
G3 X-3.4437 Y-0.3425 I0.025 J0.0009
G1 X-3.4152 Y-0.3312
X-3.164 Y-0.2313
X-3.1324 Y-0.2187
G3 X-3.1209 Y-0.1816 I-0.0092 J0.0232
G1 X-3.1592 Y-0.1284
X-3.1659 Y-0.1172
X-3.1718 Y-0.1083
X-3.1765 Y-0.1022
X-3.1826 Y-0.0957
X-3.1895 Y-0.0893
X-3.1981 Y-0.0825
X-3.2076 Y-0.0762
X-3.2194 Y-0.0697
X-3.2321 Y-0.0639
X-3.2477 Y-0.0583
X-3.2641 Y-0.0539
X-3.2835 Y-0.0503
X-3.3044 Y-0.0481
X-3.3279 Y-0.0476
X-3.3543 Y-0.0491
X-3.3811 Y-0.0528
X-3.4048 Y-0.0581
X-3.4255 Y-0.0644
X-3.4423 Y-0.0711
X-3.4455 Y-0.0726
X-3.4564 Y-0.0796
X-3.4654 Y-0.0888
X-3.4723 Y-0.0998
X-3.4765 Y-0.1121
X-3.478 Y-0.1249
Y-0.2167
G3 X-3.4452 Y-0.2396 I0.025 J0.0009
G1 X-3.4146 Y-0.2296
X-3.2131 Y-0.1637
X-3.1801 Y-0.1529
G3 X-3.1659 Y-0.1172 I-0.0078 J0.0238
G1 X-3.1697 Y-0.1107
X-3.1742 Y-0.1019
X-3.1779 Y-0.093
X-3.1808 Y-0.0841
X-3.1828 Y-0.0753
X-3.1836 Y-0.0715
X-3.1851 Y-0.0657
X-3.1871 Y-0.06
X-3.1897 Y-0.0541
X-3.1933 Y-0.0475
X-3.1976 Y-0.0409
X-3.2033 Y-0.0336
X-3.2098 Y-0.0265
X-3.218 Y-0.0189
X-3.2271 Y-0.0117
X-3.2383 Y-0.0042
X-3.2505 Y0.0026
X-3.2653 Y0.0094
X-3.2814 Y0.0152
X-3.2997 Y0.0202
X-3.3202 Y0.0241
X-3.3416 Y0.0264
X-3.3639 Y0.027
X-3.3854 Y0.0259
X-3.4045 Y0.0233
X-3.4209 Y0.0198
X-3.4364 Y0.0151
X-3.441 Y0.0133
X-3.4513 Y0.0079
X-3.4604 Y0.0007
X-3.4678 Y-0.0082
X-3.4734 Y-0.0184
X-3.4768 Y-0.0295
X-3.478 Y-0.041
Y-0.1249
G3 X-3.4481 Y-0.1486 I0.025 J0.0009
G1 X-3.4135 Y-0.1417
X-3.2426 Y-0.1079
X-3.2034 Y-0.1002
G3 X-3.1836 Y-0.0715 I-0.0049 J0.0245
G1 X-3.1846 Y-0.0664
X-3.186 Y-0.0576
X-3.1865 Y-0.0399
X-3.1867 Y-0.031
Y-0.0261
X-3.1871 Y-0.0189
X-3.1879 Y-0.013
X-3.1893 Y-0.0068
X-3.1914 Y0.0001
X-3.1942 Y0.0073
X-3.1981 Y0.0151
X-3.2028 Y0.023
X-3.209 Y0.0316
X-3.216 Y0.0399
X-3.2249 Y0.0489
X-3.2347 Y0.0574
X-3.2467 Y0.0661
X-3.26 Y0.0743
X-3.275 Y0.0819
X-3.2921 Y0.0889
X-3.3105 Y0.0947
X-3.3297 Y0.0992
X-3.3498 Y0.1022
X-3.3701 Y0.1036
X-3.3885 Y0.1033
X-3.4048 Y0.1018
X-3.4204 Y0.0991
X-3.434 Y0.0955
X-3.4388 Y0.0939
X-3.4496 Y0.0888
X-3.4592 Y0.0816
X-3.4672 Y0.0726
X-3.4731 Y0.0621
X-3.4767 Y0.0507
X-3.478 Y0.0388
Y-0.041
G3 X-3.4514 Y-0.0651 I0.025 J0.0009
G1 X-3.4129 Y-0.0628
X-3.2516 Y-0.0529
X-3.2102 Y-0.0503
G3 X-3.1867 Y-0.0261 I-0.0015 J0.025
G1 Y0.0399
X-3.187 Y0.0459
X-3.1879 Y0.0524
X-3.1894 Y0.0598
X-3.1917 Y0.0673
X-3.195 Y0.0757
X-3.1991 Y0.0843
X-3.2046 Y0.0935
X-3.2111 Y0.1028
X-3.2191 Y0.1124
X-3.2287 Y0.1223
X-3.2394 Y0.1316
X-3.2522 Y0.1411
X-3.2666 Y0.15
X-3.2821 Y0.1581
X-3.2993 Y0.1653
X-3.3177 Y0.1712
X-3.3369 Y0.1759
X-3.3565 Y0.1789
X-3.3745 Y0.1803
X-3.3921 Y0.1802
X-3.4071 Y0.1789
X-3.422 Y0.1764
X-3.435 Y0.1731
X-3.4384 Y0.172
X-3.4493 Y0.1669
X-3.459 Y0.1597
X-3.467 Y0.1507
X-3.473 Y0.1402
X-3.4767 Y0.1287
X-3.478 Y0.1167
Y0.0388
G3 X-3.4529 Y0.0146 I0.025 J0.0009
G1 X-3.4128 Y0.0148
X-3.2518 Y0.0155
X-3.2116 Y0.0157
G3 X-3.1867 Y0.0399 I-0.0001 J0.025
G1 Y0.1107
X-3.187 Y0.1171
X-3.1879 Y0.1241
X-3.1896 Y0.1318
X-3.192 Y0.1399
X-3.1955 Y0.1489
X-3.1999 Y0.1579
X-3.2057 Y0.1678
X-3.2125 Y0.1774
X-3.221 Y0.1877
X-3.2309 Y0.1978
X-3.2422 Y0.2077
X-3.2556 Y0.2176
X-3.2702 Y0.2267
X-3.2861 Y0.2349
X-3.3034 Y0.2421
X-3.3217 Y0.2481
X-3.3407 Y0.2526
X-3.36 Y0.2557
X-3.3773 Y0.257
X-3.394 Y0.2569
X-3.4088 Y0.2556
X-3.4232 Y0.2532
X-3.436 Y0.2499
X-3.4384 Y0.2491
X-3.4493 Y0.2441
X-3.459 Y0.2369
X-3.467 Y0.2279
X-3.473 Y0.2174
X-3.4767 Y0.2059
X-3.478 Y0.1939
Y0.1167
G3 X-3.4536 Y0.0926 I0.025 J0.0009
G1 X-3.4128 Y0.0916
X-3.2518 Y0.0876
X-3.2123 Y0.0866
G3 X-3.1867 Y0.1107 I0.0006 J0.025
G1 Y0.1816
X-3.1872 Y0.1912
X-3.1882 Y0.1986
X-3.1898 Y0.2064
X-3.1924 Y0.2149
X-3.1959 Y0.2239
X-3.2005 Y0.2333
X-3.2063 Y0.2433
X-3.2133 Y0.2533
X-3.2221 Y0.2638
X-3.232 Y0.274
X-3.2436 Y0.2841
X-3.2572 Y0.2941
X-3.2719 Y0.3033
X-3.2879 Y0.3116
X-3.3053 Y0.3188
X-3.3235 Y0.3248
X-3.3424 Y0.3293
X-3.3615 Y0.3323
X-3.3785 Y0.3336
X-3.3949 Y0.3335
X-3.4095 Y0.3322
X-3.4237 Y0.3298
X-3.4364 Y0.3266
X-3.4384 Y0.326
X-3.4493 Y0.3209
X-3.459 Y0.3137
X-3.467 Y0.3047
X-3.473 Y0.2942
X-3.4767 Y0.2827
X-3.478 Y0.2707
Y0.1939
G3 X-3.4542 Y0.1698 I0.025 J0.0009
G1 X-3.4129 Y0.1677
X-3.2518 Y0.1595
X-3.213 Y0.1575
G3 X-3.1867 Y0.1816 I0.0013 J0.025
G1 Y0.2613
X-3.187 Y0.2673
X-3.1881 Y0.2749
X-3.1899 Y0.2828
X-3.1926 Y0.2916
X-3.1962 Y0.3007
X-3.201 Y0.3103
X-3.2072 Y0.3205
X-3.2144 Y0.3306
X-3.2234 Y0.3413
X-3.2337 Y0.3516
X-3.2456 Y0.3618
X-3.2594 Y0.3718
X-3.2745 Y0.381
X-3.2907 Y0.3892
X-3.3082 Y0.3963
X-3.3264 Y0.402
X-3.3454 Y0.4064
X-3.3642 Y0.4091
X-3.3811 Y0.4102
X-3.3969 Y0.41
X-3.4117 Y0.4086
X-3.4254 Y0.4061
X-3.4382 Y0.4028
X-3.4389 Y0.4025
X-3.4497 Y0.3974
X-3.4593 Y0.3902
X-3.4672 Y0.3812
X-3.4731 Y0.3708
X-3.4767 Y0.3594
X-3.478 Y0.3475
Y0.2707
G3 X-3.4539 Y0.2466 I0.025 J0.0009
G1 X-3.4129 Y0.245
X-3.2518 Y0.2387
X-3.2127 Y0.2372
G3 X-3.1867 Y0.2613 I0.001 J0.025
G1 Y0.3322
X-3.1872 Y0.3428
X-3.1882 Y0.3504
X-3.1899 Y0.3581
X-3.1926 Y0.367
X-3.196 Y0.3759
X-3.2008 Y0.3858
X-3.2066 Y0.3956
X-3.2139 Y0.406
X-3.2227 Y0.4166
X-3.2327 Y0.4268
X-3.2446 Y0.4373
X-3.2582 Y0.4473
X-3.2729 Y0.4564
X-3.2891 Y0.4648
X-3.3064 Y0.472
X-3.3247 Y0.478
X-3.3435 Y0.4825
X-3.3626 Y0.4855
X-3.3793 Y0.4867
X-3.3955 Y0.4866
X-3.41 Y0.4854
X-3.4241 Y0.483
X-3.4367 Y0.4798
X-3.4384 Y0.4793
X-3.4493 Y0.4742
X-3.459 Y0.4671
X-3.467 Y0.458
X-3.473 Y0.4475
X-3.4767 Y0.436
X-3.478 Y0.424
Y0.3475
G3 X-3.4546 Y0.3234 I0.025 J0.0009
G1 X-3.4129 Y0.3207
X-3.2518 Y0.3105
X-3.2133 Y0.3081
G3 X-3.1867 Y0.3322 I0.0016 J0.0249
G1 Y0.4119
X-3.1871 Y0.4189
X-3.1881 Y0.4265
X-3.1897 Y0.4344
X-3.1924 Y0.4432
X-3.1959 Y0.4522
X-3.2007 Y0.462
X-3.2066 Y0.4721
X-3.2138 Y0.4823
X-3.2227 Y0.4931
X-3.2327 Y0.5033
X-3.2446 Y0.5137
X-3.2583 Y0.5238
X-3.2731 Y0.533
X-3.2892 Y0.5414
X-3.3066 Y0.5486
X-3.3248 Y0.5546
X-3.3436 Y0.5591
X-3.3626 Y0.562
X-3.3794 Y0.5633
X-3.3955 Y0.5632
X-3.4101 Y0.5619
X-3.424 Y0.5596
X-3.4368 Y0.5564
X-3.4384 Y0.5559
X-3.4493 Y0.5508
X-3.459 Y0.5436
X-3.467 Y0.5346
X-3.473 Y0.5241
X-3.4767 Y0.5126
X-3.478 Y0.5006
Y0.424
G3 X-3.4542 Y0.3999 I0.025 J0.0009
G1 X-3.4129 Y0.3979
X-3.2518 Y0.3897
X-3.213 Y0.3878
G3 X-3.1867 Y0.4119 I0.0013 J0.025
G1 Y0.4876
X-3.1871 Y0.4954
X-3.1881 Y0.5031
X-3.1898 Y0.5109
X-3.1924 Y0.5198
X-3.196 Y0.5288
X-3.2007 Y0.5386
X-3.2066 Y0.5486
X-3.2138 Y0.5589
X-3.2227 Y0.5696
X-3.2327 Y0.5799
X-3.2446 Y0.5902
X-3.2583 Y0.6004
X-3.2732 Y0.6096
X-3.2893 Y0.6179
X-3.3066 Y0.6252
X-3.3248 Y0.6311
X-3.3437 Y0.6356
X-3.3626 Y0.6386
X-3.3794 Y0.6399
X-3.3955 Y0.6398
X-3.4101 Y0.6385
X-3.424 Y0.6362
X-3.4368 Y0.633
X-3.4384 Y0.6324
X-3.4493 Y0.6274
X-3.459 Y0.6202
X-3.467 Y0.6112
X-3.473 Y0.6007
X-3.4767 Y0.5892
X-3.478 Y0.5772
Y0.5006
G3 X-3.4543 Y0.4765 I0.025 J0.0009
G1 X-3.4129 Y0.4743
X-3.2518 Y0.4656
X-3.213 Y0.4635
G3 X-3.1867 Y0.4876 I0.0013 J0.025
G1 Y0.5624
X-3.1872 Y0.572
X-3.1882 Y0.5796
X-3.1899 Y0.5875
X-3.1925 Y0.5964
X-3.196 Y0.6053
X-3.2008 Y0.6152
X-3.2067 Y0.6252
X-3.2139 Y0.6354
X-3.2228 Y0.6462
X-3.2328 Y0.6564
X-3.2447 Y0.6668
X-3.2584 Y0.6769
X-3.2732 Y0.6862
X-3.2893 Y0.6945
X-3.3067 Y0.7017
X-3.3249 Y0.7077
X-3.3437 Y0.7122
X-3.3626 Y0.7151
X-3.3795 Y0.7164
X-3.3955 Y0.7163
X-3.4101 Y0.715
X-3.4241 Y0.7127
X-3.4368 Y0.7095
X-3.4384 Y0.709
X-3.4493 Y0.7039
X-3.459 Y0.6967
X-3.467 Y0.6877
X-3.473 Y0.6772
X-3.4767 Y0.6657
X-3.478 Y0.6537
Y0.5772
G3 X-3.4545 Y0.5531 I0.025 J0.0009
G1 X-3.4129 Y0.5506
X-3.2518 Y0.5407
X-3.2132 Y0.5384
G3 X-3.1867 Y0.5624 I0.0015 J0.025
G1 Y0.6422
X-3.187 Y0.6484
X-3.188 Y0.656
X-3.1897 Y0.6639
X-3.1924 Y0.6728
X-3.1959 Y0.6818
X-3.2007 Y0.6916
X-3.2066 Y0.7016
X-3.2138 Y0.7119
X-3.2227 Y0.7227
X-3.2327 Y0.733
X-3.2446 Y0.7433
X-3.2583 Y0.7535
X-3.2732 Y0.7627
X-3.2893 Y0.771
X-3.3066 Y0.7783
X-3.3249 Y0.7842
X-3.3437 Y0.7887
X-3.3626 Y0.7917
X-3.3794 Y0.793
X-3.3955 Y0.7929
X-3.4101 Y0.7916
X-3.424 Y0.7893
X-3.4368 Y0.7861
X-3.4384 Y0.7855
X-3.4493 Y0.7805
X-3.459 Y0.7733
X-3.467 Y0.7643
X-3.473 Y0.7538
X-3.4767 Y0.7423
X-3.478 Y0.7303
Y0.6537
G3 X-3.4542 Y0.6296 I0.025 J0.0009
G1 X-3.4129 Y0.6276
X-3.2518 Y0.6199
X-3.2129 Y0.6181
G3 X-3.1867 Y0.6422 I0.0012 J0.025
G1 Y0.6776
X-3.1858 Y0.7042
X-3.1856 Y0.7064
X-3.1853 Y0.7076
X-3.1845 Y0.7135
X-3.1846 Y0.7201
X-3.1853 Y0.7274
X-3.1867 Y0.7353
X-3.1889 Y0.7439
X-3.192 Y0.753
X-3.1963 Y0.7627
X-3.2016 Y0.7726
X-3.2085 Y0.7832
X-3.2165 Y0.7935
X-3.2262 Y0.8043
X-3.2376 Y0.815
X-3.2502 Y0.825
X-3.2646 Y0.8348
X-3.2806 Y0.8438
X-3.2977 Y0.8518
X-3.3157 Y0.8584
X-3.3344 Y0.8636
X-3.3535 Y0.8673
X-3.3709 Y0.8693
X-3.3881 Y0.8698
X-3.4028 Y0.8691
X-3.4176 Y0.8672
X-3.4305 Y0.8645
X-3.4363 Y0.8627
X-3.4477 Y0.8579
X-3.4579 Y0.8508
X-3.4664 Y0.8417
X-3.4727 Y0.831
X-3.4766 Y0.8192
X-3.478 Y0.8068
Y0.7303
G3 X-3.4548 Y0.7062 I0.025 J0.0009
G1 X-3.4129 Y0.7031
X-3.2544 Y0.6913
X-3.2116 Y0.6881
G3 X-3.1853 Y0.7076 I0.0019 J0.0249
G1 X-3.1851 Y0.7086
X-3.1823 Y0.7219
X-3.1802 Y0.7307
X-3.1772 Y0.7396
X-3.1747 Y0.7455
X-3.1734 Y0.7484
X-3.171 Y0.7539
X-3.1693 Y0.7597
X-3.1682 Y0.7656
X-3.1675 Y0.7724
X-3.1673 Y0.7797
X-3.1678 Y0.7879
X-3.169 Y0.7966
X-3.171 Y0.806
X-3.1741 Y0.8161
X-3.1782 Y0.8264
X-3.1837 Y0.8377
X-3.1904 Y0.8489
X-3.1986 Y0.8605
X-3.2086 Y0.8724
X-3.2198 Y0.8838
X-3.2329 Y0.895
X-3.2479 Y0.906
X-3.2643 Y0.9161
X-3.2818 Y0.925
X-3.3004 Y0.9327
X-3.3198 Y0.9389
X-3.3397 Y0.9436
X-3.3592 Y0.9465
X-3.3773 Y0.9478
X-3.3937 Y0.9476
X-3.4092 Y0.9462
X-3.4232 Y0.9438
X-3.4365 Y0.9404
X-3.4386 Y0.9396
X-3.4495 Y0.9345
X-3.4592 Y0.9274
X-3.4671 Y0.9183
X-3.4731 Y0.9079
X-3.4767 Y0.8964
X-3.478 Y0.8845
Y0.8068
G3 X-3.4575 Y0.7831 I0.025 J0.0009
G1 X-3.4135 Y0.7751
X-3.2464 Y0.7445
X-3.1998 Y0.7359
G3 X-3.1734 Y0.7484 I0.0045 J0.0246
G1 X-3.1689 Y0.7573
X-3.1635 Y0.7662
X-3.1577 Y0.775
X-3.157 Y0.7759
X-3.1534 Y0.7803
X-3.1497 Y0.7853
X-3.1465 Y0.7904
X-3.1438 Y0.7957
X-3.1416 Y0.8014
X-3.1396 Y0.8078
X-3.138 Y0.8151
X-3.137 Y0.8229
X-3.1365 Y0.8318
X-3.1367 Y0.8411
X-3.1379 Y0.8516
X-3.1399 Y0.8623
X-3.1431 Y0.8739
X-3.1475 Y0.8862
X-3.1532 Y0.8986
X-3.1606 Y0.9119
X-3.1695 Y0.9252
X-3.1799 Y0.9384
X-3.1923 Y0.9518
X-3.2067 Y0.9649
X-3.2226 Y0.9773
X-3.2401 Y0.9887
X-3.2593 Y0.9992
X-3.2798 Y1.0084
X-3.301 Y1.0158
X-3.3226 Y1.0216
X-3.3443 Y1.0255
X-3.3653 Y1.0276
X-3.3838 Y1.0279
X-3.4002 Y1.0269
X-3.4159 Y1.0246
X-3.4297 Y1.0215
X-3.437 Y1.0192
X-3.4483 Y1.0143
X-3.4583 Y1.0072
X-3.4666 Y0.9981
X-3.4728 Y0.9875
X-3.4767 Y0.9758
X-3.478 Y0.9635
Y0.8845
G3 X-3.4605 Y0.8615 I0.025 J0.0009
G1 X-3.4149 Y0.8472
X-3.2271 Y0.788
X-3.1796 Y0.7731
G3 X-3.1534 Y0.7803 I0.0075 J0.0238
G1 X-3.1504 Y0.7839
X-3.1482 Y0.7864
X-3.1419 Y0.7927
X-3.1393 Y0.7952
X-3.1319 Y0.8016
X-3.1305 Y0.8028
X-3.1256 Y0.8064
X-3.1206 Y0.8107
X-3.1163 Y0.8149
X-3.1125 Y0.8195
X-3.109 Y0.8245
X-3.1057 Y0.8303
X-3.1026 Y0.8367
X-3.0998 Y0.8442
X-3.0974 Y0.8522
X-3.0955 Y0.8615
X-3.0943 Y0.8713
X-3.0939 Y0.8821
X-3.0943 Y0.894
X-3.0958 Y0.9062
X-3.0985 Y0.9196
X-3.1025 Y0.9336
X-3.1079 Y0.9479
X-3.1151 Y0.9633
X-3.124 Y0.9788
X-3.1345 Y0.9941
X-3.1472 Y1.0098
X-3.1622 Y1.0256
X-3.179 Y1.0405
X-3.1975 Y1.0545
X-3.2179 Y1.0676
X-3.2402 Y1.0795
X-3.2639 Y1.0897
X-3.2882 Y1.0979
X-3.3125 Y1.104
X-3.3367 Y1.1081
X-3.3597 Y1.1101
X-3.3804 Y1.1102
X-3.3979 Y1.1089
X-3.4147 Y1.1063
X-3.429 Y1.1029
X-3.4377 Y1.1
X-3.4488 Y1.0951
X-3.4587 Y1.0879
X-3.4668 Y1.0788
X-3.4729 Y1.0683
X-3.4767 Y1.0567
X-3.478 Y1.0446
Y0.9635
G3 X-3.463 Y0.9415 I0.025 J0.0009
G1 X-3.4168 Y0.9212
X-3.1984 Y0.8253
X-3.15 Y0.804
G3 X-3.1256 Y0.8064 I0.0101 J0.0229
G1 X-3.1203 Y0.8105
X-3.0805 Y0.8399
X-3.0759 Y0.8438
X-3.0716 Y0.8479
X-3.0675 Y0.8526
X-3.0632 Y0.8584
X-3.0592 Y0.8647
X-3.0553 Y0.8722
X-3.0519 Y0.8804
X-3.0488 Y0.8897
X-3.0463 Y0.9001
X-3.0445 Y0.9112
X-3.0435 Y0.9238
Y0.9368
X-3.0447 Y0.9511
X-3.0473 Y0.9665
X-3.0512 Y0.9822
X-3.0568 Y0.9991
X-3.0644 Y1.0169
X-3.0737 Y1.0344
X-3.0852 Y1.0525
X-3.0991 Y1.0711
X-3.1154 Y1.0895
X-3.1336 Y1.1069
X-3.1542 Y1.1237
X-3.1771 Y1.1395
X-3.202 Y1.1539
X-3.2285 Y1.1665
X-3.2561 Y1.177
X-3.284 Y1.1851
X-3.3114 Y1.1907
X-3.3383 Y1.194
X-3.3628 Y1.195
X-3.3848 Y1.1942
X-3.4027 Y1.192
X-3.4199 Y1.1886
X-3.4343 Y1.1844
X-3.4402 Y1.1822
X-3.4507 Y1.177
X-3.46 Y1.1698
X-3.4676 Y1.1608
X-3.4733 Y1.1505
X-3.4768 Y1.1393
X-3.478 Y1.1276
Y1.0446
G3 X-3.4644 Y1.0232 I0.025 J0.0009
G1 X-3.4182 Y0.9994
X-3.152 Y0.8619
X-3.1062 Y0.8383
G3 X-3.0805 Y0.8399 I0.0115 J0.0222
G1 X-3.0285 Y0.8785
X-3.0239 Y0.8823
X-3.0191 Y0.887
X-3.0145 Y0.8924
X-3.0098 Y0.8989
X-3.0054 Y0.9061
X-3.0011 Y0.9147
X-2.9973 Y0.9239
X-2.9939 Y0.9346
X-2.9912 Y0.9462
X-2.9893 Y0.959
X-2.9883 Y0.9734
X-2.9885 Y0.9882
X-2.9901 Y1.0046
X-2.9932 Y1.0222
X-2.9979 Y1.0402
X-3.0047 Y1.0597
X-3.0137 Y1.0801
X-3.0245 Y1.1002
X-3.0381 Y1.1211
X-3.0544 Y1.1423
X-3.0737 Y1.1635
X-3.0951 Y1.1836
X-3.1189 Y1.2027
X-3.1455 Y1.2206
X-3.1744 Y1.2368
X-3.2049 Y1.2509
X-3.2366 Y1.2626
X-3.2685 Y1.2715
X-3.3 Y1.2776
X-3.3295 Y1.2808
X-3.357 Y1.2817
X-3.3806 Y1.2805
X-3.4011 Y1.2778
X-3.4188 Y1.274
X-3.434 Y1.2695
X-3.4408 Y1.2669
X-3.4511 Y1.2616
X-3.4603 Y1.2543
X-3.4678 Y1.2454
X-3.4733 Y1.2352
X-3.4768 Y1.2241
X-3.478 Y1.2125
Y1.1276
G3 X-3.4652 Y1.1067 I0.025 J0.0009
G1 X-3.419 Y1.0809
X-3.0991 Y0.902
X-3.0549 Y0.8773
G3 X-3.0285 Y0.8785 I0.0122 J0.0218
G1 X-2.9737 Y0.9192
X-2.969 Y0.9231
X-2.9641 Y0.9278
X-2.959 Y0.9336
X-2.9541 Y0.9402
X-2.9491 Y0.9481
X-2.9446 Y0.9567
X-2.9402 Y0.967
X-2.9366 Y0.978
X-2.9334 Y0.9909
X-2.9312 Y1.0044
X-2.93 Y1.0198
Y1.0366
X-2.9315 Y1.0539
X-2.9346 Y1.0734
X-2.9397 Y1.0937
X-2.9467 Y1.1147
X-2.9564 Y1.1374
X-2.9688 Y1.1611
X-2.9834 Y1.1842
X-3.0011 Y1.2077
X-3.0221 Y1.2315
X-3.0465 Y1.255
X-3.074 Y1.2775
X-3.1039 Y1.2982
X-3.1361 Y1.3168
X-3.1704 Y1.3332
X-3.2062 Y1.3469
X-3.2423 Y1.3574
X-3.2775 Y1.3647
X-3.3107 Y1.3688
X-3.3421 Y1.3702
X-3.3703 Y1.3691
X-3.3937 Y1.3663
X-3.4124 Y1.3626
X-3.4296 Y1.3577
X-3.4401 Y1.3537
X-3.4506 Y1.3485
X-3.4599 Y1.3413
X-3.4676 Y1.3324
X-3.4733 Y1.3221
X-3.4768 Y1.3108
X-3.478 Y1.2991
Y1.2125
G3 X-3.4656 Y1.1918 I0.025 J0.0009
G1 X-3.4196 Y1.1647
X-3.0438 Y0.9436
X-3.0006 Y0.9182
G3 X-2.9737 Y0.9192 I0.0127 J0.0215
G1 X-2.9179 Y0.9605
X-2.9105 Y0.9667
X-2.9052 Y0.9718
X-2.8999 Y0.9777
X-2.8946 Y0.9848
X-2.8895 Y0.993
X-2.8846 Y1.0024
X-2.8801 Y1.0131
X-2.8761 Y1.0251
X-2.8727 Y1.0388
X-2.8704 Y1.0533
X-2.8691 Y1.0701
Y1.0875
X-2.8707 Y1.1071
X-2.8742 Y1.1285
X-2.8795 Y1.1501
X-2.8874 Y1.1737
X-2.8982 Y1.1991
X-2.9114 Y1.2242
X-2.9279 Y1.2503
X-2.9347 Y1.2594
X-2.9438 Y1.269
X-2.9548 Y1.2763
X-2.9672 Y1.2809
X-2.9803 Y1.2827
X-2.9935 Y1.2814
X-2.9976 Y1.2805
X-3.0065 Y1.2791
X-3.0242 Y1.2787
X-3.0331 Y1.2786
X-3.0419 Y1.2795
X-3.0451 Y1.2799
X-3.0508 Y1.281
X-3.0596 Y1.2832
X-3.0773 Y1.289
X-3.0862 Y1.2929
X-3.095 Y1.2974
X-3.1039 Y1.3031
X-3.1088 Y1.3065
X-3.1128 Y1.3096
X-3.1198 Y1.3153
X-3.1305 Y1.3261
X-3.1363 Y1.333
X-3.1393 Y1.337
X-3.1429 Y1.3419
X-3.1484 Y1.3508
X-3.151 Y1.3556
X-3.1548 Y1.3621
X-3.1604 Y1.3701
X-3.1673 Y1.3784
X-3.1765 Y1.3878
X-3.1868 Y1.3968
X-3.1997 Y1.4063
X-3.2146 Y1.4156
X-3.2322 Y1.4247
X-3.2516 Y1.4328
X-3.274 Y1.4401
X-3.2981 Y1.4459
X-3.3228 Y1.4497
X-3.3477 Y1.4516
X-3.3713 Y1.4515
X-3.3929 Y1.4496
X-3.4106 Y1.4466
X-3.4271 Y1.4424
X-3.4416 Y1.4375
X-3.4427 Y1.437
X-3.4526 Y1.4316
X-3.4613 Y1.4243
X-3.4684 Y1.4155
X-3.4736 Y1.4055
X-3.4769 Y1.3947
X-3.478 Y1.3835
Y1.2991
G3 X-3.449 Y1.2753 I0.025 J0.0009
G1 X-3.4133 Y1.281
X-3.2012 Y1.315
X-3.1696 Y1.3201
G3 X-3.151 Y1.3556 I-0.004 J0.0247
G1 X-3.1531 Y1.3596
X-3.157 Y1.368
X-3.1572 Y1.3685
X-3.1628 Y1.3862
X-3.165 Y1.395
X-3.1659 Y1.3996
X-3.1666 Y1.4039
X-3.1667 Y1.4054
X-3.1676 Y1.4113
X-3.1693 Y1.4176
X-3.1718 Y1.4246
X-3.1753 Y1.4323
X-3.1797 Y1.4402
X-3.1856 Y1.4491
X-3.1923 Y1.4577
X-3.2011 Y1.4672
X-3.211 Y1.4763
X-3.2232 Y1.4859
X-3.2367 Y1.4948
X-3.2525 Y1.5035
X-3.2705 Y1.5116
X-3.2896 Y1.5184
X-3.3104 Y1.524
X-3.332 Y1.528
X-3.3542 Y1.5302
X-3.3758 Y1.5307
X-3.3945 Y1.5296
X-3.4108 Y1.5273
X-3.4265 Y1.5238
X-3.44 Y1.5196
X-3.4413 Y1.5191
X-3.4515 Y1.5138
X-3.4605 Y1.5065
X-3.4679 Y1.4976
X-3.4734 Y1.4875
X-3.4768 Y1.4764
X-3.478 Y1.4649
Y1.3835
G3 X-3.4511 Y1.3594 I0.025 J0.0009
G1 X-3.4129 Y1.3623
X-3.2293 Y1.376
X-3.1898 Y1.3789
G3 X-3.1667 Y1.4054 I-0.0019 J0.0249
G1 X-3.1675 Y1.4128
X-3.1678 Y1.4216
X-3.1679 Y1.4393
X-3.168 Y1.457
Y1.4619
X-3.1683 Y1.4689
X-3.1692 Y1.4757
X-3.1707 Y1.4828
X-3.1731 Y1.4909
X-3.1763 Y1.4991
X-3.1808 Y1.5083
X-3.1862 Y1.5174
X-3.1932 Y1.5275
X-3.2013 Y1.5371
X-3.2113 Y1.5474
X-3.2227 Y1.5574
X-3.2359 Y1.5671
X-3.2513 Y1.5767
X-3.2679 Y1.5853
X-3.2863 Y1.593
X-3.3061 Y1.5994
X-3.3267 Y1.6044
X-3.3478 Y1.6077
X-3.3689 Y1.6093
X-3.3871 Y1.6092
X-3.4038 Y1.6077
X-3.4192 Y1.6051
X-3.433 Y1.6017
X-3.4384 Y1.5998
X-3.4493 Y1.5948
X-3.459 Y1.5876
X-3.467 Y1.5786
X-3.473 Y1.5681
X-3.4767 Y1.5566
X-3.478 Y1.5446
Y1.4649
G3 X-3.4533 Y1.4408 I0.025 J0.0009
G1 X-3.4128 Y1.4403
X-3.2331 Y1.4382
X-3.1932 Y1.4378
G3 X-3.168 Y1.4619 I0.0003 J0.025
G1 Y1.5368
X-3.1683 Y1.5428
X-3.1693 Y1.55
X-3.1712 Y1.5581
X-3.1739 Y1.5666
X-3.1777 Y1.5758
X-3.1825 Y1.5853
X-3.1888 Y1.5956
X-3.1961 Y1.6057
X-3.2054 Y1.6165
X-3.2158 Y1.6268
X-3.2282 Y1.6373
X-3.2426 Y1.6476
X-3.2583 Y1.657
X-3.2757 Y1.6656
X-3.2947 Y1.6732
X-3.3146 Y1.6793
X-3.3351 Y1.6839
X-3.3559 Y1.6868
X-3.3747 Y1.6879
X-3.3928 Y1.6875
X-3.4083 Y1.6859
X-3.4233 Y1.6831
X-3.4366 Y1.6795
X-3.4393 Y1.6785
X-3.45 Y1.6734
X-3.4595 Y1.6662
X-3.4673 Y1.6572
X-3.4731 Y1.6468
X-3.4767 Y1.6355
X-3.478 Y1.6236
Y1.5446
G3 X-3.4537 Y1.5205 I0.025 J0.0009
G1 X-3.4128 Y1.5192
X-3.2331 Y1.5138
X-3.1937 Y1.5126
G3 X-3.168 Y1.5368 I0.0008 J0.025
G1 Y1.6076
X-3.1684 Y1.6172
X-3.1694 Y1.6248
X-3.1711 Y1.6327
X-3.1738 Y1.6415
X-3.1773 Y1.6506
X-3.1822 Y1.6606
X-3.188 Y1.6705
X-3.1956 Y1.6814
X-3.2043 Y1.6918
X-3.2149 Y1.7027
X-3.2274 Y1.7136
X-3.241 Y1.7237
X-3.2568 Y1.7335
X-3.2743 Y1.7425
X-3.293 Y1.7504
X-3.3126 Y1.7568
X-3.3328 Y1.7616
X-3.3534 Y1.7648
X-3.3722 Y1.7662
X-3.3903 Y1.7661
X-3.4057 Y1.7648
X-3.421 Y1.7622
X-3.4341 Y1.7589
X-3.4383 Y1.7575
X-3.4493 Y1.7525
X-3.459 Y1.7453
X-3.467 Y1.7363
X-3.4729 Y1.7258
X-3.4766 Y1.7143
X-3.4779 Y1.7024
X-3.478 Y1.6608
Y1.6236
G3 X-3.4545 Y1.5995 I0.025 J0.0009
G1 X-3.4129 Y1.597
X-3.233 Y1.5859
X-3.1945 Y1.5835
G3 X-3.168 Y1.6076 I0.0015 J0.025
G1 Y1.6873
X-3.1683 Y1.6943
X-3.1694 Y1.7021
X-3.1711 Y1.71
X-3.1738 Y1.7191
X-3.1774 Y1.7282
X-3.1824 Y1.7384
X-3.1883 Y1.7485
X-3.196 Y1.7594
X-3.2051 Y1.7703
X-3.2156 Y1.781
X-3.2283 Y1.7921
X-3.2423 Y1.8024
X-3.258 Y1.8121
X-3.2754 Y1.8211
X-3.2942 Y1.8289
X-3.3138 Y1.8353
X-3.3341 Y1.8401
X-3.3545 Y1.8432
X-3.3731 Y1.8446
X-3.3911 Y1.8445
X-3.3939 Y1.8442
X-3.4039 Y1.8424
X-3.4135 Y1.839
X-3.4223 Y1.8339
X-3.43 Y1.8273
G3 X-3.4239 Y1.7885 I0.0183 J-0.0171
G1 X-3.3949 Y1.7723
X-3.229 Y1.6797
X-3.2051 Y1.6663
G3 X-3.168 Y1.6873 I0.0122 J0.0218
G1 Y1.705
X-3.1684 Y1.7139
X-3.1724 Y1.7493
X-3.1728 Y1.7515
X-3.1733 Y1.7536
X-3.1748 Y1.7582
X-3.181 Y1.7759
X-3.1836 Y1.7831
X-3.1844 Y1.7848
X-3.1897 Y1.7936
X-3.2008 Y1.8113
X-3.2013 Y1.8121
X-3.2028 Y1.8141
X-3.2046 Y1.8161
X-3.219 Y1.8305
X-3.2266 Y1.8379
X-3.2279 Y1.8389
X-3.2403 Y1.8468
X-3.2544 Y1.8557
X-3.2567 Y1.8568
X-3.2589 Y1.8577
X-3.281 Y1.8654
X-3.2899 Y1.8682
X-3.2987 Y1.8692
X-3.3209 Y1.8717
X-3.3253
X-3.3519 Y1.8687
X-3.3563 Y1.8681
X-3.3607 Y1.8669
X-3.3873 Y1.8576
X-3.3915 Y1.8556
X-3.4139 Y1.8416
X-3.4193 Y1.8379
X-3.4227 Y1.8347
X-3.4404 Y1.817
X-3.4431 Y1.8142
X-3.4451 Y1.8113
X-3.4581 Y1.7906
X-3.4616 Y1.7848
X-3.4649 Y1.7759
X-3.4711 Y1.7582
X-3.4726 Y1.7538
X-3.4731 Y1.7515
X-3.4735 Y1.7493
X-3.4775 Y1.7139
X-3.4779 Y1.705
Y1.7024
G3 X-3.4732 Y1.6886 I0.025 J0.0008
G1 X-3.4359 Y1.6369
X-2.9757 Y0.9988
X-2.9524 Y0.9665
G3 X-2.9179 Y0.9605 I0.0203 J0.0146
G1 X-2.8576 Y1.0053
X-2.8495 Y1.0119
X-2.8439 Y1.0174
X-2.8386 Y1.0234
X-2.8329 Y1.031
X-2.8276 Y1.0394
X-2.8223 Y1.0496
X-2.8177 Y1.0605
X-2.8133 Y1.0736
X-2.81 Y1.0873
X-2.8074 Y1.1034
X-2.806 Y1.1207
Y1.1398
X-2.8078 Y1.1613
X-2.8113 Y1.183
X-2.8173 Y1.2073
X-2.8245 Y1.2288
X-2.8327 Y1.2479
X-2.8406 Y1.263
X-2.8495 Y1.2771
X-2.8582 Y1.2887
X-2.864 Y1.2952
X-2.8726 Y1.3032
X-2.8828 Y1.3093
X-2.8939 Y1.3132
X-2.9056 Y1.3148
X-2.9174 Y1.3141
X-2.9288 Y1.3109
X-2.9393 Y1.3055
X-2.9445 Y1.3022
G3 X-2.9546 Y1.2761 I0.0143 J-0.0205
G1 X-2.9437 Y1.2285
X-2.9028 Y1.0494
X-2.8961 Y1.0203
G3 X-2.8576 Y1.0053 I0.0244 J0.0056
G1 X-2.794 Y1.0525
X-2.7865 Y1.0587
X-2.7807 Y1.0642
X-2.7751 Y1.0706
X-2.7693 Y1.0783
X-2.7637 Y1.0873
X-2.7583 Y1.0976
X-2.7534 Y1.1092
X-2.749 Y1.1226
X-2.7454 Y1.1373
X-2.7427 Y1.1541
X-2.7413 Y1.1715
Y1.1902
X-2.7429 Y1.2097
X-2.7461 Y1.2295
X-2.751 Y1.2491
X-2.757 Y1.2672
X-2.7642 Y1.2841
X-2.7715 Y1.298
X-2.7798 Y1.3112
X-2.7881 Y1.3222
X-2.7973 Y1.3326
X-2.8064 Y1.3413
X-2.8109 Y1.345
X-2.8217 Y1.352
X-2.8337 Y1.3565
X-2.8464 Y1.3582
X-2.8592 Y1.3571
X-2.8715 Y1.3532
X-2.8826 Y1.3467
X-2.9268 Y1.3139
X-2.9356 Y1.3079
X-2.9393 Y1.3055
G3 X-2.9469 Y1.2729 I0.0143 J-0.0205
G1 X-2.9267 Y1.2363
X-2.8478 Y1.0932
X-2.83 Y1.061
G3 X-2.794 Y1.0525 I0.0219 J0.0121
G1 X-2.7262 Y1.1027
X-2.7216 Y1.1066
X-2.7158 Y1.1121
X-2.71 Y1.1188
X-2.7042 Y1.1265
X-2.6986 Y1.1355
X-2.6932 Y1.1459
X-2.6884 Y1.1574
X-2.684 Y1.1707
X-2.6806 Y1.1847
X-2.6782 Y1.2002
X-2.6769 Y1.2172
Y1.2346
X-2.6784 Y1.2524
X-2.6814 Y1.2706
X-2.6859 Y1.2887
X-2.692 Y1.3067
X-2.6994 Y1.3239
X-2.7073 Y1.3389
X-2.7163 Y1.353
X-2.7249 Y1.3645
X-2.7347 Y1.3756
X-2.744 Y1.3845
X-2.7506 Y1.3899
X-2.7614 Y1.3968
X-2.7735 Y1.4012
X-2.7862 Y1.4029
X-2.7989 Y1.4018
X-2.8112 Y1.3979
X-2.8222 Y1.3915
X-2.8826 Y1.3467
G3 X-2.8882 Y1.314 I0.0156 J-0.0195
G1 X-2.866 Y1.2781
X-2.7817 Y1.1425
X-2.7616 Y1.1101
G3 X-2.7262 Y1.1027 I0.0212 J0.0132
G1 X-2.6611 Y1.151
X-2.6565 Y1.1548
X-2.6507 Y1.1605
X-2.6452 Y1.167
X-2.6394 Y1.1749
X-2.6342 Y1.1835
X-2.6289 Y1.1938
X-2.6244 Y1.2049
X-2.6204 Y1.2175
X-2.6171 Y1.2316
X-2.6149 Y1.2463
X-2.6138 Y1.2625
X-2.6141 Y1.2798
X-2.6157 Y1.2975
X-2.6189 Y1.3154
X-2.6235 Y1.3334
X-2.6298 Y1.3513
X-2.6374 Y1.3687
X-2.6457 Y1.3841
X-2.655 Y1.3984
X-2.664 Y1.4101
X-2.6741 Y1.4212
X-2.6836 Y1.4301
X-2.6902 Y1.4354
X-2.7009 Y1.4422
X-2.7129 Y1.4465
X-2.7256 Y1.4481
X-2.7382 Y1.447
X-2.7504 Y1.4431
X-2.7613 Y1.4366
X-2.8222 Y1.3915
G3 X-2.8276 Y1.3582 I0.0156 J-0.0195
G1 X-2.8048 Y1.3234
X-2.7174 Y1.1902
X-2.6962 Y1.1579
G3 X-2.6611 Y1.151 I0.0209 J0.0137
G1 X-2.5991 Y1.197
X-2.5943 Y1.2009
X-2.5888 Y1.2063
X-2.5833 Y1.2125
X-2.5777 Y1.22
X-2.5725 Y1.2283
X-2.5673 Y1.2382
X-2.5629 Y1.2488
X-2.5588 Y1.2611
X-2.5555 Y1.2744
X-2.5532 Y1.2889
X-2.5519 Y1.3049
Y1.3216
X-2.5533 Y1.3388
X-2.5563 Y1.3568
X-2.5607 Y1.3748
X-2.5668 Y1.3929
X-2.5743 Y1.4105
X-2.5826 Y1.4264
X-2.592 Y1.4413
X-2.601 Y1.4532
X-2.6111 Y1.4647
X-2.6207 Y1.4739
X-2.6313 Y1.4826
X-2.6322 Y1.4832
X-2.6427 Y1.489
X-2.6543 Y1.4925
X-2.6663 Y1.4935
X-2.6783 Y1.4921
X-2.6897 Y1.4882
X-2.7001 Y1.4821
X-2.7613 Y1.4366
G3 X-2.7666 Y1.4033 I0.0156 J-0.0195
G1 X-2.7437 Y1.3687
X-2.6556 Y1.2361
X-2.6341 Y1.2037
G3 X-2.5991 Y1.197 I0.0208 J0.0138
G1 X-2.5371 Y1.243
X-2.5324 Y1.2469
X-2.5268 Y1.2523
X-2.5215 Y1.2583
X-2.5159 Y1.2658
X-2.5108 Y1.274
X-2.5057 Y1.2837
X-2.5012 Y1.2944
X-2.4972 Y1.3063
X-2.4939 Y1.3199
X-2.4916 Y1.334
X-2.4904 Y1.3497
Y1.3666
X-2.4918 Y1.3839
X-2.4947 Y1.4017
X-2.4992 Y1.4198
X-2.5052 Y1.4378
X-2.5127 Y1.4554
X-2.5215 Y1.4722
X-2.5304 Y1.4863
X-2.5399 Y1.499
X-2.5496 Y1.5099
X-2.5596 Y1.5196
X-2.5698 Y1.5279
X-2.5709 Y1.5286
X-2.5814 Y1.5344
X-2.593 Y1.5379
X-2.605 Y1.539
X-2.617 Y1.5375
X-2.6284 Y1.5337
X-2.6388 Y1.5275
X-2.7001 Y1.4821
G3 X-2.7053 Y1.4486 I0.0156 J-0.0195
G1 X-2.6823 Y1.4142
X-2.5938 Y1.282
X-2.5721 Y1.2496
G3 X-2.5371 Y1.243 I0.0208 J0.0139
G1 X-2.4754 Y1.2888
X-2.4708 Y1.2926
X-2.4652 Y1.2979
X-2.4599 Y1.3039
X-2.4544 Y1.3114
X-2.4493 Y1.3195
X-2.4442 Y1.3292
X-2.4397 Y1.3399
X-2.4358 Y1.3518
X-2.4325 Y1.3653
X-2.4302 Y1.3794
X-2.429 Y1.3951
Y1.412
X-2.4304 Y1.4294
X-2.4333 Y1.4471
X-2.4378 Y1.4652
X-2.4438 Y1.4833
X-2.4514 Y1.5009
X-2.4602 Y1.5177
X-2.4691 Y1.5318
X-2.4786 Y1.5445
X-2.4883 Y1.5554
X-2.4983 Y1.5651
X-2.5085 Y1.5734
X-2.5096 Y1.5741
X-2.5202 Y1.5799
X-2.5317 Y1.5834
X-2.5437 Y1.5845
X-2.5557 Y1.583
X-2.5671 Y1.5791
X-2.5775 Y1.573
X-2.6388 Y1.5275
G3 X-2.644 Y1.494 I0.0156 J-0.0195
G1 X-2.6209 Y1.4598
X-2.5321 Y1.3277
X-2.5103 Y1.2954
G3 X-2.4754 Y1.2888 I0.0207 J0.014
G1 X-2.4157 Y1.333
X-2.4094 Y1.3382
X-2.4039 Y1.3436
X-2.3986 Y1.3496
X-2.3931 Y1.357
X-2.3879 Y1.3651
X-2.3829 Y1.3748
X-2.3784 Y1.3854
X-2.3744 Y1.3973
X-2.3711 Y1.4108
X-2.3689 Y1.4249
X-2.3676 Y1.4405
X-2.3677 Y1.4575
X-2.3691 Y1.4748
X-2.372 Y1.4925
X-2.3764 Y1.5106
X-2.3825 Y1.5286
X-2.39 Y1.5463
X-2.3988 Y1.5631
X-2.4077 Y1.5772
X-2.4172 Y1.5899
X-2.4269 Y1.6008
X-2.437 Y1.6105
X-2.4471 Y1.6188
X-2.4482 Y1.6196
X-2.4588 Y1.6254
X-2.4704 Y1.6289
X-2.4824 Y1.6299
X-2.4944 Y1.6285
X-2.5058 Y1.6246
X-2.5162 Y1.6185
X-2.5775 Y1.573
G3 X-2.5828 Y1.5397 I0.0156 J-0.0195
G1 X-2.5599 Y1.505
X-2.4721 Y1.3722
X-2.4507 Y1.3398
G3 X-2.4157 Y1.333 I0.0209 J0.0138
G1 X-2.356 Y1.3773
X-2.3481 Y1.3838
X-2.3426 Y1.3892
X-2.3373 Y1.3952
X-2.3317 Y1.4026
X-2.3266 Y1.4107
X-2.3216 Y1.4203
X-2.3171 Y1.431
X-2.3131 Y1.4429
X-2.3098 Y1.4564
X-2.3076 Y1.4705
X-2.3063 Y1.486
X-2.3064 Y1.503
X-2.3078 Y1.5203
X-2.3107 Y1.538
X-2.3151 Y1.5561
X-2.3212 Y1.5741
X-2.3287 Y1.5918
X-2.3375 Y1.6085
X-2.3464 Y1.6227
X-2.3559 Y1.6354
X-2.3656 Y1.6463
X-2.3757 Y1.656
X-2.3858 Y1.6643
X-2.3869 Y1.6651
X-2.3975 Y1.6709
X-2.4091 Y1.6744
X-2.4211 Y1.6754
X-2.4331 Y1.674
X-2.4445 Y1.6701
X-2.4549 Y1.6639
X-2.5162 Y1.6185
G3 X-2.5216 Y1.5853 I0.0156 J-0.0195
G1 X-2.4989 Y1.5503
X-2.4121 Y1.4167
X-2.3911 Y1.3843
G3 X-2.356 Y1.3773 I0.021 J0.0136
G1 X-2.2924 Y1.4245
X-2.2868 Y1.4291
X-2.2813 Y1.4345
X-2.276 Y1.4405
X-2.2704 Y1.4479
X-2.2653 Y1.456
X-2.2603 Y1.4657
X-2.2557 Y1.4764
X-2.2518 Y1.4882
X-2.2485 Y1.5017
X-2.2462 Y1.5158
X-2.245 Y1.5314
Y1.5484
X-2.2464 Y1.5657
X-2.2493 Y1.5835
X-2.2538 Y1.6016
X-2.2598 Y1.6196
X-2.2673 Y1.6372
X-2.2761 Y1.654
X-2.2851 Y1.6682
X-2.2946 Y1.6808
X-2.3042 Y1.6917
X-2.3143 Y1.7015
X-2.3245 Y1.7097
X-2.3256 Y1.7105
X-2.3362 Y1.7163
X-2.3477 Y1.7198
X-2.3598 Y1.7209
X-2.3717 Y1.7195
X-2.3832 Y1.7156
X-2.3936 Y1.7094
X-2.4549 Y1.6639
G3 X-2.4601 Y1.6305 I0.0156 J-0.0195
G1 X-2.4372 Y1.5961
X-2.3489 Y1.4636
X-2.3274 Y1.4312
G3 X-2.2924 Y1.4245 I0.0208 J0.0139
G1 X-2.2312 Y1.4699
X-2.2254 Y1.4746
X-2.2199 Y1.48
X-2.2146 Y1.486
X-2.2091 Y1.4934
X-2.204 Y1.5015
X-2.1989 Y1.5112
X-2.1944 Y1.5219
X-2.1905 Y1.5337
X-2.1872 Y1.5472
X-2.1849 Y1.5613
X-2.1837 Y1.5769
Y1.5939
X-2.1851 Y1.6112
X-2.188 Y1.6289
X-2.1925 Y1.647
X-2.1985 Y1.6651
X-2.206 Y1.6827
X-2.2148 Y1.6995
X-2.2238 Y1.7136
X-2.2333 Y1.7263
X-2.2429 Y1.7372
X-2.253 Y1.7469
X-2.2631 Y1.7552
X-2.2643 Y1.756
X-2.2749 Y1.7618
X-2.2864 Y1.7653
X-2.2984 Y1.7664
X-2.3104 Y1.7649
X-2.3219 Y1.7611
X-2.3322 Y1.7549
X-2.3936 Y1.7094
G3 X-2.3988 Y1.676 I0.0156 J-0.0195
G1 X-2.3759 Y1.6415
X-2.2877 Y1.509
X-2.2662 Y1.4766
G3 X-2.2312 Y1.4699 I0.0208 J0.0138
G1 X-2.1692 Y1.5159
X-2.1641 Y1.5201
X-2.1586 Y1.5254
X-2.1533 Y1.5314
X-2.1478 Y1.5388
X-2.1426 Y1.547
X-2.1376 Y1.5566
X-2.1331 Y1.5673
X-2.1291 Y1.5791
X-2.1258 Y1.5927
X-2.1236 Y1.6068
X-2.1223 Y1.6224
Y1.6393
X-2.1238 Y1.6567
X-2.1267 Y1.6744
X-2.1311 Y1.6925
X-2.1372 Y1.7105
X-2.1447 Y1.7282
X-2.1535 Y1.745
X-2.1624 Y1.7591
X-2.1719 Y1.7718
X-2.1816 Y1.7827
X-2.1917 Y1.7924
X-2.2018 Y1.8007
X-2.203 Y1.8015
X-2.2135 Y1.8073
X-2.2251 Y1.8108
X-2.2371 Y1.8119
X-2.2491 Y1.8104
X-2.2605 Y1.8065
X-2.2709 Y1.8004
X-2.3322 Y1.7549
G3 X-2.3374 Y1.7214 I0.0156 J-0.0195
G1 X-2.3144 Y1.6871
X-2.2258 Y1.5549
X-2.2041 Y1.5225
G3 X-2.1692 Y1.5159 I0.0208 J0.0139
G1 X-2.1083 Y1.561
X-2.1028 Y1.5656
X-2.0972 Y1.5709
X-2.092 Y1.5769
X-2.0864 Y1.5843
X-2.0813 Y1.5925
X-2.0763 Y1.6021
X-2.0717 Y1.6128
X-2.0678 Y1.6247
X-2.0645 Y1.6382
X-2.0622 Y1.6523
X-2.061 Y1.6679
Y1.6848
X-2.0624 Y1.7022
X-2.0653 Y1.7199
X-2.0698 Y1.738
X-2.0758 Y1.756
X-2.0834 Y1.7737
X-2.0922 Y1.7904
X-2.1011 Y1.8046
X-2.1106 Y1.8173
X-2.116 Y1.8234
X-2.1249 Y1.8315
X-2.1353 Y1.8377
X-2.1467 Y1.8416
X-2.1587 Y1.8431
G3 X-2.183 Y1.8143 I0.0004 J-0.025
G1 X-2.1776 Y1.7788
X-2.1514 Y1.6055
X-2.1472 Y1.5779
G3 X-2.1083 Y1.561 I0.0247 J0.0037
G1 X-2.0455 Y1.6076
X-2.0409 Y1.6114
X-2.0353 Y1.6169
X-2.03 Y1.623
X-2.0245 Y1.6305
X-2.0194 Y1.6389
X-2.0177 Y1.6422
X-2.0157 Y1.6464
X-2.0141 Y1.6507
X-2.0129 Y1.6552
G3 X-2.0579 Y1.6744 I-0.0245 J0.005
G1 X-2.0637 Y1.6661
X-2.075 Y1.6499
X-2.0802 Y1.6425
G3 X-2.0455 Y1.6076 I0.0205 J-0.0143
G1 X-2.0324 Y1.6174
X-2.028 Y1.6206
X-2.0256 Y1.623
X-2.0235 Y1.6255
X-2.0221 Y1.6277
X-2.0209 Y1.6299
X-2.0188 Y1.6342
X-2.0169 Y1.6386
X-2.0158 Y1.643
X-2.0115 Y1.6608
X-2.0095 Y1.6696
X-2.009 Y1.6785
X-2.0088 Y1.6962
Y1.705
X-2.0105 Y1.7139
X-2.0155 Y1.7368
X-2.0167 Y1.7405
X-2.0249 Y1.7582
X-2.029 Y1.7671
X-2.0304 Y1.7699
X-2.0324 Y1.7727
X-2.0501 Y1.7955
X-2.052 Y1.7976
X-2.0539 Y1.7993
X-2.0685 Y1.8113
X-2.0766 Y1.818
X-2.0801 Y1.8202
X-2.1032 Y1.8318
X-2.1076 Y1.8339
X-2.1121 Y1.8354
X-2.1386 Y1.8419
X-2.1431 Y1.8427
X-2.1475 Y1.8429
X-2.1741 Y1.8433
X-2.1785 Y1.8429
X-2.2026 Y1.8379
X-2.2095 Y1.8364
X-2.2183 Y1.8326
X-2.2401 Y1.8226
X-2.2422 Y1.8215
X-2.2442 Y1.8202
X-2.2709 Y1.8004
G3 X-2.2634 Y1.7572 I0.0156 J-0.0195
G1 X-2.2606 Y1.7567 Z-0.2673
X-2.258 Y1.7563 Z-0.2669
X-2.2553 Y1.7558 Z-0.2661
X-2.2522 Y1.7564 Z-0.2648
X-2.2493 Y1.7569 Z-0.263
X-2.2467 Y1.7574 Z-0.2608
X-2.2445 Y1.7586 Z-0.2581
X-2.2427 Y1.7596 Z-0.2551
X-2.2413 Y1.7603 Z-0.2518
X-2.2403 Y1.7609 Z-0.2483
X-2.2399 Y1.7612 Z-0.2454
X-2.2398 Y1.7613 Z-0.2425
G0 Z0.2
X-3.0098 Y-0.8965
Z-0.2425
G1 Z-0.2675 F40
X-3.0227 Y-0.9296
G3 X-3.005 Y-0.9631 I0.0233 J-0.0091
G1 X-2.9888 Y-0.9662
X-2.9799 Y-0.9684
X-2.9711 Y-0.9715
X-2.9622 Y-0.9753
X-2.955 Y-0.9787
X-2.9496 Y-0.9813
X-2.9434 Y-0.9835
X-2.9362 Y-0.9854
X-2.9279 Y-0.9869
X-2.919 Y-0.9878
X-2.9085 Y-0.988
X-2.8976 Y-0.9873
X-2.8848 Y-0.9855
X-2.8719 Y-0.9826
X-2.857 Y-0.9779
X-2.8421 Y-0.9719
X-2.8257 Y-0.9637
X-2.8087 Y-0.9534
X-2.7916 Y-0.9411
X-2.7735 Y-0.9256
X-2.7555 Y-0.9077
X-2.7385 Y-0.8876
X-2.7216 Y-0.8643
X-2.7069 Y-0.84
X-2.6961 Y-0.8184
X-2.6959 Y-0.8179
X-2.6927 Y-0.8066
X-2.6917 Y-0.7949
X-2.6931 Y-0.7833
X-2.6968 Y-0.7722
X-2.7027 Y-0.762
X-2.763 Y-0.6782
G3 X-2.8042 Y-0.6806 I-0.0198 J-0.0153
G1 X-2.8197 Y-0.7064
X-2.9428 Y-0.9107
X-2.9633 Y-0.9446
G3 X-2.955 Y-0.9787 I0.0214 J-0.0129
G1 X-2.9445 Y-0.9849
X-2.9356 Y-0.9911
X-2.9291 Y-0.9965
X-2.9194 Y-1.0053
X-2.915 Y-1.0094
X-2.9101 Y-1.0128
X-2.9047 Y-1.016
X-2.8981 Y-1.0192
X-2.8909 Y-1.022
X-2.8824 Y-1.0245
X-2.8733 Y-1.0265
X-2.8626 Y-1.0278
X-2.8515 Y-1.0284
X-2.8386 Y-1.028
X-2.8255 Y-1.0265
X-2.8104 Y-1.0236
X-2.795 Y-1.0193
X-2.7783 Y-1.0131
X-2.7604 Y-1.0048
X-2.7427 Y-0.9948
X-2.7235 Y-0.9819
X-2.7039 Y-0.9662
X-2.6852 Y-0.9487
X-2.6693 Y-0.9311
X-2.6567 Y-0.9146
X-2.6472 Y-0.9
X-2.6457 Y-0.8973
X-2.6409 Y-0.8852
X-2.6388 Y-0.8723
X-2.6396 Y-0.8593
X-2.6433 Y-0.8468
X-2.6497 Y-0.8355
X-2.7027 Y-0.762
G3 X-2.7416 Y-0.7612 I-0.0198 J-0.0153
G1 X-2.7635 Y-0.7872
X-2.892 Y-0.9398
X-2.9198 Y-0.9727
G3 X-2.9194 Y-1.0053 I0.0191 J-0.0161
G1 X-2.9179 Y-1.0069
X-2.9091 Y-1.017
X-2.9045 Y-1.023
X-2.8914 Y-1.0407
X-2.8869 Y-1.0462
X-2.8827 Y-1.0505
X-2.878 Y-1.0546
X-2.8722 Y-1.059
X-2.8658 Y-1.063
X-2.8581 Y-1.067
X-2.8498 Y-1.0705
X-2.84 Y-1.0738
X-2.8294 Y-1.0763
X-2.8175 Y-1.0782
X-2.8044 Y-1.0793
X-2.7904 Y-1.0792
X-2.7746 Y-1.0779
X-2.7586 Y-1.0753
X-2.7406 Y-1.0709
X-2.7217 Y-1.0645
X-2.7026 Y-1.0563
X-2.6826 Y-1.0458
X-2.6628 Y-1.0333
X-2.644 Y-1.0191
X-2.629 Y-1.0059
X-2.6159 Y-0.9922
X-2.6058 Y-0.9798
X-2.5998 Y-0.9712
X-2.594 Y-0.9607
X-2.5905 Y-0.9493
X-2.5894 Y-0.9374
X-2.5908 Y-0.9256
X-2.5945 Y-0.9143
X-2.6004 Y-0.9039
X-2.6497 Y-0.8355
G3 X-2.6859 Y-0.832 I-0.0198 J-0.0153
G1 X-2.7144 Y-0.8568
X-2.8555 Y-0.98
X-2.8872 Y-1.0077
G3 X-2.8914 Y-1.0407 I0.0164 J-0.0188
G1 X-2.852 Y-1.0939
X-2.8481 Y-1.0985
X-2.8436 Y-1.1032
X-2.838 Y-1.1081
X-2.8316 Y-1.1129
X-2.8242 Y-1.1176
X-2.8156 Y-1.122
X-2.806 Y-1.1261
X-2.7949 Y-1.1297
X-2.783 Y-1.1326
X-2.7692 Y-1.1348
X-2.7549 Y-1.136
X-2.7387 Y-1.1359
X-2.7214 Y-1.1345
X-2.7033 Y-1.1315
X-2.6836 Y-1.1266
X-2.6635 Y-1.1199
X-2.6435 Y-1.1113
X-2.624 Y-1.101
X-2.6057 Y-1.0895
X-2.5896 Y-1.0773
X-2.5766 Y-1.0658
X-2.565 Y-1.0537
X-2.5558 Y-1.0425
X-2.5522 Y-1.0372
X-2.5464 Y-1.0268
X-2.5429 Y-1.0154
X-2.5418 Y-1.0035
X-2.5432 Y-0.9917
X-2.5469 Y-0.9803
X-2.5528 Y-0.97
X-2.6004 Y-0.9039
G3 X-2.6353 Y-0.8993 I-0.0198 J-0.0153
G1 X-2.6668 Y-0.9232
X-2.8143 Y-1.0353
X-2.8465 Y-1.0598
G3 X-2.852 Y-1.0939 I0.0151 J-0.0199
G1 X-2.8117 Y-1.1482
X-2.8057 Y-1.1555
X-2.8008 Y-1.1605
X-2.7948 Y-1.1658
X-2.788 Y-1.1709
X-2.7799 Y-1.176
X-2.7709 Y-1.1807
X-2.7602 Y-1.1852
X-2.7488 Y-1.189
X-2.7353 Y-1.1923
X-2.7213 Y-1.1946
X-2.7054 Y-1.1958
X-2.6882
X-2.6704 Y-1.1943
X-2.6511 Y-1.1912
X-2.631 Y-1.1862
X-2.611 Y-1.1795
X-2.5912 Y-1.1711
X-2.5722 Y-1.1611
X-2.5553 Y-1.1505
X-2.5401 Y-1.139
X-2.528 Y-1.1284
X-2.5169 Y-1.1168
X-2.508 Y-1.106
X-2.5054 Y-1.1022
X-2.4997 Y-1.0917
X-2.4962 Y-1.0803
X-2.495 Y-1.0685
X-2.4964 Y-1.0566
X-2.5001 Y-1.0452
X-2.506 Y-1.0349
X-2.5528 Y-0.97
G3 X-2.5867 Y-0.9646 I-0.0198 J-0.0153
G1 X-2.6204 Y-0.9876
X-2.7728 Y-1.0913
X-2.8051 Y-1.1134
G3 X-2.8117 Y-1.1482 I0.0141 J-0.0207
G1 X-2.7674 Y-1.2079
X-2.7612 Y-1.2154
X-2.7559 Y-1.2209
X-2.7499 Y-1.2261
X-2.7426 Y-1.2317
X-2.7344 Y-1.2368
X-2.7246 Y-1.2419
X-2.7139 Y-1.2464
X-2.7017 Y-1.2505
X-2.688 Y-1.2538
X-2.6733 Y-1.2562
X-2.6567 Y-1.2575
X-2.6394
X-2.621 Y-1.256
X-2.6015 Y-1.2528
X-2.5814 Y-1.2478
X-2.5615 Y-1.2412
X-2.542 Y-1.2329
X-2.5233 Y-1.2231
X-2.5071 Y-1.2128
X-2.4924 Y-1.2018
X-2.4807 Y-1.1914
X-2.4698 Y-1.1801
X-2.4611 Y-1.1695
X-2.4591 Y-1.1665
X-2.4533 Y-1.1561
X-2.4498 Y-1.1447
X-2.4487 Y-1.1328
X-2.45 Y-1.1209
X-2.4537 Y-1.1096
X-2.4597 Y-1.0992
X-2.506 Y-1.0349
G3 X-2.5394 Y-1.0292 I-0.0198 J-0.0153
G1 X-2.5741 Y-1.0518
X-2.7281 Y-1.1517
X-2.7604 Y-1.1728
G3 X-2.7674 Y-1.2079 I0.0136 J-0.021
G1 X-2.7206 Y-1.271
X-2.7156 Y-1.2771
X-2.7102 Y-1.2827
X-2.7041 Y-1.2881
X-2.6965 Y-1.2937
X-2.6882 Y-1.299
X-2.6781 Y-1.3042
X-2.6673 Y-1.3088
X-2.6547 Y-1.313
X-2.641 Y-1.3163
X-2.626 Y-1.3187
X-2.6091 Y-1.3201
X-2.5917
X-2.5731 Y-1.3185
X-2.5536 Y-1.3153
X-2.5335 Y-1.3104
X-2.5137 Y-1.3038
X-2.4944 Y-1.2955
X-2.4758 Y-1.2858
X-2.46 Y-1.2758
X-2.4456 Y-1.265
X-2.434 Y-1.2547
X-2.4233 Y-1.2436
X-2.4147 Y-1.2331
X-2.4129 Y-1.2306
X-2.4072 Y-1.2201
X-2.4037 Y-1.2087
X-2.4026 Y-1.1968
X-2.4039 Y-1.1849
X-2.4076 Y-1.1736
X-2.4136 Y-1.1632
X-2.4597 Y-1.0992
G3 X-2.493 Y-1.0935 I-0.0198 J-0.0153
G1 X-2.5278 Y-1.116
X-2.6812 Y-1.215
X-2.7135 Y-1.2358
G3 X-2.7206 Y-1.271 I0.0136 J-0.021
G1 X-2.6746 Y-1.333
X-2.6692 Y-1.3396
X-2.6637 Y-1.3453
X-2.6575 Y-1.3507
X-2.6499 Y-1.3564
X-2.6415 Y-1.3617
X-2.6314 Y-1.367
X-2.6205 Y-1.3716
X-2.6077 Y-1.3758
X-2.594 Y-1.3792
X-2.5789 Y-1.3816
X-2.562 Y-1.383
X-2.5445 Y-1.3829
X-2.5259 Y-1.3814
X-2.5063 Y-1.3782
X-2.4864 Y-1.3733
X-2.4667 Y-1.3667
X-2.4474 Y-1.3585
X-2.429 Y-1.3489
X-2.4134 Y-1.339
X-2.3992 Y-1.3283
X-2.3877 Y-1.3181
X-2.3771 Y-1.3072
X-2.3685 Y-1.2967
X-2.367 Y-1.2944
X-2.3612 Y-1.2839
X-2.3577 Y-1.2725
X-2.3566 Y-1.2606
X-2.3579 Y-1.2488
X-2.3616 Y-1.2374
X-2.3676 Y-1.2271
X-2.4136 Y-1.1632
G3 X-2.4467 Y-1.1575 I-0.0198 J-0.0153
G1 X-2.4818 Y-1.1798
X-2.635 Y-1.2772
X-2.6674 Y-1.2978
G3 X-2.6746 Y-1.333 I0.0134 J-0.0211
G1 X-2.6286 Y-1.395
X-2.6224 Y-1.4025
X-2.6169 Y-1.4082
X-2.6108 Y-1.4137
X-2.6031 Y-1.4194
X-2.5947 Y-1.4247
X-2.5845 Y-1.43
X-2.5737 Y-1.4346
X-2.5608 Y-1.4388
X-2.5471 Y-1.4422
X-2.532 Y-1.4446
X-2.515 Y-1.446
X-2.4976 Y-1.4459
X-2.479 Y-1.4444
X-2.4595 Y-1.4412
X-2.4396 Y-1.4363
X-2.42 Y-1.4298
X-2.4009 Y-1.4216
X-2.3826 Y-1.412
X-2.3671 Y-1.4023
X-2.353 Y-1.3916
X-2.3416 Y-1.3815
X-2.3311 Y-1.3706
X-2.3225 Y-1.3602
X-2.3211 Y-1.3581
X-2.3153 Y-1.3476
X-2.3118 Y-1.3362
X-2.3107 Y-1.3243
X-2.312 Y-1.3124
X-2.3157 Y-1.3011
X-2.3217 Y-1.2908
X-2.3676 Y-1.2271
G3 X-2.4006 Y-1.2212 I-0.0198 J-0.0153
G1 X-2.436 Y-1.2434
X-2.5889 Y-1.3394
X-2.6213 Y-1.3597
G3 X-2.6286 Y-1.395 I0.0133 J-0.0212
G1 X-2.5826 Y-1.457
X-2.5756 Y-1.4655
X-2.5701 Y-1.4712
X-2.564 Y-1.4767
X-2.5563 Y-1.4824
X-2.5479 Y-1.4877
X-2.5377 Y-1.493
X-2.5268 Y-1.4976
X-2.514 Y-1.5018
X-2.5003 Y-1.5052
X-2.4852 Y-1.5076
X-2.4683 Y-1.509
X-2.4509 Y-1.5089
X-2.4323 Y-1.5074
X-2.4129 Y-1.5043
X-2.3931 Y-1.4994
X-2.3736 Y-1.4928
X-2.3545 Y-1.4847
X-2.3363 Y-1.4752
X-2.321 Y-1.4655
X-2.307 Y-1.4549
X-2.2956 Y-1.4449
X-2.2852 Y-1.434
X-2.2766 Y-1.4236
X-2.2753 Y-1.4216
X-2.2695 Y-1.4112
X-2.266 Y-1.3998
X-2.2649 Y-1.3879
X-2.2662 Y-1.376
X-2.2699 Y-1.3647
X-2.2759 Y-1.3543
X-2.3217 Y-1.2908
G3 X-2.3546 Y-1.2848 I-0.0198 J-0.0153
G1 X-2.3902 Y-1.3069
X-2.5428 Y-1.4015
X-2.5752 Y-1.4216
G3 X-2.5826 Y-1.457 I0.0132 J-0.0212
G1 X-2.533 Y-1.5239
X-2.5292 Y-1.5285
X-2.5237 Y-1.5342
X-2.5175 Y-1.5397
X-2.5098 Y-1.5454
X-2.5014 Y-1.5507
X-2.4912 Y-1.556
X-2.4803 Y-1.5606
X-2.4675 Y-1.5649
X-2.4537 Y-1.5682
X-2.4386 Y-1.5707
X-2.4217 Y-1.572
X-2.4043
X-2.3858 Y-1.5705
X-2.3664 Y-1.5673
X-2.3467 Y-1.5624
X-2.3273 Y-1.5559
X-2.3083 Y-1.5478
X-2.2901 Y-1.5383
X-2.2749 Y-1.5286
X-2.261 Y-1.5181
X-2.2496 Y-1.5081
X-2.2393 Y-1.4973
X-2.2307 Y-1.4869
X-2.2295 Y-1.4851
X-2.2237 Y-1.4747
X-2.2202 Y-1.4632
X-2.2191 Y-1.4514
X-2.2205 Y-1.4395
X-2.2242 Y-1.4282
X-2.2301 Y-1.4178
X-2.2759 Y-1.3543
G3 X-2.3092 Y-1.3487 I-0.0198 J-0.0153
G1 X-2.344 Y-1.3711
X-2.4936 Y-1.4678
X-2.526 Y-1.4887
G3 X-2.533 Y-1.5239 I0.0136 J-0.021
G1 X-2.487 Y-1.5859
X-2.4824 Y-1.5916
X-2.4769 Y-1.5972
X-2.4707 Y-1.6027
X-2.463 Y-1.6084
X-2.4546 Y-1.6137
X-2.4445 Y-1.619
X-2.4336 Y-1.6236
X-2.4209 Y-1.6278
X-2.4072 Y-1.6312
X-2.3921 Y-1.6336
X-2.3753 Y-1.6349
X-2.3579
X-2.3394 Y-1.6334
X-2.3202 Y-1.6303
X-2.3006 Y-1.6254
X-2.2812 Y-1.6189
X-2.2623 Y-1.6109
X-2.2442 Y-1.6014
X-2.229 Y-1.5918
X-2.2152 Y-1.5814
X-2.2039 Y-1.5714
X-2.1935 Y-1.5607
X-2.185 Y-1.5503
X-2.1838 Y-1.5485
X-2.1781 Y-1.5381
X-2.1746 Y-1.5267
X-2.1735 Y-1.5148
X-2.1748 Y-1.5029
X-2.1785 Y-1.4916
X-2.1845 Y-1.4812
X-2.2301 Y-1.4178
G3 X-2.2634 Y-1.4121 I-0.0198 J-0.0153
G1 X-2.2983 Y-1.4345
X-2.4476 Y-1.53
X-2.4799 Y-1.5507
G3 X-2.487 Y-1.5859 I0.0135 J-0.0211
G1 X-2.4397 Y-1.6497
X-2.4358 Y-1.6545
X-2.4303 Y-1.6602
X-2.4241 Y-1.6656
X-2.4164 Y-1.6713
X-2.4081 Y-1.6766
X-2.3979 Y-1.6819
X-2.3871 Y-1.6865
X-2.3743 Y-1.6907
X-2.3606 Y-1.6941
X-2.3456 Y-1.6965
X-2.3288 Y-1.6978
X-2.3115
X-2.2931 Y-1.6963
X-2.2739 Y-1.6932
X-2.2544 Y-1.6883
X-2.2351 Y-1.6819
X-2.2163 Y-1.6739
X-2.1982 Y-1.6644
X-2.1832 Y-1.6549
X-2.1694 Y-1.6445
X-2.1581 Y-1.6345
X-2.1478 Y-1.6239
X-2.1393 Y-1.6135
X-2.1382 Y-1.6119
X-2.1324 Y-1.6014
X-2.1289 Y-1.59
X-2.1278 Y-1.5781
X-2.1292 Y-1.5662
X-2.1329 Y-1.5549
X-2.1388 Y-1.5446
X-2.1845 Y-1.4812
G3 X-2.2178 Y-1.4756 I-0.0198 J-0.0153
G1 X-2.2526 Y-1.498
X-2.4004 Y-1.5936
X-2.4327 Y-1.6145
G3 X-2.4397 Y-1.6497 I0.0136 J-0.021
G1 X-2.3955 Y-1.7094
X-2.3889 Y-1.7174
X-2.3834 Y-1.723
X-2.3772 Y-1.7285
X-2.3696 Y-1.7342
X-2.3613 Y-1.7394
X-2.3511 Y-1.7447
X-2.3403 Y-1.7493
X-2.3277 Y-1.7535
X-2.314 Y-1.7568
X-2.299 Y-1.7592
X-2.2823 Y-1.7605
X-2.265
X-2.2467 Y-1.759
X-2.2277 Y-1.7559
X-2.2082 Y-1.7511
X-2.189 Y-1.7447
X-2.1703 Y-1.7367
X-2.1523 Y-1.7273
X-2.1373 Y-1.7178
X-2.1236 Y-1.7075
X-2.1124 Y-1.6976
X-2.1022 Y-1.687
X-2.0937 Y-1.6766
X-2.0926 Y-1.6751
X-2.0869 Y-1.6646
X-2.0834 Y-1.6532
X-2.0823 Y-1.6413
X-2.0836 Y-1.6295
X-2.0873 Y-1.6181
X-2.0933 Y-1.6078
X-2.1388 Y-1.5446
G3 X-2.1719 Y-1.5387 I-0.0198 J-0.0153
G1 X-2.2073 Y-1.5608
X-2.3558 Y-1.6538
X-2.3881 Y-1.674
G3 X-2.3955 Y-1.7094 I0.0133 J-0.0212
G1 X-2.3461 Y-1.7759
X-2.3423 Y-1.7805
X-2.3367 Y-1.7862
X-2.3305 Y-1.7917
X-2.3227 Y-1.7974
X-2.3143 Y-1.8026
X-2.3041 Y-1.8078
X-2.2931 Y-1.8124
X-2.2805 Y-1.8165
X-2.2665 Y-1.8198
X-2.2516 Y-1.8221
X-2.2349 Y-1.8234
X-2.2173 Y-1.8232
X-2.199 Y-1.8216
X-2.1801 Y-1.8184
X-2.1607 Y-1.8135
X-2.1416 Y-1.807
X-2.123 Y-1.7989
X-2.1052 Y-1.7894
X-2.0904 Y-1.7799
X-2.077 Y-1.7697
X-2.0658 Y-1.7597
X-2.0559 Y-1.7492
X-2.0474 Y-1.7387
X-2.0469 Y-1.738
X-2.0412 Y-1.7275
X-2.0378 Y-1.7162
X-2.0367 Y-1.7044
X-2.0381 Y-1.6926
X-2.0418 Y-1.6813
X-2.0477 Y-1.671
X-2.0933 Y-1.6078
G3 X-2.1267 Y-1.6022 I-0.0198 J-0.0153
G1 X-2.1613 Y-1.6247
X-2.3068 Y-1.7197
X-2.3392 Y-1.7408
G3 X-2.3461 Y-1.7759 I0.0137 J-0.0209
G1 X-2.3001 Y-1.8379
X-2.296 Y-1.8429
X-2.2906 Y-1.8485
X-2.2844 Y-1.854
X-2.2768 Y-1.8596
X-2.2684 Y-1.8649
X-2.2584 Y-1.8701
X-2.2476 Y-1.8747
X-2.2349 Y-1.8789
X-2.2214 Y-1.8822
X-2.2065 Y-1.8846
X-2.1898 Y-1.8859
X-2.1727
X-2.1544 Y-1.8844
X-2.1354 Y-1.8813
X-2.1162 Y-1.8766
X-2.0971 Y-1.8702
X-2.0785 Y-1.8623
X-2.0606 Y-1.8529
X-2.0459 Y-1.8436
X-2.0323 Y-1.8334
X-2.0212 Y-1.8235
X-2.011 Y-1.813
X-2.0077 Y-1.8089
X-2.0011 Y-1.7989
X-1.9967 Y-1.7877
X-1.9946 Y-1.7759
X-1.9951 Y-1.7639
X-1.9979 Y-1.7523
X-2.0022 Y-1.7405
X-2.0037 Y-1.7368
X-2.0058 Y-1.7331
X-2.0235 Y-1.7057
X-2.0297 Y-1.6962
X-2.0324 Y-1.6923
X-2.0477 Y-1.671
G3 X-2.0811 Y-1.6653 I-0.0198 J-0.0153
G1 X-2.1158 Y-1.6878
X-2.2608 Y-1.7818
X-2.2931 Y-1.8027
G3 X-2.3001 Y-1.8379 I0.0136 J-0.021
G1 X-2.2541 Y-1.8999
X-2.2495 Y-1.9055
X-2.2441 Y-1.9112
X-2.2379 Y-1.9165
X-2.2303 Y-1.9222
X-2.222 Y-1.9275
X-2.212 Y-1.9327
X-2.2012 Y-1.9373
X-2.1886 Y-1.9414
X-2.1749 Y-1.9448
X-2.1602 Y-1.9472
X-2.1436 Y-1.9485
X-2.1263
X-2.1082 Y-1.947
X-2.0894 Y-1.9439
X-2.0755 Y-1.9405
X-2.0698 Y-1.9387
X-2.0643 Y-1.9364
X-2.059 Y-1.9336
G3 X-2.0687 Y-1.8881 I-0.0138 J0.0208
G1 X-2.0872 Y-1.885
X-2.2097 Y-1.8644
X-2.2294 Y-1.8611
G3 X-2.2541 Y-1.8999 I-0.0041 J-0.0247
G1 X-2.236 Y-1.9243
X-2.234 Y-1.9265
X-2.2306 Y-1.9294
X-2.2139 Y-1.9405
X-2.2117 Y-1.9418
X-2.2095 Y-1.9428
X-2.1821 Y-1.9531
X-2.1781 Y-1.9542
X-2.1741 Y-1.9548
X-2.1475 Y-1.9584
X-2.1431 Y-1.9586
X-2.1386 Y-1.9582
X-2.1121 Y-1.9556
X-2.1099 Y-1.9553
X-2.1076 Y-1.9547
X-2.0855 Y-1.9473
X-2.0766 Y-1.9442
X-2.0678 Y-1.939
X-2.0501 Y-1.9281
X-2.0476 Y-1.9265
X-2.0412 Y-1.9206
X-2.0292 Y-1.9088
X-2.0235 Y-1.9031
X-2.0209 Y-1.8999
X-2.0058 Y-1.8762
X-2.004 Y-1.8733
X-2.0005 Y-1.8645
X-1.9943 Y-1.8468
X-1.9915 Y-1.8379
X-1.9904 Y-1.8291
X-1.9881 Y-1.8081
X-1.9879 Y-1.8053
Y-1.8025
X-1.9881 Y-1.8006
X-1.991 Y-1.7759
X-1.9915 Y-1.7715
X-1.9926 Y-1.7671
X-1.9979 Y-1.7523
G3 X-2.0415 Y-1.747 I-0.0232 J-0.0093
G1 X-2.0428 Y-1.7497 Z-0.2673
X-2.044 Y-1.7524 Z-0.2668
X-2.0453 Y-1.7549 Z-0.2659
X-2.0457 Y-1.7584 Z-0.2642
X-2.0461 Y-1.7615 Z-0.2621
X-2.0457 Y-1.764 Z-0.2599
X-2.0453 Y-1.7661 Z-0.2573
X-2.045 Y-1.7678 Z-0.2545
X-2.0448 Y-1.7692 Z-0.2515
X-2.0446 Y-1.7702 Z-0.2483
X-2.0444 Y-1.7706 Z-0.2454
Y-1.7708 Z-0.2425
G0 Z0.2
Z0.6
X-1.043 Y0.1134
Z0.2
Z0.147
G1 Z0.122 F40
G3 X-1.2684 Y0.0385 Z0.109 I-0.1127 J-0.0375
X-1.043 Y0.1134 Z0.0959 I0.1127 J0.0375
X-1.2684 Y0.0385 Z0.0829 I-0.1127 J-0.0375
X-1.043 Y0.1134 Z0.0699 I0.1127 J0.0375
X-1.2684 Y0.0385 Z0.0569 I-0.1127 J-0.0375
X-1.043 Y0.1134 Z0.0438 I0.1127 J0.0375
X-1.2684 Y0.0385 Z0.0308 I-0.1127 J-0.0375
X-1.043 Y0.1134 Z0.0178 I0.1127 J0.0375
X-1.2684 Y0.0385 Z0.0048 I-0.1127 J-0.0375
X-1.043 Y0.1134 Z-0.0083 I0.1127 J0.0375
X-1.2684 Y0.0385 Z-0.0213 I-0.1127 J-0.0375
X-1.043 Y0.1134 Z-0.0343 I0.1127 J0.0375
X-1.2684 Y0.0385 Z-0.0474 I-0.1127 J-0.0375
X-1.043 Y0.1134 Z-0.0604 I0.1127 J0.0375
X-1.2684 Y0.0385 Z-0.0734 I-0.1127 J-0.0375
X-1.043 Y0.1134 Z-0.0864 I0.1127 J0.0375
X-1.2684 Y0.0385 Z-0.0995 I-0.1127 J-0.0375
X-1.043 Y0.1134 Z-0.1125 I0.1127 J0.0375
X-1.2684 Y0.0385 Z-0.1255 I-0.1127 J-0.0375
X-1.043 Y0.1134 Z-0.1386 I0.1127 J0.0375
X-1.2684 Y0.0385 Z-0.1516 I-0.1127 J-0.0375
X-1.043 Y0.1134 Z-0.1646 I0.1127 J0.0375
X-1.2684 Y0.0385 Z-0.1776 I-0.1127 J-0.0375
X-1.043 Y0.1134 Z-0.1907 I0.1127 J0.0375
X-1.2684 Y0.0385 Z-0.2037 I-0.1127 J-0.0375
X-1.043 Y0.1134 Z-0.2167 I0.1127 J0.0375
X-1.2684 Y0.0385 Z-0.2297 I-0.1127 J-0.0375
X-1.043 Y0.1134 Z-0.2428 I0.1127 J0.0375
X-1.2684 Y0.0385 Z-0.2558 I-0.1127 J-0.0375
X-1.0369 Y0.0759 Z-0.2675 I0.1127 J0.0375
X-1.2744 I-0.1188
X-1.0369 I0.1188
G1 X-1.0367 Y0.0857
X-1.0296 Y0.124
X-1.0282 Y0.1287
X-1.027 Y0.1345
X-1.0263 Y0.1405
X-1.0262 Y0.1465
X-1.0266 Y0.1529
X-1.0275 Y0.1597
X-1.0291 Y0.1669
X-1.0314 Y0.1744
X-1.0345 Y0.182
X-1.0384 Y0.1898
X-1.0431 Y0.1977
X-1.0487 Y0.2055
X-1.0552 Y0.2131
X-1.0625 Y0.2205
X-1.0707 Y0.2275
X-1.0798 Y0.2341
X-1.0896 Y0.2401
X-1.1003 Y0.2455
X-1.1116 Y0.2501
X-1.1235 Y0.2538
X-1.1359 Y0.2567
X-1.1488 Y0.2586
X-1.1621 Y0.2595
X-1.1756 Y0.2592
X-1.1892 Y0.2579
X-1.2028 Y0.2555
X-1.2164 Y0.252
X-1.2298 Y0.2473
X-1.2429 Y0.2415
X-1.2555 Y0.2346
X-1.2677 Y0.2267
X-1.2792 Y0.2178
X-1.2901 Y0.2079
X-1.3002 Y0.1971
X-1.3094 Y0.1855
X-1.3177 Y0.1732
X-1.325 Y0.1601
X-1.3312 Y0.1465
X-1.3364 Y0.1324
X-1.3404 Y0.1179
X-1.3432 Y0.1031
X-1.3449 Y0.0881
X-1.3453 Y0.073
X-1.3446 Y0.0579
X-1.3426 Y0.0429
X-1.3394 Y0.0281
X-1.335 Y0.0135
X-1.3295 Y-0.0006
X-1.3228 Y-0.0143
X-1.3151 Y-0.0274
X-1.3063 Y-0.0398
X-1.2966 Y-0.0516
X-1.2859 Y-0.0624
X-1.2744 Y-0.0724
X-1.2622 Y-0.0815
X-1.2492 Y-0.0895
X-1.2356 Y-0.0965
X-1.2216 Y-0.1024
X-1.207 Y-0.1071
X-1.1922 Y-0.1106
X-1.1771 Y-0.113
X-1.1619 Y-0.1141
X-1.1466 Y-0.114
X-1.1314 Y-0.1126
X-1.1164 Y-0.1101
X-1.1106 Y-0.1086
X-1.1047 Y-0.1068
X-1.099 Y-0.1042
X-1.0937 Y-0.1011
X-1.0848 Y-0.0961
X-1.0791 Y-0.093
X-1.076 Y-0.0917
X-1.0632 Y-0.0856
X-1.0509 Y-0.0786
X-1.0392 Y-0.0704
X-1.028 Y-0.0613
X-1.0175 Y-0.0513
X-1.0079 Y-0.0404
X-0.999 Y-0.0286
X-0.9892 Y-0.0131
X-0.9742 Y0.0153
X-0.9639 Y0.0395
X-0.9569 Y0.0601
X-0.9522 Y0.0794
X-0.9492 Y0.0975
X-0.9477 Y0.1149
Y0.1319
X-0.949 Y0.1485
X-0.9516 Y0.1648
X-0.9554 Y0.1807
X-0.9588 Y0.191
X-0.9638 Y0.202
X-0.9708 Y0.2117
X-0.9797 Y0.2198
X-0.9901 Y0.2258
X-1.0015 Y0.2296
X-1.0135 Y0.231
X-1.0228 Y0.2312
X-1.0317 Y0.2317
X-1.0405 Y0.2328
X-1.0497 Y0.2347
X-1.0582 Y0.237
X-1.0671 Y0.2398
X-1.0762 Y0.2436
X-1.0848 Y0.2481
X-1.0937 Y0.2532
X-1.1025 Y0.2587
X-1.1059 Y0.2613
X-1.1114 Y0.2659
X-1.1163 Y0.2702
X-1.1248 Y0.279
X-1.1295 Y0.2836
X-1.1346 Y0.2879
X-1.1409 Y0.2924
X-1.1478 Y0.2966
X-1.1557 Y0.3005
X-1.1647 Y0.3041
X-1.1743 Y0.307
X-1.1851 Y0.3094
X-1.1968 Y0.3111
X-1.2089 Y0.3118
X-1.2221 Y0.3115
X-1.236 Y0.31
X-1.2502 Y0.3074
X-1.2646 Y0.3035
X-1.2795 Y0.2982
X-1.2946 Y0.2914
X-1.3096 Y0.2831
X-1.3242 Y0.2734
X-1.3383 Y0.2623
X-1.3518 Y0.2499
X-1.3646 Y0.2361
X-1.3764 Y0.2209
X-1.3873 Y0.2046
X-1.3969 Y0.1872
X-1.4051 Y0.1688
X-1.412 Y0.1497
X-1.4173 Y0.1298
X-1.4211 Y0.1094
X-1.4232 Y0.0887
X-1.4237 Y0.0677
X-1.4225 Y0.0467
X-1.4196 Y0.0257
X-1.4149 Y0.005
X-1.4087 Y-0.0154
X-1.4008 Y-0.0352
X-1.3913 Y-0.0544
X-1.3802 Y-0.0727
X-1.3677 Y-0.0902
X-1.3539 Y-0.1066
X-1.3387 Y-0.1219
X-1.3224 Y-0.1359
X-1.3049 Y-0.1486
X-1.2865 Y-0.1599
X-1.2672 Y-0.1696
X-1.2472 Y-0.1778
X-1.2266 Y-0.1843
X-1.211 Y-0.1879
X-1.1984 Y-0.1894
X-1.1859 Y-0.1882
X-1.1738 Y-0.1843
X-1.163 Y-0.1778
X-1.1537 Y-0.1692
X-1.1465 Y-0.1588
X-1.1445 Y-0.155
X-1.1394 Y-0.1461
X-1.1331 Y-0.1373
X-1.1291 Y-0.132
X-1.1227 Y-0.1252
G3 X-1.1166 Y-0.1086 I-0.0189 J0.0164
G1 X-1.117 Y-0.0481
X-1.1185 Y0.2019
X-1.1189 Y0.263
G3 X-1.1248 Y0.279 I-0.025 J-0.0002
G1 X-1.1291 Y0.2837
X-1.138 Y0.2957
X-1.1439 Y0.3056
X-1.1468 Y0.3119
X-1.1479 Y0.3144
X-1.1506 Y0.3198
X-1.1539 Y0.3248
X-1.1576 Y0.3296
X-1.162 Y0.3344
X-1.1673 Y0.3392
X-1.1734 Y0.344
X-1.1806 Y0.3488
X-1.1884 Y0.3531
X-1.1976 Y0.3572
X-1.2076 Y0.3608
X-1.2186 Y0.3637
X-1.2309 Y0.366
X-1.2437 Y0.3673
X-1.2578 Y0.3676
X-1.273 Y0.3667
X-1.2885 Y0.3646
X-1.3048 Y0.3609
X-1.3219 Y0.3556
X-1.3394 Y0.3486
X-1.3567 Y0.3401
X-1.374 Y0.3297
X-1.3912 Y0.3173
X-1.4082 Y0.303
X-1.4245 Y0.2868
X-1.4399 Y0.2688
X-1.454 Y0.2493
X-1.4637 Y0.2335
X-1.4684 Y0.224
X-1.4712 Y0.2137
X-1.4722 Y0.2031
Y-0.0044
X-1.4713 Y-0.0232
X-1.4691 Y-0.04
X-1.4654 Y-0.057
X-1.46 Y-0.0753
X-1.4525 Y-0.0944
X-1.4432 Y-0.1135
X-1.4321 Y-0.1324
X-1.4188 Y-0.1513
X-1.4034 Y-0.1699
X-1.386 Y-0.1878
X-1.3667 Y-0.2046
X-1.3457 Y-0.2202
X-1.3241 Y-0.2336
X-1.3037 Y-0.2441
X-1.2866 Y-0.2512
X-1.2696 Y-0.2568
X-1.2548 Y-0.2603
X-1.2397 Y-0.2627
X-1.2263 Y-0.2637
X-1.2185
X-1.2061 Y-0.2622
X-1.1942 Y-0.2581
X-1.1835 Y-0.2515
X-1.1745 Y-0.2428
X-1.1676 Y-0.2323
X-1.1631 Y-0.2206
X-1.1613 Y-0.2081
X-1.1599 Y-0.1993
G3 X-1.1701 Y-0.1762 I-0.0248 J0.0029
G1 X-1.2122 Y-0.1455
X-1.4128 Y0.0005
X-1.4325 Y0.0149
G3 X-1.4722 Y-0.0044 I-0.0147 J-0.0202
G1 Y-0.1373
X-1.4718 Y-0.145
X-1.4704 Y-0.156
X-1.468 Y-0.1674
X-1.464 Y-0.1805
X-1.4589 Y-0.1937
X-1.4518 Y-0.2084
X-1.443 Y-0.2233
X-1.4322 Y-0.2387
X-1.419 Y-0.2545
X-1.4042 Y-0.2697
X-1.3879 Y-0.2839
X-1.3704 Y-0.2969
X-1.3518 Y-0.3085
X-1.3326 Y-0.3184
X-1.3139 Y-0.3262
X-1.2958 Y-0.3321
X-1.2799 Y-0.3359
X-1.264 Y-0.3384
X-1.25 Y-0.3395
X-1.2357 Y-0.3394
X-1.2228 Y-0.3383
X-1.2103 Y-0.3362
X-1.2063 Y-0.3352
X-1.1943 Y-0.3307
X-1.1835 Y-0.3236
X-1.1745 Y-0.3144
X-1.1678 Y-0.3035
X-1.1636 Y-0.2914
X-1.1622 Y-0.2786
Y-0.2436
Y-0.2347
X-1.1615 Y-0.2143
X-1.1613 Y-0.2081
G3 X-1.1798 Y-0.184 I-0.025
G1 X-1.224 Y-0.1721
X-1.4083 Y-0.1227
X-1.4408 Y-0.114
G3 X-1.4722 Y-0.1373 I-0.0065 J-0.0241
G1 Y-0.2347
X-1.4717 Y-0.2443
X-1.4705 Y-0.2538
X-1.4684 Y-0.2637
X-1.465 Y-0.2748
X-1.4606 Y-0.2862
X-1.4545 Y-0.2987
X-1.4473 Y-0.3111
X-1.438 Y-0.3243
X-1.427 Y-0.3375
X-1.4146 Y-0.3502
X-1.4003 Y-0.3627
X-1.3846 Y-0.3743
X-1.3676 Y-0.3849
X-1.3497 Y-0.3941
X-1.3311 Y-0.4019
X-1.3121 Y-0.4081
X-1.2928 Y-0.4127
X-1.2755 Y-0.4154
X-1.2582 Y-0.4167
X-1.2435
X-1.2285 Y-0.4154
X-1.2156 Y-0.4132
X-1.2023 Y-0.4098
X-1.2018 Y-0.4097
X-1.1908 Y-0.4046
X-1.1811 Y-0.3975
X-1.1731 Y-0.3884
X-1.1672 Y-0.3779
X-1.1635 Y-0.3664
X-1.1622 Y-0.3544
Y-0.2786
G3 X-1.183 Y-0.2548 I-0.025 J-0.0009
G1 X-1.2267 Y-0.2474
X-1.4076 Y-0.2169
X-1.4431 Y-0.2109
G3 X-1.4722 Y-0.2347 I-0.0042 J-0.0247
G1 Y-0.3233
X-1.4717 Y-0.3338
X-1.4706 Y-0.342
X-1.4686 Y-0.3514
X-1.4657 Y-0.361
X-1.4615 Y-0.3718
X-1.4563 Y-0.3825
X-1.4495 Y-0.3942
X-1.4413 Y-0.4058
X-1.4315 Y-0.4176
X-1.4197 Y-0.4297
X-1.4066 Y-0.4411
X-1.3918 Y-0.452
X-1.3755 Y-0.4622
X-1.3577 Y-0.4714
X-1.339 Y-0.4792
X-1.3196 Y-0.4855
X-1.3 Y-0.4902
X-1.2801 Y-0.4934
X-1.2628 Y-0.4946
X-1.2461 Y-0.4945
X-1.2313 Y-0.4933
X-1.217 Y-0.4909
X-1.2042 Y-0.4876
X-1.2018 Y-0.4868
X-1.1908 Y-0.4818
X-1.1811 Y-0.4746
X-1.1731 Y-0.4656
X-1.1672 Y-0.4551
X-1.1635 Y-0.4436
X-1.1622 Y-0.4316
Y-0.3544
G3 X-1.1842 Y-0.3305 I-0.025 J-0.0009
G1 X-1.227 Y-0.3254
X-1.4074 Y-0.3038
X-1.4443 Y-0.2993
G3 X-1.4722 Y-0.3233 I-0.003 J-0.0248
G1 Y-0.4119
X-1.4719 Y-0.4179
X-1.4708 Y-0.4259
X-1.4688 Y-0.4347
X-1.4659 Y-0.4441
X-1.4619 Y-0.4541
X-1.4566 Y-0.4647
X-1.4501 Y-0.4755
X-1.4418 Y-0.487
X-1.4324 Y-0.4982
X-1.4211 Y-0.5096
X-1.4078 Y-0.5209
X-1.3932 Y-0.5315
X-1.3769 Y-0.5414
X-1.3592 Y-0.5503
X-1.3403 Y-0.558
X-1.3207 Y-0.5642
X-1.3007 Y-0.5688
X-1.2805 Y-0.5717
X-1.2628 Y-0.5729
X-1.2458 Y-0.5726
X-1.2307 Y-0.5712
X-1.2163 Y-0.5686
X-1.2033 Y-0.5652
X-1.2013 Y-0.5645
X-1.1904 Y-0.5594
X-1.1809 Y-0.5522
X-1.173 Y-0.5432
X-1.1671 Y-0.5327
X-1.1634 Y-0.5213
X-1.1622 Y-0.5094
Y-0.4316
G3 X-1.1853 Y-0.4075 I-0.025 J-0.0009
G1 X-1.2272 Y-0.4044
X-1.4072 Y-0.3907
X-1.4453 Y-0.3878
G3 X-1.4722 Y-0.4119 I-0.0019 J-0.0249
G1 Y-0.4916
X-1.4719 Y-0.4977
X-1.4709 Y-0.5054
X-1.4691 Y-0.514
X-1.4664 Y-0.523
X-1.4626 Y-0.5327
X-1.4576 Y-0.5429
X-1.4514 Y-0.5535
X-1.4435 Y-0.5647
X-1.4345 Y-0.5756
X-1.4234 Y-0.5869
X-1.4107 Y-0.598
X-1.3967 Y-0.6084
X-1.3805 Y-0.6184
X-1.3629 Y-0.6275
X-1.3441 Y-0.6354
X-1.3246 Y-0.6418
X-1.3045 Y-0.6466
X-1.2842 Y-0.6498
X-1.2661 Y-0.6511
X-1.2484 Y-0.651
X-1.2333 Y-0.6497
X-1.2183 Y-0.6472
X-1.2053 Y-0.6439
X-1.2018 Y-0.6427
X-1.1908 Y-0.6377
X-1.1811 Y-0.6305
X-1.1731 Y-0.6215
X-1.1672 Y-0.611
X-1.1635 Y-0.5995
X-1.1622 Y-0.5875
Y-0.5094
G3 X-1.1855 Y-0.4854 I-0.025 J-0.0009
G1 X-1.2272 Y-0.4825
X-1.4072 Y-0.4701
X-1.4455 Y-0.4675
G3 X-1.4722 Y-0.4916 I-0.0017 J-0.0249
G1 Y-0.5713
X-1.4719 Y-0.5773
X-1.4708 Y-0.5852
X-1.4691 Y-0.5934
X-1.4663 Y-0.6026
X-1.4626 Y-0.612
X-1.4575 Y-0.6224
X-1.4514 Y-0.6327
X-1.4435 Y-0.6439
X-1.4343 Y-0.6548
X-1.4235 Y-0.6658
X-1.4106 Y-0.677
X-1.3964 Y-0.6874
X-1.3805 Y-0.6972
X-1.363 Y-0.7062
X-1.3441 Y-0.714
X-1.3245 Y-0.7203
X-1.3043 Y-0.7251
X-1.284 Y-0.7282
X-1.2657 Y-0.7294
X-1.248 Y-0.7293
X-1.2328 Y-0.7279
X-1.2179 Y-0.7254
X-1.2049 Y-0.722
X-1.2016 Y-0.7209
X-1.1907 Y-0.7158
X-1.181 Y-0.7086
X-1.1731 Y-0.6996
X-1.1671 Y-0.6891
X-1.1635 Y-0.6777
X-1.1622 Y-0.6657
Y-0.5875
G3 X-1.1856 Y-0.5634 I-0.025 J-0.0009
G1 X-1.2273 Y-0.5608
X-1.4072 Y-0.5496
X-1.4457 Y-0.5472
G3 X-1.4722 Y-0.5713 I-0.0016 J-0.025
G1 Y-0.651
X-1.4719 Y-0.657
X-1.4708 Y-0.665
X-1.4689 Y-0.6732
X-1.4659 Y-0.6825
X-1.4621 Y-0.6919
X-1.4569 Y-0.7024
X-1.4506 Y-0.7126
X-1.4426 Y-0.7237
X-1.4332 Y-0.7347
X-1.4223 Y-0.7456
X-1.4092 Y-0.7567
X-1.3947 Y-0.7671
X-1.3787 Y-0.7767
X-1.3611 Y-0.7855
X-1.3421 Y-0.7932
X-1.3224 Y-0.7993
X-1.3021 Y-0.8038
X-1.2817 Y-0.8067
X-1.2636 Y-0.8078
X-1.2461 Y-0.8075
X-1.2309 Y-0.806
X-1.2163 Y-0.8033
X-1.2032 Y-0.7998
X-1.201 Y-0.799
X-1.1903 Y-0.7939
X-1.1807 Y-0.7867
X-1.1729 Y-0.7777
X-1.167 Y-0.7673
X-1.1634 Y-0.7559
X-1.1622 Y-0.7441
Y-0.6657
G3 X-1.1858 Y-0.6416 I-0.025 J-0.0009
G1 X-1.2273 Y-0.6393
X-1.4072 Y-0.6291
X-1.4458 Y-0.6269
G3 X-1.4722 Y-0.651 I-0.0014 J-0.025
G1 Y-0.7267
X-1.4718 Y-0.7346
X-1.4708 Y-0.7422
X-1.469 Y-0.7505
X-1.4664 Y-0.7594
X-1.4627 Y-0.7689
X-1.4578 Y-0.779
X-1.4517 Y-0.7893
X-1.4439 Y-0.8004
X-1.4351 Y-0.8111
X-1.4242 Y-0.8222
X-1.4116 Y-0.8332
X-1.3977 Y-0.8435
X-1.3817 Y-0.8534
X-1.3641 Y-0.8625
X-1.3454 Y-0.8704
X-1.3258 Y-0.8767
X-1.3057 Y-0.8816
X-1.2852 Y-0.8848
X-1.2668 Y-0.8861
X-1.249 Y-0.886
X-1.2338 Y-0.8847
X-1.2187 Y-0.8822
X-1.2056 Y-0.8789
X-1.2018 Y-0.8776
X-1.1908 Y-0.8726
X-1.1811 Y-0.8654
X-1.1731 Y-0.8563
X-1.1672 Y-0.8459
X-1.1635 Y-0.8344
X-1.1622 Y-0.8224
Y-0.7441
G3 X-1.1855 Y-0.72 I-0.025 J-0.0009
G1 X-1.2273 Y-0.7172
X-1.4072 Y-0.7052
X-1.4456 Y-0.7027
G3 X-1.4722 Y-0.7267 I-0.0017 J-0.0249
G1 Y-0.8065
X-1.4719 Y-0.8128
X-1.4709 Y-0.8207
X-1.4691 Y-0.8287
X-1.4664 Y-0.8379
X-1.4628 Y-0.8471
X-1.4578 Y-0.8574
X-1.4518 Y-0.8676
X-1.444 Y-0.8787
X-1.435 Y-0.8895
X-1.4243 Y-0.9005
X-1.4116 Y-0.9116
X-1.3976 Y-0.922
X-1.3818 Y-0.9318
X-1.3644 Y-0.9408
X-1.3455 Y-0.9487
X-1.3259 Y-0.9551
X-1.3057 Y-0.9599
X-1.2854 Y-0.9631
X-1.267 Y-0.9645
X-1.249 Y-0.9644
X-1.2338 Y-0.963
X-1.2187 Y-0.9605
X-1.2056 Y-0.9572
X-1.2018 Y-0.9559
X-1.1908 Y-0.9509
X-1.1811 Y-0.9437
X-1.1731 Y-0.9347
X-1.1672 Y-0.9242
X-1.1635 Y-0.9127
X-1.1622 Y-0.9007
Y-0.8224
G3 X-1.1857 Y-0.7983 I-0.025 J-0.0009
G1 X-1.2273 Y-0.7957
X-1.4072 Y-0.7847
X-1.4457 Y-0.7824
G3 X-1.4722 Y-0.8065 I-0.0015 J-0.025
G1 Y-0.8813
X-1.4717 Y-0.8914
X-1.4707 Y-0.8992
X-1.469 Y-0.9072
X-1.4662 Y-0.9164
X-1.4626 Y-0.9256
X-1.4576 Y-0.9359
X-1.4517 Y-0.9461
X-1.4439 Y-0.9571
X-1.4349 Y-0.9679
X-1.4243 Y-0.9789
X-1.4115 Y-0.99
X-1.3975 Y-1.0003
X-1.3818 Y-1.0101
X-1.3643 Y-1.0191
X-1.3455 Y-1.027
X-1.326 Y-1.0334
X-1.3058 Y-1.0382
X-1.2854 Y-1.0414
X-1.267 Y-1.0428
X-1.2491 Y-1.0427
X-1.2338 Y-1.0414
X-1.2187 Y-1.0388
X-1.2056 Y-1.0355
X-1.2018 Y-1.0342
X-1.1908 Y-1.0292
X-1.1811 Y-1.022
X-1.1731 Y-1.013
X-1.1672 Y-1.0025
X-1.1635 Y-0.991
X-1.1622 Y-0.979
Y-0.9007
G3 X-1.1853 Y-0.8766 I-0.025 J-0.0009
G1 X-1.2272 Y-0.8735
X-1.4072 Y-0.8601
X-1.4454 Y-0.8573
G3 X-1.4722 Y-0.8813 I-0.0019 J-0.0249
G1 Y-0.961
X-1.4718 Y-0.9696
X-1.4708 Y-0.9775
X-1.469 Y-0.9855
X-1.4663 Y-0.9947
X-1.4627 Y-1.0039
X-1.4577 Y-1.0142
X-1.4517 Y-1.0244
X-1.444 Y-1.0354
X-1.435 Y-1.0462
X-1.4243 Y-1.0572
X-1.4116 Y-1.0683
X-1.3976 Y-1.0786
X-1.3818 Y-1.0885
X-1.3644 Y-1.0974
X-1.3456 Y-1.1053
X-1.326 Y-1.1117
X-1.3058 Y-1.1165
X-1.2854 Y-1.1197
X-1.267 Y-1.1211
X-1.2491 Y-1.121
X-1.2338 Y-1.1197
X-1.2187 Y-1.1172
X-1.2056 Y-1.1139
X-1.2018 Y-1.1126
X-1.1908 Y-1.1075
X-1.1811 Y-1.1003
X-1.1731 Y-1.0913
X-1.1672 Y-1.0808
X-1.1635 Y-1.0693
X-1.1622 Y-1.0573
Y-0.979
G3 X-1.1855 Y-0.9549 I-0.025 J-0.0009
G1 X-1.2272 Y-0.952
X-1.4072 Y-0.9396
X-1.4455 Y-0.937
G3 X-1.4722 Y-0.961 I-0.0017 J-0.0249
G1 Y-1.0407
X-1.4719 Y-1.0479
X-1.4708 Y-1.0558
X-1.4691 Y-1.0638
X-1.4664 Y-1.073
X-1.4628 Y-1.0822
X-1.4578 Y-1.0925
X-1.4518 Y-1.1027
X-1.444 Y-1.1137
X-1.435 Y-1.1246
X-1.4244 Y-1.1355
X-1.4116 Y-1.1466
X-1.3976 Y-1.157
X-1.3819 Y-1.1668
X-1.3644 Y-1.1758
X-1.3456 Y-1.1836
X-1.326 Y-1.19
X-1.3058 Y-1.1949
X-1.2854 Y-1.1981
X-1.267 Y-1.1994
X-1.2491 Y-1.1993
X-1.2338 Y-1.198
X-1.2187 Y-1.1955
X-1.2056 Y-1.1922
X-1.2018 Y-1.1909
X-1.1908 Y-1.1858
X-1.1811 Y-1.1787
X-1.1731 Y-1.1696
X-1.1672 Y-1.1591
X-1.1635 Y-1.1476
X-1.1622 Y-1.1356
Y-1.0573
G3 X-1.1856 Y-1.0332 I-0.025 J-0.0009
G1 X-1.2273 Y-1.0306
X-1.4072 Y-1.0191
X-1.4456 Y-1.0167
G3 X-1.4722 Y-1.0407 I-0.0016 J-0.0249
G1 Y-1.1205
X-1.4719 Y-1.1265
X-1.4709 Y-1.1343
X-1.4691 Y-1.1424
X-1.4663 Y-1.1516
X-1.4627 Y-1.1608
X-1.4577 Y-1.1711
X-1.4516 Y-1.1813
X-1.4439 Y-1.1923
X-1.4348 Y-1.2032
X-1.4241 Y-1.2141
X-1.4113 Y-1.2253
X-1.3972 Y-1.2356
X-1.3814 Y-1.2454
X-1.3639 Y-1.2544
X-1.3451 Y-1.2622
X-1.3255 Y-1.2685
X-1.3052 Y-1.2733
X-1.2848 Y-1.2765
X-1.2664 Y-1.2778
X-1.2486 Y-1.2776
X-1.2334 Y-1.2763
X-1.2183 Y-1.2737
X-1.2052 Y-1.2704
X-1.2017 Y-1.2692
X-1.1907 Y-1.2641
X-1.1811 Y-1.2569
X-1.1731 Y-1.2479
X-1.1671 Y-1.2374
X-1.1635 Y-1.226
X-1.1622 Y-1.214
Y-1.1356
G3 X-1.1857 Y-1.1116 I-0.025 J-0.0009
G1 X-1.2273 Y-1.1091
X-1.4072 Y-1.0986
X-1.4458 Y-1.0964
G3 X-1.4722 Y-1.1205 I-0.0015 J-0.025
G1 Y-1.2002
X-1.4719 Y-1.2062
X-1.4707 Y-1.2142
X-1.4688 Y-1.2224
X-1.4658 Y-1.2317
X-1.462 Y-1.2411
X-1.4567 Y-1.2515
X-1.4504 Y-1.2618
X-1.4424 Y-1.2727
X-1.4328 Y-1.2838
X-1.4219 Y-1.2946
X-1.4088 Y-1.3056
X-1.3941 Y-1.3161
X-1.3781 Y-1.3256
X-1.3605 Y-1.3343
X-1.3414 Y-1.3419
X-1.3217 Y-1.3479
X-1.3014 Y-1.3524
X-1.2809 Y-1.3552
X-1.2628 Y-1.3562
X-1.2455 Y-1.3558
X-1.2302 Y-1.3542
X-1.2157 Y-1.3515
X-1.2025 Y-1.3479
X-1.2008 Y-1.3473
X-1.1901 Y-1.3422
X-1.1806 Y-1.3349
X-1.1728 Y-1.326
X-1.167 Y-1.3156
X-1.1634 Y-1.3042
X-1.1622 Y-1.2924
Y-1.214
G3 X-1.1859 Y-1.1899 I-0.025 J-0.0009
G1 X-1.2273 Y-1.1877
X-1.4071 Y-1.1781
X-1.4459 Y-1.1761
G3 X-1.4722 Y-1.2002 I-0.0013 J-0.025
G1 Y-1.2759
X-1.4719 Y-1.2832
X-1.4709 Y-1.2907
X-1.4691 Y-1.2991
X-1.4664 Y-1.3079
X-1.4627 Y-1.3174
X-1.4579 Y-1.3274
X-1.4518 Y-1.3378
X-1.444 Y-1.3488
X-1.4352 Y-1.3595
X-1.4243 Y-1.3707
X-1.4118 Y-1.3815
X-1.3979 Y-1.3918
X-1.3818 Y-1.4018
X-1.3642 Y-1.4109
X-1.3455 Y-1.4187
X-1.326 Y-1.4251
X-1.3058 Y-1.4299
X-1.2854 Y-1.4331
X-1.2669 Y-1.4345
X-1.249 Y-1.4344
X-1.2339 Y-1.4331
X-1.2187 Y-1.4306
X-1.2057 Y-1.4273
X-1.2018 Y-1.426
X-1.1908 Y-1.4209
X-1.1811 Y-1.4137
X-1.1731 Y-1.4047
X-1.1672 Y-1.3942
X-1.1635 Y-1.3827
X-1.1622 Y-1.3707
Y-1.2924
G3 X-1.1856 Y-1.2683 I-0.025 J-0.0009
G1 X-1.2273 Y-1.2657
X-1.4072 Y-1.2543
X-1.4456 Y-1.2518
G3 X-1.4722 Y-1.2759 I-0.0016 J-0.0249
G1 Y-1.3508
X-1.4717 Y-1.3615
X-1.4707 Y-1.3693
X-1.4689 Y-1.3773
X-1.4662 Y-1.3865
X-1.4626 Y-1.3957
X-1.4576 Y-1.406
X-1.4516 Y-1.4161
X-1.4439 Y-1.4271
X-1.4349 Y-1.438
X-1.4242 Y-1.4489
X-1.4115 Y-1.46
X-1.3975 Y-1.4704
X-1.3818 Y-1.4802
X-1.3643 Y-1.4892
X-1.3455 Y-1.497
X-1.3259 Y-1.5034
X-1.3057 Y-1.5083
X-1.2854 Y-1.5115
X-1.267 Y-1.5128
X-1.249 Y-1.5127
X-1.2338 Y-1.5114
X-1.2187 Y-1.5089
X-1.2056 Y-1.5056
X-1.2018 Y-1.5043
X-1.1908 Y-1.4992
X-1.1811 Y-1.4921
X-1.1731 Y-1.483
X-1.1672 Y-1.4725
X-1.1635 Y-1.461
X-1.1622 Y-1.449
Y-1.3707
G3 X-1.1853 Y-1.3467 I-0.025 J-0.0009
G1 X-1.2272 Y-1.3435
X-1.4072 Y-1.3296
X-1.4453 Y-1.3267
G3 X-1.4722 Y-1.3508 I-0.0019 J-0.0249
G1 Y-1.4305
X-1.4718 Y-1.4397
X-1.4707 Y-1.4475
X-1.469 Y-1.4556
X-1.4663 Y-1.4647
X-1.4627 Y-1.474
X-1.4577 Y-1.4843
X-1.4517 Y-1.4944
X-1.444 Y-1.5054
X-1.4349 Y-1.5163
X-1.4243 Y-1.5272
X-1.4115 Y-1.5383
X-1.3975 Y-1.5487
X-1.3818 Y-1.5585
X-1.3644 Y-1.5675
X-1.3455 Y-1.5754
X-1.326 Y-1.5818
X-1.3058 Y-1.5866
X-1.2854 Y-1.5898
X-1.267 Y-1.5912
X-1.2491 Y-1.5911
X-1.2338 Y-1.5897
X-1.2187 Y-1.5872
X-1.2056 Y-1.5839
X-1.2017 Y-1.5826
X-1.1907 Y-1.5775
X-1.181 Y-1.5703
X-1.173 Y-1.5612
X-1.167 Y-1.5507
X-1.1633 Y-1.5391
X-1.1621 Y-1.5271
X-1.1622 Y-1.5013
Y-1.449
G3 X-1.1854 Y-1.425 I-0.025 J-0.0009
G1 X-1.2272 Y-1.422
X-1.4072 Y-1.4091
X-1.4455 Y-1.4064
G3 X-1.4722 Y-1.4305 I-0.0018 J-0.0249
G1 Y-1.5102
X-1.4718 Y-1.518
X-1.4708 Y-1.5258
X-1.4691 Y-1.5339
X-1.4663 Y-1.543
X-1.4627 Y-1.5523
X-1.4577 Y-1.5626
X-1.4518 Y-1.5727
X-1.444 Y-1.5837
X-1.435 Y-1.5946
X-1.4243 Y-1.6055
X-1.4116 Y-1.6167
X-1.3976 Y-1.627
X-1.3818 Y-1.6368
X-1.3644 Y-1.6458
X-1.3456 Y-1.6537
X-1.326 Y-1.6601
X-1.3058 Y-1.6649
X-1.2854 Y-1.6681
X-1.267 Y-1.6695
X-1.249 Y-1.6694
X-1.2338 Y-1.6681
X-1.2187 Y-1.6655
X-1.2056 Y-1.6622
X-1.1924 Y-1.6578
X-1.1811 Y-1.6529
X-1.1789 Y-1.6517
X-1.1689 Y-1.645
X-1.1605 Y-1.6364
X-1.1541 Y-1.6263
X-1.1498 Y-1.6151
X-1.1479 Y-1.6033
X-1.1485 Y-1.5913
X-1.1516 Y-1.5797
X-1.1544 Y-1.5722
X-1.1569 Y-1.5633
G3 X-1.1752 Y-1.5465 I-0.0238 J-0.0076
G1 X-1.2264 Y-1.535
X-1.408 Y-1.4942
X-1.4418 Y-1.4867
G3 X-1.4722 Y-1.5102 I-0.0055 J-0.0244
G1 Y-1.5899
X-1.4719 Y-1.5963
X-1.4709 Y-1.6041
X-1.4691 Y-1.6122
X-1.4664 Y-1.6213
X-1.4628 Y-1.6306
X-1.4578 Y-1.6409
X-1.4518 Y-1.651
X-1.4441 Y-1.6621
X-1.4351 Y-1.6729
X-1.4244 Y-1.6839
X-1.4117 Y-1.695
X-1.3977 Y-1.7053
X-1.3819 Y-1.7152
X-1.3644 Y-1.7241
X-1.3456 Y-1.732
X-1.326 Y-1.7384
X-1.3058 Y-1.7433
X-1.2854 Y-1.7465
X-1.2649 Y-1.748
X-1.2447 Y-1.7479
X-1.227 Y-1.7463
X-1.21 Y-1.7435
X-1.1955 Y-1.7398
X-1.1814 Y-1.7351
X-1.1692 Y-1.7298
X-1.1572 Y-1.7234
X-1.1469 Y-1.7169
X-1.1368 Y-1.7092
X-1.1283 Y-1.7016
X-1.127 Y-1.7002
X-1.1193 Y-1.6902
X-1.114 Y-1.6788
X-1.1112 Y-1.6665
Y-1.6539
X-1.1139 Y-1.6415
X-1.1191 Y-1.6301
X-1.1267 Y-1.62
G3 X-1.1405 Y-1.6131 I-0.0176 J-0.0178
G1 X-1.2026 Y-1.6034
X-1.4075 Y-1.5716
X-1.4434 Y-1.5661
G3 X-1.4722 Y-1.5899 I-0.0038 J-0.0247
G1 Y-1.6696
X-1.4719 Y-1.6756
X-1.4708 Y-1.6836
X-1.4689 Y-1.6917
X-1.466 Y-1.701
X-1.4623 Y-1.7103
X-1.4571 Y-1.7206
X-1.4509 Y-1.7309
X-1.443 Y-1.7419
X-1.4336 Y-1.7529
X-1.4228 Y-1.7637
X-1.4099 Y-1.7748
X-1.3954 Y-1.7852
X-1.3795 Y-1.7949
X-1.3616 Y-1.8038
X-1.342 Y-1.8118
X-1.3214 Y-1.8183
X-1.3 Y-1.8231
X-1.2782 Y-1.8263
X-1.2564 Y-1.8276
X-1.235 Y-1.8273
X-1.2139 Y-1.8252
X-1.1935 Y-1.8215
X-1.1738 Y-1.8163
X-1.1552 Y-1.8098
X-1.1395 Y-1.8028
X-1.125 Y-1.7949
X-1.1127 Y-1.7869
X-1.1013 Y-1.778
X-1.0917 Y-1.7692
X-1.0825 Y-1.7593
X-1.0751 Y-1.75
X-1.068 Y-1.7395
X-1.0625 Y-1.7294
X-1.0617 Y-1.7278
X-1.0577 Y-1.7159
X-1.0564 Y-1.7034
X-1.0578 Y-1.6909
X-1.0618 Y-1.679
X-1.0683 Y-1.6682
X-1.0769 Y-1.6591
X-1.0873 Y-1.6521
G3 X-1.098 Y-1.6495 I-0.011 J-0.0225
G1 X-1.1655 Y-1.6487
X-1.4071 Y-1.646
X-1.4469 Y-1.6455
G3 X-1.4722 Y-1.6696 I-0.0003 J-0.025
G1 Y-1.7453
X-1.4718 Y-1.7531
X-1.4708 Y-1.7608
X-1.4691 Y-1.769
X-1.4664 Y-1.778
X-1.4627 Y-1.7874
X-1.4578 Y-1.7976
X-1.4517 Y-1.8078
X-1.4439 Y-1.819
X-1.435 Y-1.8297
X-1.424 Y-1.841
X-1.4113 Y-1.8521
X-1.3971 Y-1.8626
X-1.3806 Y-1.8728
X-1.3622 Y-1.8823
X-1.3427 Y-1.8905
X-1.3215 Y-1.8974
X-1.2989 Y-1.9028
X-1.2751 Y-1.9065
X-1.2505 Y-1.9084
X-1.2255 Y-1.9082
X-1.2008 Y-1.9061
X-1.1767 Y-1.9021
X-1.1536 Y-1.8963
X-1.1316 Y-1.8888
X-1.1109 Y-1.8799
X-1.0916 Y-1.8696
X-1.0738 Y-1.8583
X-1.0575 Y-1.8459
X-1.0441 Y-1.834
X-1.032 Y-1.8212
X-1.0226 Y-1.8097
X-1.014 Y-1.7971
X-1.0074 Y-1.7856
X-1.0016 Y-1.7732
X-0.9972 Y-1.7616
X-0.9938 Y-1.7496
X-0.9914 Y-1.7379
X-0.9907 Y-1.732
X-0.9906 Y-1.7193
X-0.9934 Y-1.7068
X-0.9988 Y-1.6952
X-1.0067 Y-1.6851
X-1.0166 Y-1.677
X-1.0281 Y-1.6714
X-1.0405 Y-1.6684
X-1.0494 Y-1.6666
G3 X-1.0571 Y-1.6664 I-0.0042 J-0.0246
G1 X-1.1272 Y-1.6763
X-1.4075 Y-1.7154
X-1.4507 Y-1.7215
G3 X-1.4722 Y-1.7453 I0.0035 J-0.0248
G1 Y-1.7936
X-1.472 Y-1.8025
X-1.4713 Y-1.8202
X-1.4709 Y-1.8291
X-1.4685 Y-1.8437
X-1.4664 Y-1.852
X-1.4633 Y-1.8612
X-1.4593 Y-1.8708
X-1.4538 Y-1.8811
X-1.4472 Y-1.8917
X-1.439 Y-1.9026
X-1.4289 Y-1.914
X-1.4176 Y-1.9249
X-1.4038 Y-1.9362
X-1.3883 Y-1.9469
X-1.3711 Y-1.9569
X-1.3513 Y-1.9663
X-1.3293 Y-1.9747
X-1.3202 Y-1.9774
X-1.3161 Y-1.9784
X-1.312 Y-1.9792
X-1.3078 Y-1.9796
G3 X-1.2902 Y-1.9361 I0.0008 J0.025
G1 X-1.3032 Y-1.9243
X-1.4138 Y-1.8241
X-1.4291 Y-1.8103
G3 X-1.4709 Y-1.8291 I-0.0168 J-0.0185
G1 X-1.4679 Y-1.8556
X-1.4671 Y-1.8601
X-1.4656 Y-1.8649
X-1.4568 Y-1.8901
X-1.4564 Y-1.8911
X-1.4512 Y-1.8999
X-1.439 Y-1.9192
X-1.4362 Y-1.9229
X-1.4302 Y-1.9289
X-1.4149 Y-1.9442
X-1.4125 Y-1.9462
X-1.4017 Y-1.9531
X-1.3859 Y-1.963
X-1.3837 Y-1.9642
X-1.3815 Y-1.9651
X-1.3593 Y-1.9728
X-1.3505 Y-1.9756
X-1.3416 Y-1.9767
X-1.3328 Y-1.9777
X-1.3239 Y-1.9785
X-1.2974 Y-1.9803
X-1.2885
X-1.2088
X-1.1715 Y-1.9785
X-1.1482 Y-1.9754
X-1.1245 Y-1.9704
X-1.1009 Y-1.9633
X-1.0778 Y-1.9543
X-1.0556 Y-1.9435
X-1.0348 Y-1.9312
X-1.0154 Y-1.9177
X-0.9978 Y-1.903
X-0.9818 Y-1.8874
X-0.9675 Y-1.871
X-0.9549 Y-1.854
X-0.9443 Y-1.8369
X-0.9359 Y-1.8207
X-0.9295 Y-1.8052
X-0.9247 Y-1.7907
X-0.9213 Y-1.7765
X-0.9193 Y-1.7633
X-0.9182 Y-1.7498
X-0.9183 Y-1.7378
X-0.9194 Y-1.725
X-0.9204 Y-1.719
X-0.9235 Y-1.7077
X-0.9288 Y-1.6973
X-0.936 Y-1.6881
X-0.9449 Y-1.6806
X-0.9552 Y-1.675
X-0.9663 Y-1.6715
X-0.978 Y-1.6703
X-0.9963
X-1.0051
X-1.0228 Y-1.6699
X-1.0307 Y-1.6696
X-1.0405 Y-1.6684
G3 X-1.0639 Y-1.68 I-0.0022 J-0.0249
G1 X-1.0912 Y-1.7232
X-1.2152 Y-1.92
X-1.2291 Y-1.942
G3 X-1.2088 Y-1.9803 I0.0211 J-0.0133
G1 X-1.0405
X-1.0314 Y-1.9799
X-1.0198 Y-1.9784
X-1.0078 Y-1.9758
X-0.9943 Y-1.9718
X-0.9809 Y-1.9665
X-0.9663 Y-1.9594
X-0.9514 Y-1.9507
X-0.9368 Y-1.9404
X-0.9223 Y-1.9284
X-0.9083 Y-1.9147
X-0.8952 Y-1.8997
X-0.8833 Y-1.8836
X-0.8727 Y-1.8666
X-0.8636 Y-1.8489
X-0.856 Y-1.8307
X-0.8499 Y-1.8122
X-0.8458 Y-1.7948
X-0.8431 Y-1.7778
X-0.842 Y-1.7626
X-0.8421 Y-1.748
X-0.8432 Y-1.7344
X-0.8454 Y-1.7213
X-0.8472 Y-1.7144
X-0.8516 Y-1.7024
X-0.8587 Y-1.6916
X-0.8679 Y-1.6827
X-0.8788 Y-1.6759
X-0.891 Y-1.6718
X-0.9037 Y-1.6703
X-0.978
G3 X-1.0014 Y-1.6895 I0.0009 J-0.025
G1 X-1.0122 Y-1.7342
X-1.056 Y-1.9162
X-1.064 Y-1.9495
G3 X-1.0405 Y-1.9803 I0.0243 J-0.0058
G1 X-0.9431
X-0.9316 Y-1.9798
X-0.9223 Y-1.9785
X-0.9127 Y-1.9765
X-0.9019 Y-1.9733
X-0.8911 Y-1.969
X-0.8792 Y-1.9633
X-0.8671 Y-1.9561
X-0.8549 Y-1.9476
X-0.8423 Y-1.9371
X-0.8299 Y-1.925
X-0.8181 Y-1.9115
X-0.8069 Y-1.8963
X-0.7965 Y-1.8796
X-0.7873 Y-1.8618
X-0.7795 Y-1.8433
X-0.7733 Y-1.8242
X-0.7686 Y-1.8047
X-0.7658 Y-1.7865
X-0.7644 Y-1.7685
X-0.7645 Y-1.7534
X-0.7659 Y-1.7379
X-0.7681 Y-1.7247
X-0.7715 Y-1.7112
X-0.7719 Y-1.7099
X-0.777 Y-1.699
X-0.7841 Y-1.6893
X-0.7932 Y-1.6813
X-0.8037 Y-1.6753
X-0.8151 Y-1.6716
X-0.8272 Y-1.6703
X-0.9037
G3 X-0.9276 Y-1.6916 I0.0009 J-0.025
G1 X-0.9341 Y-1.735
X-0.9615 Y-1.9156
X-0.967 Y-1.9516
G3 X-0.9431 Y-1.9803 I0.0247 J-0.0037
G1 X-0.8546
X-0.8445 Y-1.9798
X-0.8365 Y-1.9788
X-0.8273 Y-1.9768
X-0.818 Y-1.974
X-0.8076 Y-1.97
X-0.7971 Y-1.9649
X-0.7858 Y-1.9582
X-0.7743 Y-1.9501
X-0.7629 Y-1.9407
X-0.7511 Y-1.9292
X-0.7397 Y-1.9161
X-0.729 Y-1.9017
X-0.7189 Y-1.8855
X-0.7098 Y-1.8677
X-0.702 Y-1.849
X-0.6956 Y-1.8296
X-0.6909 Y-1.8098
X-0.6877 Y-1.7897
X-0.6864 Y-1.7721
X-0.6865 Y-1.755
X-0.6878 Y-1.7402
X-0.6902 Y-1.7256
X-0.6935 Y-1.7127
X-0.6944 Y-1.7099
X-0.6995 Y-1.699
X-0.7067 Y-1.6893
X-0.7157 Y-1.6813
X-0.7262 Y-1.6753
X-0.7377 Y-1.6716
X-0.7497 Y-1.6703
X-0.8272
G3 X-0.8511 Y-1.6927 I0.0009 J-0.025
G1 X-0.8556 Y-1.7352
X-0.8746 Y-1.9154
X-0.8786 Y-1.9527
G3 X-0.8546 Y-1.9803 I0.0249 J-0.0026
G1 X-0.77
X-0.7627 Y-1.98
X-0.7548 Y-1.9789
X-0.7463 Y-1.9771
X-0.737 Y-1.9743
X-0.7273 Y-1.9706
X-0.7168 Y-1.9655
X-0.7063 Y-1.9592
X-0.6949 Y-1.9513
X-0.6839 Y-1.9421
X-0.6726 Y-1.9311
X-0.6613 Y-1.9182
X-0.6508 Y-1.904
X-0.6408 Y-1.8879
X-0.6317 Y-1.8703
X-0.6239 Y-1.8515
X-0.6175 Y-1.832
X-0.6127 Y-1.8119
X-0.6095 Y-1.7917
X-0.6082 Y-1.7737
X-0.6083 Y-1.7562
X-0.6096 Y-1.7411
X-0.6121 Y-1.7263
X-0.6154 Y-1.7133
X-0.6165 Y-1.7099
X-0.6215 Y-1.699
X-0.6287 Y-1.6893
X-0.6377 Y-1.6813
X-0.6482 Y-1.6753
X-0.6597 Y-1.6716
X-0.6717 Y-1.6703
X-0.7497
G3 X-0.7737 Y-1.6934 I0.0009 J-0.025
G1 X-0.777 Y-1.7353
X-0.7911 Y-1.9153
X-0.794 Y-1.9534
G3 X-0.77 Y-1.9803 I0.0249 J-0.0019
G1 X-0.6903
X-0.6828 Y-1.98
X-0.6749 Y-1.9789
X-0.6666 Y-1.9772
X-0.6574 Y-1.9744
X-0.648 Y-1.9707
X-0.6376 Y-1.9657
X-0.6273 Y-1.9596
X-0.6161 Y-1.9517
X-0.6052 Y-1.9427
X-0.5941 Y-1.9318
X-0.5829 Y-1.919
X-0.5725 Y-1.9049
X-0.5625 Y-1.889
X-0.5535 Y-1.8715
X-0.5457 Y-1.8527
X-0.5393 Y-1.8331
X-0.5344 Y-1.813
X-0.5313 Y-1.7927
X-0.5299 Y-1.7745
X-0.53 Y-1.7567
X-0.5313 Y-1.7416
X-0.5338 Y-1.7266
X-0.5371 Y-1.7135
X-0.5383 Y-1.7099
X-0.5434 Y-1.699
X-0.5506 Y-1.6893
X-0.5596 Y-1.6813
X-0.5701 Y-1.6753
X-0.5816 Y-1.6716
X-0.5936 Y-1.6703
X-0.6717
G3 X-0.6958 Y-1.6935 I0.0009 J-0.025
G1 X-0.6988 Y-1.7354
X-0.7116 Y-1.9153
X-0.7144 Y-1.9536
G3 X-0.6903 Y-1.9803 I0.0249 J-0.0018
G1 X-0.6106
X-0.6037 Y-1.98
X-0.5959 Y-1.979
X-0.5877 Y-1.9772
X-0.5785 Y-1.9745
X-0.5692 Y-1.9708
X-0.5589 Y-1.9658
X-0.5486 Y-1.9598
X-0.5375 Y-1.952
X-0.5267 Y-1.943
X-0.5156 Y-1.9322
X-0.5045 Y-1.9194
X-0.4941 Y-1.9054
X-0.4843 Y-1.8896
X-0.4752 Y-1.8721
X-0.4674 Y-1.8533
X-0.461 Y-1.8337
X-0.4561 Y-1.8135
X-0.453 Y-1.7932
X-0.4516 Y-1.7748
X-0.4517 Y-1.757
X-0.453 Y-1.7418
X-0.4555 Y-1.7267
X-0.4588 Y-1.7137
X-0.4601 Y-1.7099
X-0.4651 Y-1.699
X-0.4723 Y-1.6893
X-0.4814 Y-1.6813
X-0.4918 Y-1.6753
X-0.5033 Y-1.6716
X-0.5153 Y-1.6703
X-0.5936
G3 X-0.6177 Y-1.6937 I0.0009 J-0.025
G1 X-0.6204 Y-1.7354
X-0.6322 Y-1.9153
X-0.6347 Y-1.9537
G3 X-0.6106 Y-1.9803 I0.0249 J-0.0016
G1 X-0.5358
X-0.5249 Y-1.9798
X-0.5171 Y-1.9788
X-0.509 Y-1.977
X-0.4998 Y-1.9743
X-0.4906 Y-1.9707
X-0.4803 Y-1.9657
X-0.4701 Y-1.9597
X-0.459 Y-1.9519
X-0.4482 Y-1.9429
X-0.4372 Y-1.9322
X-0.4261 Y-1.9195
X-0.4157 Y-1.9055
X-0.4059 Y-1.8897
X-0.3969 Y-1.8723
X-0.3891 Y-1.8535
X-0.3827 Y-1.8339
X-0.3778 Y-1.8137
X-0.3747 Y-1.7934
X-0.3733 Y-1.775
X-0.3734 Y-1.7571
X-0.3747 Y-1.7419
X-0.3772 Y-1.7268
X-0.3805 Y-1.7137
X-0.3818 Y-1.7099
X-0.3868 Y-1.699
X-0.394 Y-1.6893
X-0.4031 Y-1.6813
X-0.4136 Y-1.6753
X-0.425 Y-1.6716
X-0.437 Y-1.6703
X-0.5153
G3 X-0.5394 Y-1.6934 I0.0009 J-0.025
G1 X-0.5427 Y-1.7353
X-0.5568 Y-1.9153
X-0.5598 Y-1.9534
G3 X-0.5358 Y-1.9803 I0.0249 J-0.002
G1 X-0.4561
X-0.4465 Y-1.9799
X-0.4387 Y-1.9788
X-0.4306 Y-1.9771
X-0.4215 Y-1.9744
X-0.4122 Y-1.9708
X-0.4019 Y-1.9658
X-0.3917 Y-1.9598
X-0.3807 Y-1.952
X-0.3698 Y-1.943
X-0.3589 Y-1.9323
X-0.3478 Y-1.9196
X-0.3374 Y-1.9056
X-0.3276 Y-1.8898
X-0.3186 Y-1.8724
X-0.3108 Y-1.8536
X-0.3044 Y-1.834
X-0.2995 Y-1.8138
X-0.2963 Y-1.7934
X-0.295 Y-1.775
X-0.2951 Y-1.7571
X-0.2964 Y-1.7419
X-0.2989 Y-1.7268
X-0.3022 Y-1.7137
X-0.3035 Y-1.7099
X-0.3085 Y-1.699
X-0.3157 Y-1.6893
X-0.3247 Y-1.6813
X-0.3351 Y-1.6753
X-0.3465 Y-1.6716
X-0.3585 Y-1.6703
X-0.437
G3 X-0.4611 Y-1.6935 I0.0009 J-0.025
G1 X-0.4642 Y-1.7354
X-0.4773 Y-1.9153
X-0.4801 Y-1.9535
G3 X-0.4561 Y-1.9803 I0.0249 J-0.0018
G1 X-0.3764
X-0.3682 Y-1.9799
X-0.3603 Y-1.9789
X-0.3523 Y-1.9772
X-0.3431 Y-1.9744
X-0.3339 Y-1.9708
X-0.3236 Y-1.9658
X-0.3134 Y-1.9598
X-0.3024 Y-1.9521
X-0.2915 Y-1.9431
X-0.2806 Y-1.9324
X-0.2695 Y-1.9197
X-0.2591 Y-1.9057
X-0.2493 Y-1.8899
X-0.2403 Y-1.8725
X-0.2324 Y-1.8537
X-0.226 Y-1.8341
X-0.2212 Y-1.8139
X-0.218 Y-1.7935
X-0.2166 Y-1.7751
X-0.2167 Y-1.7572
X-0.2181 Y-1.7419
X-0.2206 Y-1.7268
X-0.2213 Y-1.7239
X-0.2251 Y-1.7133
X-0.2308 Y-1.7037
X-0.2383 Y-1.6953
X-0.2472 Y-1.6885
G3 X-0.2822 Y-1.6996 I-0.0124 J-0.0217
G1 X-0.2982 Y-1.7333
X-0.3857 Y-1.9184
X-0.3981 Y-1.9447
G3 X-0.3764 Y-1.9803 I0.0226 J-0.0107
G1 X-0.3587
X-0.3498
X-0.3232 Y-1.98
X-0.319 Y-1.9796
X-0.2878 Y-1.9761
X-0.2834 Y-1.9755
X-0.279 Y-1.9742
X-0.2612 Y-1.968
X-0.2501 Y-1.9634
X-0.2462 Y-1.9614
X-0.2446 Y-1.9605
X-0.243 Y-1.9596
G3 X-0.2673 Y-1.9161 I-0.014 J0.0207
G1 X-0.2713 Y-1.9179
X-0.2762 Y-1.9201
X-0.2789 Y-1.9213
G3 X-0.2612 Y-1.968 I0.0103 J-0.0228
G1 X-0.2524 Y-1.9649
X-0.2496 Y-1.9636
X-0.2468 Y-1.9619
X-0.2347 Y-1.9543
X-0.222 Y-1.9454
X-0.217 Y-1.9413
X-0.2156 Y-1.9401
X-0.2142 Y-1.9389
X-0.2129 Y-1.9376
G3 X-0.2463 Y-1.9006 I-0.0183 J0.017
G1 X-0.2497 Y-1.9032
X-0.2599 Y-1.9109
X-0.2623 Y-1.9128
G3 X-0.2347 Y-1.9543 I0.0151 J-0.0199
G1 X-0.2258 Y-1.9487
X-0.2227 Y-1.9467
X-0.2196 Y-1.9442
X-0.1993 Y-1.9239
X-0.1965 Y-1.9208
X-0.1944 Y-1.9176
X-0.1815 Y-1.8972
X-0.1781 Y-1.8911
X-0.1749 Y-1.8822
X-0.1687 Y-1.8645
X-0.1673 Y-1.8601
X-0.1665 Y-1.8556
X-0.1636 Y-1.8291
X-0.1633 Y-1.8246
X-0.1638 Y-1.8192
X-0.1667 Y-1.7936
X-0.1671 Y-1.7914
X-0.1677 Y-1.7892
X-0.1727 Y-1.7748
X-0.1754 Y-1.7671
X-0.1787 Y-1.7582
X-0.1815 Y-1.7535
X-0.1953 Y-1.7316
X-0.1971 Y-1.7292
X-0.1993 Y-1.7268
X-0.217 Y-1.7091
X-0.2212 Y-1.705
X-0.2258 Y-1.7019
X-0.2435 Y-1.6908
X-0.2492 Y-1.6873
X-0.2524 Y-1.6858
X-0.279 Y-1.6765
X-0.2834 Y-1.6752
X-0.2878 Y-1.6746
X-0.3144 Y-1.6716
X-0.3232 Y-1.6707
X-0.3498 Y-1.6704
X-0.3585 Y-1.6703
G3 X-0.3576 Y-1.7203 I0.0008 J-0.025
X-0.357 I-0.0001 J0.025
G1 X-0.3531 Y-1.7202 Z-0.2672
X-0.3492 Y-1.7201 Z-0.2663
X-0.3456 Y-1.72 Z-0.2648
X-0.3423 Y-1.7199 Z-0.2627
X-0.3393 Y-1.7198 Z-0.2602
X-0.3367 Y-1.7197 Z-0.2572
X-0.3347 Y-1.7196 Z-0.2538
X-0.3332 Z-0.2502
X-0.3323 Z-0.2464
X-0.332 Y-1.7195 Z-0.2425
G0 Z0.2
X-1.1768 Y-0.1147
Z-0.2175
G1 Z-0.2425 F40
X-1.1765 Z-0.2464
X-1.1756 Y-0.1146 Z-0.2502
X-1.1741 Y-0.1144 Z-0.2538
X-1.1721 Y-0.1141 Z-0.2572
X-1.1695 Y-0.1137 Z-0.2602
X-1.1666 Y-0.1133 Z-0.2627
X-1.1633 Y-0.1128 Z-0.2648
X-1.1597 Y-0.1123 Z-0.2663
X-1.1559 Y-0.1117 Z-0.2672
X-1.152 Y-0.1112 Z-0.2675
G3 X-1.076 Y-0.0917 I-0.0518 J0.3609
G1 X-1.0671 Y-0.088
X-1.0548 Y-0.0841
X-1.0494 Y-0.083
X-1.0317 Y-0.0801
X-1.0228 Y-0.0795
X-1.018 Y-0.0794
X-1.012 Y-0.079
X-1.0053 Y-0.078
X-0.9984 Y-0.0764
X-0.9903 Y-0.0738
X-0.9811 Y-0.0701
X-0.9719 Y-0.0654
X-0.9614 Y-0.0589
X-0.9512 Y-0.0514
X-0.9401 Y-0.0419
X-0.9295 Y-0.0311
X-0.919 Y-0.0186
X-0.9088 Y-0.0043
X-0.8994 Y0.0114
X-0.8911 Y0.0283
X-0.884 Y0.0462
X-0.8781 Y0.0653
X-0.8737 Y0.0853
X-0.8709 Y0.1059
X-0.8698 Y0.1257
X-0.8702 Y0.1444
X-0.8719 Y0.1603
X-0.8747 Y0.1756
X-0.8784 Y0.1892
X-0.8795 Y0.1923
X-0.8847 Y0.203
X-0.8919 Y0.2125
X-0.9009 Y0.2203
X-0.9113 Y0.2261
X-0.9226 Y0.2297
X-0.9344 Y0.2309
X-0.9963
X-1.0051
X-1.0135 Y0.231
G3 X-1.0379 Y0.2065 I0.0005 J-0.025
G1 X-1.0386 Y0.1662
X-1.0418 Y-0.0148
X-1.0425 Y-0.054
G3 X-1.018 Y-0.0794 I0.025 J-0.0004
G1 X-1.0051 Y-0.0792
X-0.9963 Y-0.0791
X-0.9471
X-0.9393 Y-0.0787
X-0.9318 Y-0.0777
X-0.9238 Y-0.076
X-0.915 Y-0.0734
X-0.9059 Y-0.0699
X-0.8959 Y-0.065
X-0.8861 Y-0.0592
X-0.8754 Y-0.0517
X-0.865 Y-0.0431
X-0.8543 Y-0.0327
X-0.8436 Y-0.0204
X-0.8337 Y-0.007
X-0.824 Y0.0085
X-0.8151 Y0.0258
X-0.8073 Y0.0445
X-0.8009 Y0.0641
X-0.796 Y0.0843
X-0.7928 Y0.105
X-0.7914 Y0.1243
X-0.7915 Y0.1425
X-0.7928 Y0.158
X-0.7954 Y0.1735
X-0.7988 Y0.1867
X-0.8003 Y0.1913
X-0.8053 Y0.2023
X-0.8125 Y0.212
X-0.8216 Y0.22
X-0.832 Y0.2259
X-0.8435 Y0.2296
X-0.8555 Y0.2309
X-0.9344
G3 X-0.9585 Y0.2071 I0.0009 J-0.025
G1 X-0.9605 Y0.1658
X-0.9693 Y-0.014
X-0.9712 Y-0.0529
G3 X-0.9471 Y-0.0791 I0.025 J-0.0012
G1 X-0.8723
X-0.8624 Y-0.0786
X-0.8548 Y-0.0776
X-0.8469 Y-0.0759
X-0.8379 Y-0.0732
X-0.8289 Y-0.0697
X-0.8188 Y-0.0648
X-0.8088 Y-0.0589
X-0.7981 Y-0.0514
X-0.7872 Y-0.0424
X-0.7766 Y-0.032
X-0.7656 Y-0.0195
X-0.7553 Y-0.0056
X-0.7457 Y0.01
X-0.7367 Y0.0273
X-0.7289 Y0.0461
X-0.7225 Y0.0657
X-0.7176 Y0.086
X-0.7144 Y0.1065
X-0.713 Y0.1252
X-0.7131 Y0.1433
X-0.7144 Y0.1587
X-0.717 Y0.174
X-0.7203 Y0.1871
X-0.7217 Y0.1913
X-0.7268 Y0.2023
X-0.7339 Y0.212
X-0.743 Y0.22
X-0.7535 Y0.2259
X-0.765 Y0.2296
X-0.777 Y0.2309
X-0.8555
G3 X-0.8796 Y0.2075 I0.0009 J-0.025
G1 X-0.8823 Y0.1658
X-0.8939 Y-0.0141
X-0.8964 Y-0.0525
G3 X-0.8723 Y-0.0791 I0.0249 J-0.0016
G1 X-0.7926
X-0.7852 Y-0.0788
X-0.7775 Y-0.0777
X-0.7695 Y-0.076
X-0.7604 Y-0.0733
X-0.7513 Y-0.0698
X-0.7411 Y-0.0648
X-0.731 Y-0.0589
X-0.7201 Y-0.0512
X-0.7092 Y-0.0422
X-0.6984 Y-0.0317
X-0.6874 Y-0.019
X-0.6771 Y-0.005
X-0.6673 Y0.0106
X-0.6583 Y0.028
X-0.6505 Y0.0468
X-0.6441 Y0.0664
X-0.6392 Y0.0867
X-0.636 Y0.1071
X-0.6346 Y0.1257
X-0.6347 Y0.1437
X-0.6361 Y0.159
X-0.6386 Y0.1742
X-0.6419 Y0.1873
X-0.6433 Y0.1913
X-0.6483 Y0.2023
X-0.6555 Y0.212
X-0.6645 Y0.22
X-0.675 Y0.2259
X-0.6865 Y0.2296
X-0.6985 Y0.2309
X-0.777
G3 X-0.801 Y0.2074 I0.0009 J-0.025
G1 X-0.8035 Y0.1658
X-0.8143 Y-0.0141
X-0.8167 Y-0.0526
G3 X-0.7926 Y-0.0791 I0.025 J-0.0015
G1 X-0.7129
X-0.7069 Y-0.0788
X-0.699 Y-0.0777
X-0.691 Y-0.076
X-0.6818 Y-0.0732
X-0.6725 Y-0.0695
X-0.6622 Y-0.0644
X-0.6521 Y-0.0583
X-0.6412 Y-0.0506
X-0.6302 Y-0.0414
X-0.6194 Y-0.0307
X-0.6083 Y-0.0179
X-0.5979 Y-0.0036
X-0.5882 Y0.0122
X-0.5794 Y0.0296
X-0.5716 Y0.0485
X-0.5653 Y0.0682
X-0.5606 Y0.0885
X-0.5575 Y0.1089
X-0.5563 Y0.1273
X-0.5565 Y0.1451
X-0.5579 Y0.1603
X-0.5605 Y0.1753
X-0.5639 Y0.1884
X-0.565 Y0.1916
X-0.5701 Y0.2025
X-0.5773 Y0.2121
X-0.5863 Y0.2201
X-0.5967 Y0.226
X-0.6082 Y0.2296
X-0.6201 Y0.2309
X-0.6985
G3 X-0.7226 Y0.2073 I0.0009 J-0.025
G1 X-0.7249 Y0.1658
X-0.7348 Y-0.0141
X-0.737 Y-0.0528
G3 X-0.7129 Y-0.0791 I0.025 J-0.0014
G1 X-0.6372
X-0.6291 Y-0.0787
X-0.6214 Y-0.0777
X-0.6133 Y-0.076
X-0.6042 Y-0.0733
X-0.595 Y-0.0696
X-0.5847 Y-0.0647
X-0.5746 Y-0.0587
X-0.5635 Y-0.051
X-0.5528 Y-0.0421
X-0.5418 Y-0.0313
X-0.5308 Y-0.0186
X-0.5205 Y-0.0048
X-0.5106 Y0.0111
X-0.5016 Y0.0286
X-0.4937 Y0.0474
X-0.4873 Y0.067
X-0.4825 Y0.0872
X-0.4793 Y0.1076
X-0.4779 Y0.126
X-0.478 Y0.1439
X-0.4793 Y0.1592
X-0.4819 Y0.1743
X-0.4852 Y0.1874
X-0.4865 Y0.1913
X-0.4915 Y0.2023
X-0.4987 Y0.212
X-0.5078 Y0.22
X-0.5182 Y0.2259
X-0.5297 Y0.2296
X-0.5417 Y0.2309
X-0.6201
G3 X-0.6442 Y0.2075 I0.0009 J-0.025
G1 X-0.6469 Y0.1658
X-0.6587 Y-0.0141
X-0.6612 Y-0.0525
G3 X-0.6372 Y-0.0791 I0.0249 J-0.0016
G1 X-0.5575
X-0.551 Y-0.0788
X-0.5432 Y-0.0778
X-0.5351 Y-0.0761
X-0.526 Y-0.0733
X-0.5168 Y-0.0697
X-0.5065 Y-0.0647
X-0.4963 Y-0.0587
X-0.4853 Y-0.051
X-0.4745 Y-0.042
X-0.4635 Y-0.0313
X-0.4524 Y-0.0186
X-0.4421 Y-0.0046
X-0.4323 Y0.0112
X-0.4233 Y0.0286
X-0.4154 Y0.0474
X-0.409 Y0.067
X-0.4042 Y0.0872
X-0.401 Y0.1076
X-0.3996 Y0.126
X-0.3997 Y0.144
X-0.401 Y0.1592
X-0.4036 Y0.1743
X-0.4068 Y0.1874
X-0.4082 Y0.1913
X-0.4132 Y0.2023
X-0.4204 Y0.212
X-0.4294 Y0.22
X-0.4399 Y0.2259
X-0.4514 Y0.2296
X-0.4634 Y0.2309
X-0.5417
G3 X-0.5658 Y0.2074 I0.0009 J-0.025
G1 X-0.5683 Y0.1658
X-0.5792 Y-0.0141
X-0.5815 Y-0.0526
G3 X-0.5575 Y-0.0791 I0.025 J-0.0015
G1 X-0.4826
X-0.4726 Y-0.0786
X-0.4647 Y-0.0776
X-0.4567 Y-0.0759
X-0.4476 Y-0.0731
X-0.4384 Y-0.0695
X-0.4281 Y-0.0646
X-0.4179 Y-0.0586
X-0.4069 Y-0.0509
X-0.3961 Y-0.0418
X-0.3852 Y-0.0312
X-0.3741 Y-0.0185
X-0.3637 Y-0.0045
X-0.3539 Y0.0113
X-0.3449 Y0.0287
X-0.3371 Y0.0475
X-0.3307 Y0.0671
X-0.3258 Y0.0873
X-0.3226 Y0.1076
