%
(KevnHoles)
(T1  D=0.25 CR=0 - ZMIN=-0.1875 - flat end mill)
G90 G94
G17
G20
G28 G91 Z0
G90

(Drill1)
M9
T1 M6
S1000 M3
G54
M9
G0 X-3.5 Y2.5
Z0.6
Z0.2
Z0.0125
G1 Z-0.1875 F40
G0 Z0.2
X3.5 Y-2.5
Z0.0125
G1 Z-0.1875 F40
G0 Z0.2
Y2.5
Z0.0125
G1 Z-0.1875 F40
G0 Z0.2
X-3.5 Y-2.5
Z0.0125
G1 Z-0.1875 F40
G0 Z0.2
Z0.6
M9
G28 G91 Z0
G28 X0 Y0
M30
%
