%
(JASONmill)
(T2  D=6.35 CR=0 - ZMIN=-5.5 - flat end mill)
G90 G94
G17
G21
G28 G91 Z0
G90

(2D Adaptive1)
M9
T2 M6
S1000 M3
G54
M8
G0 X-89.859 Y27.836
Z15
Z5
Z3.685
G1 Z3.05 F1016
G3 X-95.13 Y24.903 Z2.719 I-2.636 J-1.467
X-89.859 Y27.836 Z2.388 I2.636 J1.467
X-95.13 Y24.903 Z2.057 I-2.636 J-1.467
X-89.859 Y27.836 Z1.726 I2.636 J1.467
X-95.13 Y24.903 Z1.395 I-2.636 J-1.467
X-89.859 Y27.836 Z1.065 I2.636 J1.467
X-95.13 Y24.903 Z0.734 I-2.636 J-1.467
X-89.859 Y27.836 Z0.403 I2.636 J1.467
X-95.13 Y24.903 Z0.072 I-2.636 J-1.467
X-89.859 Y27.836 Z-0.259 I2.636 J1.467
X-95.13 Y24.903 Z-0.59 I-2.636 J-1.467
X-89.859 Y27.836 Z-0.921 I2.636 J1.467
X-95.13 Y24.903 Z-1.252 I-2.636 J-1.467
X-89.859 Y27.836 Z-1.583 I2.636 J1.467
X-95.13 Y24.903 Z-1.914 I-2.636 J-1.467
X-89.859 Y27.836 Z-2.244 I2.636 J1.467
X-95.13 Y24.903 Z-2.575 I-2.636 J-1.467
X-89.859 Y27.836 Z-2.906 I2.636 J1.467
X-95.13 Y24.903 Z-3.237 I-2.636 J-1.467
X-89.859 Y27.836 Z-3.568 I2.636 J1.467
X-95.13 Y24.903 Z-3.899 I-2.636 J-1.467
X-89.859 Y27.836 Z-4.23 I2.636 J1.467
X-95.13 Y24.903 Z-4.561 I-2.636 J-1.467
X-89.859 Y27.836 Z-4.892 I2.636 J1.467
X-95.13 Y24.903 Z-5.223 I-2.636 J-1.467
X-89.478 Y26.37 Z-5.5 I2.636 J1.467
X-95.511 I-3.016
X-89.586 Y25.572 I3.016
X-89.478 Y26.37 I-2.909 J0.797
G1 X-89.474 Y26.615
X-89.296 Y27.58
X-89.259 Y27.697
X-89.227 Y27.844
X-89.21 Y27.993
X-89.205 Y28.143
X-89.213 Y28.305
X-89.236 Y28.477
X-89.274 Y28.658
X-89.331 Y28.847
X-89.406 Y29.041
X-89.502 Y29.239
X-89.62 Y29.438
X-89.759 Y29.636
X-89.92 Y29.831
X-90.104 Y30.02
X-90.31 Y30.199
X-90.538 Y30.368
X-90.786 Y30.522
X-91.053 Y30.66
X-91.172 Y30.71
X-91.357 Y30.774
X-91.549 Y30.812
X-91.744 Y30.825
X-92.969
X-93.406 Y30.803
X-93.712 Y30.763
X-94.022 Y30.697
X-94.332 Y30.604
X-94.64 Y30.484
X-94.942 Y30.337
X-95.237 Y30.164
X-95.521 Y29.964
X-95.791 Y29.74
X-96.046 Y29.491
X-96.282 Y29.22
X-96.498 Y28.929
X-96.691 Y28.618
X-96.86 Y28.291
X-97.003 Y27.949
X-97.119 Y27.595
X-97.206 Y27.231
X-97.264 Y26.859
X-97.292 Y26.482
X-97.29 Y26.103
X-97.257 Y25.725
X-97.194 Y25.349
X-97.099 Y24.974
X-96.987 Y24.723
X-96.83 Y24.496
X-96.635 Y24.303
X-96.62 Y24.291
X-96.313 Y24.004
X-96.09 Y23.738
X-96.005 Y23.623
X-95.867 Y23.415
X-95.673 Y23.152
X-95.47 Y22.92
X-95.244 Y22.7
X-94.995 Y22.493
X-94.725 Y22.304
X-94.436 Y22.134
X-94.128 Y21.985
X-93.805 Y21.859
X-93.469 Y21.759
X-93.122 Y21.685
X-92.766 Y21.638
X-92.404 Y21.62
X-92.039 Y21.632
X-91.673 Y21.672
X-91.309 Y21.743
X-90.95 Y21.843
X-90.599 Y21.972
X-90.257 Y22.13
X-90.009 Y22.27
X-89.751 Y22.452
X-89.535 Y22.684
X-89.371 Y22.954
X-89.265 Y23.177
X-89.178 Y23.34
X-89.145 Y23.4
X-88.987 Y23.623
X-88.733 Y23.946
X-88.528 Y24.206
X-88.202 Y24.696
X-87.904 Y25.234
X-87.691 Y25.703
X-87.53 Y26.15
X-87.414 Y26.577
X-87.337 Y26.992
X-87.294 Y27.401
X-87.284 Y27.806
X-87.306 Y28.207
X-87.361 Y28.602
X-87.446 Y28.993
X-87.564 Y29.376
X-87.713 Y29.752
X-87.834 Y29.998
X-88.012 Y30.275
X-88.246 Y30.507
X-88.525 Y30.681
X-88.836 Y30.788
X-89.163 Y30.825
X-91.744
G3 X-92.304 Y29.936 I0.022 J-0.635
G1 X-89.772 Y24.133
G3 X-88.733 Y23.946 I0.582 J0.254
G1 X-88.623 Y24.068
X-88.51 Y24.178
X-88.386 Y24.291
X-88.287 Y24.371
X-88.097 Y24.514
X-88.064 Y24.536
X-87.841 Y24.68
X-87.733 Y24.737
X-87.618 Y24.794
X-87.395 Y24.896
X-87.258 Y24.958
X-87.098 Y25.058
X-86.933 Y25.179
X-86.76 Y25.33
X-86.593 Y25.502
X-86.42 Y25.71
X-86.259 Y25.938
X-86.104 Y26.201
X-85.959 Y26.499
X-85.835 Y26.816
X-85.731 Y27.164
X-85.649 Y27.545
X-85.596 Y27.948
X-85.574 Y28.361
X-85.586 Y28.76
X-85.63 Y29.159
X-85.696 Y29.5
X-85.794 Y29.853
X-85.925 Y30.123
X-86.109 Y30.361
X-86.337 Y30.558
X-86.599 Y30.704
X-86.886 Y30.794
X-87.185 Y30.825
X-89.163
G3 X-89.745 Y29.993 I0.022 J-0.635
G1 X-88.206 Y25.298
G3 X-87.395 Y24.896 I0.603 J0.198
G1 X-87.172 Y24.982
X-86.949 Y25.046
X-86.726 Y25.099
X-86.503 Y25.136
X-86.381 Y25.143
X-86.231 Y25.16
X-86.085 Y25.192
X-85.936 Y25.24
X-85.784 Y25.302
X-85.617 Y25.387
X-85.447 Y25.491
X-85.269 Y25.621
X-85.086 Y25.777
X-84.907 Y25.959
X-84.723 Y26.177
X-84.552 Y26.417
X-84.388 Y26.691
X-84.234 Y27.002
X-84.103 Y27.332
X-83.994 Y27.685
X-83.911 Y28.061
X-83.864 Y28.404
X-83.844 Y28.755
X-83.851 Y29.07
X-83.885 Y29.397
X-83.938 Y29.685
X-83.951 Y29.73
X-84.068 Y30.03
X-84.247 Y30.297
X-84.48 Y30.52
X-84.756 Y30.687
X-85.061 Y30.79
X-85.381 Y30.825
X-87.185
G3 X-87.789 Y30.082 I0.022 J-0.635
G1 X-87.022 Y25.67
G3 X-86.381 Y25.143 I0.626 J0.109
G1 X-86.057 Y25.163
X-85.834 Y25.175
X-85.043
X-84.892 Y25.183
X-84.743 Y25.202
X-84.587 Y25.235
X-84.415 Y25.287
X-84.235 Y25.357
X-84.046 Y25.449
X-83.846 Y25.567
X-83.648 Y25.705
X-83.44 Y25.878
X-83.238 Y26.076
X-83.043 Y26.299
X-82.853 Y26.556
X-82.676 Y26.84
X-82.518 Y27.147
X-82.381 Y27.475
X-82.269 Y27.818
X-82.191 Y28.141
X-82.138 Y28.481
X-82.115 Y28.784
X-82.117 Y29.107
X-82.142 Y29.398
X-82.191 Y29.689
X-82.195 Y29.705
X-82.309 Y30.011
X-82.488 Y30.284
X-82.721 Y30.512
X-82.999 Y30.683
X-83.308 Y30.789
X-83.632 Y30.825
X-85.381
G3 X-85.992 Y30.142 I0.022 J-0.635
G1 X-85.654 Y25.761
G3 X-85.043 Y25.175 I0.633 J0.049
G1 X-83.382
X-83.232 Y25.183
X-83.065 Y25.209
X-82.892 Y25.25
X-82.703 Y25.312
X-82.506 Y25.394
X-82.303 Y25.498
X-82.088 Y25.632
X-81.877 Y25.788
X-81.666 Y25.972
X-81.454 Y26.189
X-81.254 Y26.43
X-81.068 Y26.694
X-80.895 Y26.987
X-80.741 Y27.305
X-80.609 Y27.644
X-80.514 Y27.961
X-80.442 Y28.296
X-80.401 Y28.608
X-80.385 Y28.914
X-80.395 Y29.222
X-80.425 Y29.5
X-80.449 Y29.624
X-80.533 Y29.904
X-80.669 Y30.161
X-80.853 Y30.388
X-81.078 Y30.573
X-81.335 Y30.711
X-81.614 Y30.796
X-81.904 Y30.825
X-83.632
G3 X-84.244 Y30.154 I0.022 J-0.635
G1 X-83.994 Y25.773
G3 X-83.382 Y25.175 I0.634 J0.036
G1 X-81.699
X-81.549 Y25.183
X-81.387 Y25.206
X-81.206 Y25.248
X-81.017 Y25.308
X-80.818 Y25.389
X-80.606 Y25.496
X-80.396 Y25.624
X-80.179 Y25.782
X-79.961 Y25.968
X-79.753 Y26.178
X-79.551 Y26.417
X-79.359 Y26.685
X-79.182 Y26.979
X-79.027 Y27.293
X-78.897 Y27.617
X-78.796 Y27.942
X-78.723 Y28.269
X-78.68 Y28.578
X-78.661 Y28.894
X-78.668 Y29.184
X-78.698 Y29.487
X-78.721 Y29.612
X-78.803 Y29.893
X-78.938 Y30.154
X-79.122 Y30.382
X-79.348 Y30.57
X-79.606 Y30.71
X-79.886 Y30.796
X-80.179 Y30.825
X-81.904
G3 X-82.516 Y30.161 I0.022 J-0.635
G1 X-82.311 Y25.78
G3 X-81.699 Y25.175 I0.634 J0.03
G1 X-80.038
X-79.792 Y25.196
X-79.621 Y25.224
X-79.442 Y25.269
X-79.244 Y25.336
X-79.046 Y25.421
X-78.833 Y25.533
X-78.618 Y25.67
X-78.405 Y25.831
X-78.188 Y26.024
X-77.977 Y26.244
X-77.779 Y26.488
X-77.593 Y26.758
X-77.422 Y27.055
X-77.27 Y27.376
X-77.149 Y27.696
X-77.053 Y28.031
X-76.989 Y28.343
X-76.95 Y28.662
X-76.949 Y28.69
X-76.961 Y28.948
X-77.018 Y29.2
X-77.118 Y29.438
G3 X-78.188 Y29.49 I-0.552 J-0.315
G1 X-80.534 Y26.177
G3 X-80.038 Y25.175 I0.518 J-0.367
G1 X-79.815 Y25.183
X-79.146 Y25.246
X-78.923 Y25.272
X-78.811 Y25.294
X-78.7 Y25.333
X-78.254 Y25.502
X-78.15 Y25.557
X-77.724 Y25.851
X-77.654 Y25.904
X-77.585 Y25.973
X-77.298 Y26.297
X-77.205 Y26.408
X-77.139 Y26.521
X-76.916 Y26.947
X-76.907 Y26.965
X-76.884 Y27.021
X-76.867 Y27.077
X-76.784 Y27.411
X-76.732 Y27.634
X-76.722 Y27.857
Y28.08
X-76.724 Y28.302
X-76.769 Y28.525
X-76.824 Y28.748
X-76.881 Y28.971
X-76.916 Y29.054
X-77.139 Y29.479
X-77.184 Y29.559
X-77.242 Y29.64
X-77.585 Y30.027
X-77.643 Y30.085
X-77.808 Y30.207
X-78.143 Y30.438
X-78.198 Y30.471
X-78.254 Y30.498
X-78.7 Y30.667
X-78.811 Y30.706
X-78.923 Y30.728
X-79.146 Y30.754
X-79.815 Y30.817
X-80.038 Y30.825
X-80.179
X-80.232 Y30.813 Z-5.494
X-80.284 Y30.802 Z-5.475
X-80.33 Y30.793 Z-5.445
X-80.368 Y30.784 Z-5.406
X-80.397 Y30.778 Z-5.359
X-80.405 Y30.775 Z-5.34
X-80.416 Y30.77 Z-5.296
X-80.42 Y30.768 Z-5.251
G0 Z5
X-92.668 Y30.037
Z-4.23
G1 Z-4.865 F1016
X-92.669 Y30.044 Z-4.964
X-92.674 Y30.067 Z-5.061
X-92.68 Y30.105 Z-5.153
X-92.689 Y30.156 Z-5.238
X-92.701 Y30.22 Z-5.314
X-92.714 Y30.294 Z-5.379
X-92.729 Y30.378 Z-5.431
X-92.746 Y30.469 Z-5.469
X-92.763 Y30.564 Z-5.492
X-92.78 Y30.662 Z-5.5
G3 X-92.969 Y30.825 I-0.195 J-0.035
G1 X-95.544
X-95.717 Y30.816
X-95.916 Y30.79
X-96.121 Y30.746
X-96.348 Y30.679
X-96.577 Y30.589
X-96.817 Y30.473
X-97.068 Y30.325
X-97.313 Y30.153
X-97.562 Y29.947
X-97.81 Y29.704
X-98.046 Y29.434
X-98.267 Y29.135
X-98.476 Y28.8
X-98.665 Y28.432
X-98.831 Y28.036
X-98.968 Y27.618
X-99.073 Y27.18
X-99.14 Y26.749
X-99.152 Y26.589
X-99.139 Y26.252
X-99.05 Y25.927
X-98.889 Y25.63
X-98.666 Y25.378
X-98.392 Y25.182
X-98.08 Y25.053
X-97.967 Y25.021
G3 X-97.245 Y25.356 I0.153 J0.616
G1 X-94.996 Y29.909
G3 X-95.544 Y30.825 I-0.569 J0.281
G1 X-97.427
X-97.64 Y30.814
X-97.82 Y30.791
X-98.017 Y30.749
X-98.223 Y30.687
X-98.449 Y30.599
X-98.675 Y30.489
X-98.92 Y30.345
X-99.163 Y30.175
X-99.411 Y29.969
X-99.664 Y29.722
X-99.903 Y29.448
X-100.135 Y29.134
X-100.329 Y28.822
X-100.503 Y28.484
X-100.632 Y28.176
X-100.737 Y27.856
X-100.812 Y27.544
X-100.858 Y27.25
X-100.881 Y26.935
X-100.88 Y26.655
X-100.869 Y26.529
X-100.809 Y26.223
X-100.687 Y25.936
X-100.508 Y25.681
X-100.28 Y25.47
X-100.012 Y25.31
X-99.717 Y25.211
X-99.407 Y25.175
X-99.211 Y25.173
X-98.765 Y25.157
X-98.542 Y25.144
X-98.319 Y25.109
X-98.096 Y25.058
X-98.08 Y25.053
G3 X-97.296 Y25.603 I0.153 J0.616
G1 X-96.818 Y30.124
G3 X-97.427 Y30.825 I-0.631 J0.067
G1 X-99.334
X-99.506 Y30.816
X-99.686 Y30.793
X-99.883 Y30.751
X-100.086 Y30.69
X-100.31 Y30.603
X-100.532 Y30.495
X-100.763 Y30.359
X-101 Y30.193
X-101.229 Y30.002
X-101.453 Y29.784
X-101.668 Y29.537
X-101.873 Y29.26
X-102.059 Y28.961
X-102.218 Y28.653
X-102.349 Y28.34
X-102.453 Y28.022
X-102.525 Y27.723
X-102.574 Y27.407
X-102.595 Y27.122
X-102.594 Y26.817
X-102.57 Y26.539
X-102.548 Y26.411
X-102.47 Y26.125
X-102.336 Y25.86
X-102.152 Y25.627
X-101.926 Y25.435
X-101.666 Y25.293
X-101.382 Y25.205
X-101.087 Y25.175
X-99.407
G3 X-98.788 Y25.8 I-0.016 J0.635
G1 X-98.721 Y30.181
G3 X-99.334 Y30.825 I-0.635 J0.01
G1 X-101.218
X-101.367 Y30.817
X-101.539 Y30.792
X-101.729 Y30.748
X-101.93 Y30.684
X-102.136 Y30.599
X-102.357 Y30.487
X-102.575 Y30.353
X-102.797 Y30.192
X-103.019 Y30
X-103.234 Y29.783
X-103.437 Y29.541
X-103.628 Y29.274
X-103.804 Y28.979
X-103.961 Y28.662
X-104.086 Y28.346
X-104.188 Y28.014
X-104.257 Y27.703
X-104.301 Y27.387
X-104.318 Y27.084
X-104.311 Y26.789
X-104.28 Y26.495
X-104.26 Y26.385
X-104.178 Y26.104
X-104.042 Y25.844
X-103.858 Y25.616
X-103.633 Y25.429
X-103.375 Y25.29
X-103.095 Y25.204
X-102.803 Y25.175
X-101.087
G3 X-100.474 Y25.829 I-0.022 J0.635
G1 X-100.605 Y30.209
G3 X-101.218 Y30.825 I-0.635 J-0.019
G1 X-102.901
X-103.099 Y30.815
X-103.261 Y30.794
X-103.445 Y30.755
X-103.632 Y30.698
X-103.836 Y30.619
X-104.047 Y30.517
X-104.258 Y30.392
X-104.48 Y30.236
X-104.698 Y30.056
X-104.908 Y29.851
X-105.114 Y29.615
X-105.31 Y29.35
X-105.489 Y29.062
X-105.648 Y28.753
X-105.784 Y28.429
X-105.888 Y28.109
X-105.967 Y27.78
X-106.015 Y27.474
X-106.039 Y27.156
X-106.037 Y26.867
X-106.011 Y26.563
X-105.985 Y26.411
X-105.907 Y26.125
X-105.773 Y25.86
X-105.59 Y25.627
X-105.363 Y25.435
X-105.103 Y25.293
X-104.819 Y25.205
X-104.524 Y25.175
X-102.803
G3 X-102.19 Y25.824 I-0.022 J0.635
G1 X-102.288 Y30.205
G3 X-102.901 Y30.825 I-0.635 J-0.014
G1 X-104.684
X-104.834 Y30.817
X-105 Y30.795
X-105.178 Y30.757
X-105.371 Y30.698
X-105.568 Y30.621
X-105.781 Y30.516
X-105.994 Y30.391
X-106.209 Y30.238
X-106.43 Y30.054
X-106.642 Y29.846
X-106.844 Y29.613
X-107.037 Y29.35
X-107.216 Y29.061
X-107.376 Y28.747
X-107.509 Y28.426
X-107.615 Y28.098
X-107.692 Y27.775
X-107.74 Y27.463
X-107.762 Y27.149
X-107.76 Y26.858
X-107.757 Y26.833
X-107.693 Y26.515
X-107.562 Y26.219
X-107.369 Y25.958
X-107.124 Y25.746
G3 X-106.22 Y25.983 I0.342 J0.535
G1 X-104.146 Y29.893
G3 X-104.684 Y30.825 I-0.561 J0.298
G1 X-105.231
X-105.454 Y30.801
X-105.899 Y30.749
X-106.122 Y30.721
X-106.234 Y30.692
X-106.66 Y30.531
X-106.791 Y30.477
X-107.014 Y30.33
X-107.237 Y30.176
X-107.357 Y30.085
X-107.46 Y29.976
X-107.757 Y29.64
X-107.8 Y29.584
X-107.835 Y29.528
X-108.01 Y29.194
X-108.119 Y28.971
X-108.129 Y28.94
X-108.232 Y28.525
X-108.276 Y28.302
X-108.278 Y28.08
Y27.857
X-108.269 Y27.634
X-108.216 Y27.411
X-108.129 Y27.061
X-108.092 Y26.965
X-107.977 Y26.742
X-107.86 Y26.52
X-107.794 Y26.408
X-107.702 Y26.297
X-107.46 Y26.024
X-107.368 Y25.925
X-107.276 Y25.851
X-106.954 Y25.628
X-106.791 Y25.523
X-106.568 Y25.434
X-106.234 Y25.308
X-106.178 Y25.29
X-106.122 Y25.278
X-105.899 Y25.251
X-105.31 Y25.182
X-105.231 Y25.175
X-104.524
X-104.47 Y25.187 Z-5.494
X-104.419 Y25.198 Z-5.475
X-104.373 Y25.207 Z-5.445
X-104.335 Y25.216 Z-5.406
X-104.306 Y25.222 Z-5.359
X-104.289 Y25.229 Z-5.306
X-104.283 Y25.232 Z-5.251
G0 Z5
X-95.953 Y23.647
Z-4.865
G1 Z-5.5 F1016
G3 X-95.867 Y23.415 I0.627 J0.101
G1 X-95.857 Y23.4
X-95.735 Y23.177
X-95.644 Y22.989
X-95.539 Y22.731
X-95.421 Y22.328
X-95.411 Y22.285
X-95.4 Y22.218
X-95.368 Y22.071
X-95.321 Y21.928
X-95.257 Y21.774
X-95.174 Y21.614
X-95.067 Y21.443
X-94.941 Y21.274
X-94.785 Y21.096
X-94.609 Y20.924
X-94.403 Y20.754
X-94.164 Y20.587
X-93.906 Y20.435
X-93.617 Y20.295
X-93.294 Y20.171
X-92.95 Y20.068
X-92.588 Y19.991
X-92.199 Y19.941
X-91.788 Y19.921
X-91.374 Y19.935
X-90.967 Y19.98
X-90.902 Y19.993
X-90.584 Y20.093
X-90.295 Y20.259
X-90.049 Y20.484
X-89.858 Y20.757
X-89.732 Y21.065
X-89.675 Y21.394
X-89.661 Y21.617
X-89.643 Y21.84
G3 X-89.681 Y22.085 I-0.634 J0.029
X-90.217 Y22.501 I-0.597 J-0.216
G1 X-94.71 Y22.931
G3 X-95.4 Y22.218 I-0.061 J-0.632
G1 X-95.375 Y22.063
X-95.339 Y21.617
X-95.325 Y21.394
Y21.049
X-95.317 Y20.881
X-95.297 Y20.732
X-95.263 Y20.579
X-95.215 Y20.42
X-95.145 Y20.244
X-95.058 Y20.067
X-94.943 Y19.876
X-94.808 Y19.685
X-94.645 Y19.491
X-94.449 Y19.293
X-94.231 Y19.105
X-93.974 Y18.918
X-93.685 Y18.74
X-93.373 Y18.581
X-93.023 Y18.438
X-92.696 Y18.333
X-92.345 Y18.251
X-92.031 Y18.204
X-91.703 Y18.181
X-91.395 Y18.185
X-91.102 Y18.212
X-90.8 Y18.265
X-90.786 Y18.268
X-90.482 Y18.384
X-90.211 Y18.562
X-89.985 Y18.796
X-89.816 Y19.073
X-89.711 Y19.38
X-89.675 Y19.703
Y21.394
G3 X-90.36 Y22.005 I-0.635 J-0.022
G1 X-94.74 Y21.659
G3 X-95.325 Y21.049 I0.05 J-0.633
G1 Y19.489
X-95.317 Y19.321
X-95.296 Y19.161
X-95.26 Y18.997
X-95.205 Y18.811
X-95.132 Y18.624
X-95.033 Y18.42
X-94.911 Y18.213
X-94.765 Y18.005
X-94.586 Y17.789
X-94.383 Y17.581
X-94.155 Y17.382
X-93.895 Y17.19
X-93.608 Y17.011
X-93.299 Y16.852
X-92.97 Y16.714
X-92.638 Y16.606
X-92.316 Y16.529
X-91.988 Y16.478
X-91.689 Y16.455
X-91.371 Y16.457
X-91.087 Y16.482
X-90.911 Y16.511
X-90.625 Y16.589
X-90.36 Y16.723
X-90.127 Y16.907
X-89.935 Y17.133
X-89.793 Y17.394
X-89.705 Y17.677
X-89.675 Y17.972
Y19.703
G3 X-90.341 Y20.315 I-0.635 J-0.022
G1 X-94.721 Y20.101
G3 X-95.325 Y19.489 I0.031 J-0.634
G1 Y17.828
X-95.316 Y17.642
X-95.294 Y17.478
X-95.257 Y17.305
X-95.2 Y17.114
X-95.125 Y16.921
X-95.023 Y16.711
X-94.899 Y16.501
X-94.749 Y16.287
X-94.568 Y16.069
X-94.362 Y15.858
X-94.13 Y15.656
X-93.871 Y15.464
X-93.581 Y15.284
X-93.27 Y15.123
X-92.949 Y14.989
X-92.621 Y14.882
X-92.294 Y14.803
X-91.982 Y14.755
X-91.665 Y14.731
X-91.374 Y14.733
X-91.069 Y14.759
X-90.795 Y14.805
X-90.489 Y14.919
X-90.216 Y15.097
X-89.988 Y15.331
X-89.817 Y15.609
X-89.711 Y15.918
X-89.675 Y16.242
Y17.972
G3 X-90.33 Y18.585 I-0.635 J-0.022
G1 X-94.711 Y18.441
G3 X-95.325 Y17.828 I0.021 J-0.635
G1 Y16.045
X-95.317 Y15.896
X-95.292 Y15.724
X-95.25 Y15.548
X-95.187 Y15.351
X-95.105 Y15.154
X-94.997 Y14.943
X-94.864 Y14.726
X-94.708 Y14.513
X-94.52 Y14.295
X-94.303 Y14.082
X-94.063 Y13.881
X-93.797 Y13.693
X-93.505 Y13.519
X-93.187 Y13.363
X-92.849 Y13.23
X-92.536 Y13.134
X-92.204 Y13.062
X-91.894 Y13.02
X-91.59 Y13.003
X-91.283 Y13.011
X-91.007 Y13.041
X-90.882 Y13.064
X-90.601 Y13.147
X-90.342 Y13.283
X-90.115 Y13.467
X-89.928 Y13.692
X-89.789 Y13.95
X-89.704 Y14.229
X-89.675 Y14.52
Y16.242
G3 X-90.338 Y16.854 I-0.635 J-0.022
G1 X-94.719 Y16.658
G3 X-95.325 Y16.045 I0.028 J-0.634
G1 Y14.363
X-95.317 Y14.208
X-95.296 Y14.048
X-95.257 Y13.866
X-95.202 Y13.681
X-95.124 Y13.48
X-95.022 Y13.27
X-94.898 Y13.059
X-94.743 Y12.839
X-94.563 Y12.622
X-94.358 Y12.412
X-94.123 Y12.207
X-93.859 Y12.011
X-93.571 Y11.832
X-93.262 Y11.673
X-92.938 Y11.538
X-92.618 Y11.433
X-92.286 Y11.353
X-91.98 Y11.306
X-91.66 Y11.282
X-91.371 Y11.283
X-91.066 Y11.31
X-90.911 Y11.336
X-90.625 Y11.414
X-90.36 Y11.548
X-90.127 Y11.732
X-89.935 Y11.958
X-89.793 Y12.218
X-89.705 Y12.502
X-89.675 Y12.797
Y14.52
G3 X-90.332 Y15.133 I-0.635 J-0.022
G1 X-94.713 Y14.975
G3 X-95.325 Y14.363 I0.023 J-0.635
G1 Y12.703
X-95.314 Y12.485
X-95.293 Y12.32
X-95.255 Y12.144
X-95.197 Y11.951
X-95.121 Y11.756
X-95.018 Y11.544
X-94.894 Y11.332
X-94.743 Y11.118
X-94.56 Y10.898
X-94.353 Y10.686
X-94.122 Y10.484
X-93.86 Y10.29
X-93.572 Y10.111
X-93.26 Y9.95
X-92.939 Y9.816
X-92.612 Y9.709
X-92.287 Y9.631
X-91.976 Y9.582
X-91.661 Y9.559
X-91.37 Y9.561
X-91.066 Y9.587
X-90.911 Y9.613
X-90.625 Y9.691
X-90.36 Y9.825
X-90.127 Y10.008
X-89.935 Y10.235
X-89.793 Y10.495
X-89.705 Y10.779
X-89.675 Y11.074
Y12.797
G3 X-90.323 Y13.41 I-0.635 J-0.022
G1 X-94.704 Y13.315
G3 X-95.325 Y12.703 I0.014 J-0.635
G1 Y10.92
X-95.317 Y10.764
X-95.296 Y10.6
X-95.258 Y10.423
X-95.2 Y10.231
X-95.124 Y10.035
X-95.021 Y9.823
X-94.896 Y9.611
X-94.745 Y9.395
X-94.562 Y9.175
X-94.355 Y8.963
X-94.124 Y8.761
X-93.861 Y8.567
X-93.573 Y8.388
X-93.261 Y8.227
X-92.94 Y8.092
X-92.613 Y7.986
X-92.287 Y7.908
X-91.977 Y7.859
X-91.661 Y7.836
X-91.37 Y7.837
X-91.066 Y7.863
X-90.911 Y7.889
X-90.625 Y7.968
X-90.36 Y8.101
X-90.127 Y8.285
X-89.935 Y8.512
X-89.793 Y8.772
X-89.705 Y9.055
X-89.675 Y9.351
Y11.074
G3 X-90.332 Y11.686 I-0.635 J-0.022
G1 X-94.713 Y11.532
G3 X-95.325 Y10.92 I0.022 J-0.635
G1 Y9.137
X-95.317 Y8.987
X-95.289 Y8.813
X-95.246 Y8.635
X-95.18 Y8.436
X-95.095 Y8.236
X-94.984 Y8.025
X-94.846 Y7.806
X-94.686 Y7.592
X-94.496 Y7.376
X-94.275 Y7.163
X-94.03 Y6.962
X-93.761 Y6.775
X-93.467 Y6.604
X-93.147 Y6.451
X-92.826 Y6.328
X-92.488 Y6.228
X-92.177 Y6.164
X-91.855 Y6.123
X-91.554 Y6.11
X-91.254 Y6.12
X-90.963 Y6.154
X-90.868 Y6.173
X-90.59 Y6.258
X-90.333 Y6.394
X-90.109 Y6.579
X-89.925 Y6.803
X-89.788 Y7.059
X-89.703 Y7.337
X-89.675 Y7.626
Y9.351
G3 X-90.341 Y9.963 I-0.635 J-0.022
G1 X-94.721 Y9.749
G3 X-95.325 Y9.137 I0.031 J-0.634
G1 Y7.454
X-95.317 Y7.305
X-95.296 Y7.143
X-95.256 Y6.96
X-95.199 Y6.775
X-95.119 Y6.571
X-95.017 Y6.364
X-94.891 Y6.153
X-94.734 Y5.931
X-94.554 Y5.717
X-94.347 Y5.507
X-94.109 Y5.301
X-93.843 Y5.106
X-93.556 Y4.929
X-93.246 Y4.772
X-92.918 Y4.636
X-92.599 Y4.534
X-92.267 Y4.456
X-91.962 Y4.41
X-91.642 Y4.387
X-91.353 Y4.39
X-91.049 Y4.418
X-90.904 Y4.443
X-90.619 Y4.522
X-90.356 Y4.656
X-90.124 Y4.84
X-89.934 Y5.067
X-89.792 Y5.326
X-89.705 Y5.609
X-89.675 Y5.903
Y7.626
G3 X-90.335 Y8.239 I-0.635 J-0.022
G1 X-94.715 Y8.067
G3 X-95.325 Y7.454 I0.025 J-0.635
G1 Y5.794
X-95.315 Y5.59
X-95.293 Y5.427
X-95.255 Y5.249
X-95.198 Y5.058
X-95.122 Y4.862
X-95.019 Y4.65
X-94.895 Y4.439
X-94.743 Y4.223
X-94.561 Y4.003
X-94.355 Y3.793
X-94.123 Y3.59
X-93.86 Y3.396
X-93.572 Y3.216
X-93.261 Y3.056
X-92.939 Y2.921
X-92.614 Y2.815
X-92.287 Y2.737
X-91.977 Y2.688
X-91.661 Y2.665
X-91.37 Y2.666
X-91.066 Y2.693
X-90.911 Y2.719
X-90.625 Y2.797
X-90.36 Y2.931
X-90.127 Y3.114
X-89.935 Y3.341
X-89.793 Y3.601
X-89.705 Y3.885
X-89.675 Y4.18
Y5.903
G3 X-90.325 Y6.516 I-0.635 J-0.022
G1 X-94.706 Y6.407
G3 X-95.325 Y5.794 I0.016 J-0.635
G1 Y4.011
X-95.317 Y3.862
X-95.295 Y3.695
X-95.256 Y3.519
X-95.197 Y3.325
X-95.119 Y3.128
X-95.015 Y2.916
X-94.888 Y2.703
X-94.736 Y2.488
X-94.551 Y2.268
X-94.342 Y2.056
X-94.109 Y1.854
X-93.845 Y1.662
X-93.556 Y1.484
X-93.242 Y1.323
X-92.921 Y1.191
X-92.592 Y1.085
X-92.269 Y1.01
X-91.956 Y0.963
X-91.643 Y0.941
X-91.351 Y0.944
X-91.048 Y0.971
X-90.904 Y0.996
X-90.619 Y1.076
X-90.356 Y1.21
X-90.124 Y1.394
X-89.934 Y1.62
X-89.792 Y1.88
X-89.705 Y2.162
X-89.675 Y2.456
Y4.18
G3 X-90.334 Y4.792 I-0.635 J-0.022
G1 X-94.715 Y4.624
G3 X-95.325 Y4.011 I0.024 J-0.635
G1 Y2.329
X-95.316 Y2.144
X-95.294 Y1.982
X-95.256 Y1.804
X-95.199 Y1.613
X-95.123 Y1.416
X-95.02 Y1.204
X-94.896 Y0.994
X-94.743 Y0.777
X-94.561 Y0.557
X-94.355 Y0.346
X-94.123 Y0.144
X-93.86 Y-0.051
X-93.572 Y-0.23
X-93.261 Y-0.391
X-92.939 Y-0.525
X-92.614 Y-0.631
X-92.287 Y-0.71
X-91.978 Y-0.758
X-91.661 Y-0.782
X-91.37 Y-0.78
X-91.066 Y-0.754
X-90.911 Y-0.728
X-90.625 Y-0.65
X-90.36 Y-0.516
X-90.127 Y-0.332
X-89.935 Y-0.106
X-89.793 Y0.155
X-89.705 Y0.438
X-89.675 Y0.733
Y2.456
G3 X-90.328 Y3.069 I-0.635 J-0.022
G1 X-94.709 Y2.941
G3 X-95.325 Y2.329 I0.018 J-0.635
G1 Y0.546
X-95.317 Y0.396
X-95.293 Y0.226
X-95.252 Y0.049
X-95.19 Y-0.147
X-95.109 Y-0.345
X-95.002 Y-0.557
X-94.87 Y-0.773
X-94.715 Y-0.986
X-94.528 Y-1.205
X-94.314 Y-1.418
X-94.076 Y-1.619
X-93.811 Y-1.809
X-93.519 Y-1.984
X-93.202 Y-2.142
X-92.881 Y-2.27
X-92.548 Y-2.373
X-92.23 Y-2.444
X-91.913 Y-2.489
X-91.605 Y-2.507
X-91.31 Y-2.501
X-91.012 Y-2.47
X-90.889 Y-2.448
X-90.607 Y-2.366
X-90.346 Y-2.231
X-90.118 Y-2.047
X-89.93 Y-1.821
X-89.79 Y-1.563
X-89.704 Y-1.283
X-89.675 Y-0.99
Y0.733
G3 X-90.337 Y1.345 I-0.635 J-0.022
G1 X-94.717 Y1.158
G3 X-95.325 Y0.546 I0.027 J-0.634
G1 Y-1.114
X-95.315 Y-1.304
X-95.294 Y-1.465
X-95.256 Y-1.645
X-95.2 Y-1.832
X-95.122 Y-2.032
X-95.02 Y-2.243
X-94.897 Y-2.452
X-94.742 Y-2.672
X-94.562 Y-2.889
X-94.357 Y-3.099
X-94.123 Y-3.303
X-93.859 Y-3.499
X-93.571 Y-3.678
X-93.262 Y-3.837
X-92.938 Y-3.973
X-92.616 Y-4.078
X-92.286 Y-4.157
X-91.979 Y-4.205
X-91.66 Y-4.229
X-91.37 Y-4.227
X-91.066 Y-4.201
X-90.911 Y-4.175
X-90.625 Y-4.097
X-90.36 Y-3.963
X-90.127 Y-3.779
X-89.935 Y-3.553
X-89.793 Y-3.292
X-89.705 Y-3.009
X-89.675 Y-2.714
Y-0.99
G3 X-90.328 Y-0.378 I-0.635 J-0.022
G1 X-94.708 Y-0.502
G3 X-95.325 Y-1.114 I0.018 J-0.635
G1 Y-2.897
X-95.317 Y-3.047
X-95.293 Y-3.216
X-95.253 Y-3.393
X-95.191 Y-3.589
X-95.111 Y-3.786
X-95.005 Y-3.999
X-94.874 Y-4.214
X-94.72 Y-4.427
X-94.533 Y-4.646
X-94.32 Y-4.859
X-94.083 Y-5.06
X-93.818 Y-5.251
X-93.527 Y-5.427
X-93.21 Y-5.585
X-92.889 Y-5.714
X-92.557 Y-5.818
X-92.238 Y-5.89
X-91.922 Y-5.935
X-91.613 Y-5.954
X-91.318 Y-5.948
X-91.02 Y-5.918
X-90.892 Y-5.895
X-90.609 Y-5.814
X-90.348 Y-5.679
X-90.119 Y-5.495
X-89.931 Y-5.269
X-89.79 Y-5.011
X-89.704 Y-4.73
X-89.675 Y-4.437
Y-2.714
G3 X-90.336 Y-2.101 I-0.635 J-0.022
G1 X-94.717 Y-2.285
G3 X-95.325 Y-2.897 I0.027 J-0.634
G1 Y-4.58
X-95.316 Y-4.75
X-95.295 Y-4.911
X-95.257 Y-5.091
X-95.201 Y-5.279
X-95.123 Y-5.478
X-95.021 Y-5.689
X-94.897 Y-5.899
X-94.743 Y-6.118
X-94.562 Y-6.336
X-94.358 Y-6.546
X-94.123 Y-6.75
X-93.86 Y-6.945
X-93.571 Y-7.125
X-93.262 Y-7.284
X-92.938 Y-7.42
X-92.616 Y-7.525
X-92.286 Y-7.604
X-91.979 Y-7.652
X-91.66 Y-7.676
X-91.371 Y-7.674
X-91.066 Y-7.648
X-90.911 Y-7.622
X-90.625 Y-7.544
X-90.36 Y-7.41
X-90.127 Y-7.226
X-89.935 Y-7
X-89.793 Y-6.739
X-89.705 Y-6.456
X-89.675 Y-6.161
Y-4.437
G3 X-90.33 Y-3.825 I-0.635 J-0.022
G1 X-94.711 Y-3.967
G3 X-95.325 Y-4.58 I0.021 J-0.635
G1 Y-6.24
X-95.313 Y-6.473
X-95.292 Y-6.637
X-95.254 Y-6.814
X-95.196 Y-7.006
X-95.12 Y-7.202
X-95.017 Y-7.414
X-94.893 Y-7.625
X-94.742 Y-7.84
X-94.559 Y-8.06
X-94.353 Y-8.272
X-94.121 Y-8.474
X-93.859 Y-8.667
X-93.571 Y-8.847
X-93.26 Y-9.008
X-92.939 Y-9.142
X-92.612 Y-9.249
X-92.287 Y-9.326
X-91.976 Y-9.375
X-91.661 Y-9.399
X-91.369 Y-9.397
X-91.066 Y-9.371
X-90.911 Y-9.345
X-90.625 Y-9.267
X-90.36 Y-9.133
X-90.127 Y-8.949
X-89.935 Y-8.722
X-89.793 Y-8.462
X-89.705 Y-8.179
X-89.675 Y-7.884
Y-6.161
G3 X-90.321 Y-5.548 I-0.635 J-0.022
G1 X-94.702 Y-5.627
G3 X-95.325 Y-6.24 I0.011 J-0.635
G1 Y-8.023
X-95.316 Y-8.193
X-95.295 Y-8.357
X-95.257 Y-8.534
X-95.199 Y-8.727
X-95.123 Y-8.923
X-95.02 Y-9.135
X-94.896 Y-9.346
X-94.744 Y-9.562
X-94.561 Y-9.782
X-94.355 Y-9.994
X-94.123 Y-10.196
X-93.861 Y-10.39
X-93.572 Y-10.57
X-93.26 Y-10.731
X-92.939 Y-10.865
X-92.612 Y-10.972
X-92.287 Y-11.05
X-91.976 Y-11.098
X-91.661 Y-11.122
X-91.37 Y-11.12
X-91.066 Y-11.094
X-90.911 Y-11.068
X-90.625 Y-10.99
X-90.36 Y-10.856
X-90.127 Y-10.672
X-89.935 Y-10.446
X-89.793 Y-10.185
X-89.705 Y-9.902
X-89.675 Y-9.607
Y-7.884
G3 X-90.33 Y-7.271 I-0.635 J-0.022
G1 X-94.711 Y-7.41
G3 X-95.325 Y-8.023 I0.02 J-0.635
G1 Y-9.806
X-95.317 Y-9.955
X-95.291 Y-10.127
X-95.249 Y-10.305
X-95.185 Y-10.502
X-95.103 Y-10.701
X-94.994 Y-10.913
X-94.86 Y-11.13
X-94.702 Y-11.344
X-94.514 Y-11.561
X-94.296 Y-11.775
X-94.055 Y-11.976
X-93.788 Y-12.164
X-93.496 Y-12.337
X-93.177 Y-12.493
X-92.856 Y-12.619
X-92.52 Y-12.72
X-92.206 Y-12.789
X-91.887 Y-12.831
X-91.582 Y-12.847
X-91.284 Y-12.839
X-90.99 Y-12.807
X-90.879 Y-12.786
X-90.599 Y-12.703
X-90.34 Y-12.567
X-90.114 Y-12.383
X-89.928 Y-12.158
X-89.789 Y-11.901
X-89.704 Y-11.621
X-89.675 Y-11.331
Y-9.607
G3 X-90.338 Y-8.995 I-0.635 J-0.022
G1 X-94.719 Y-9.193
G3 X-95.325 Y-9.806 I0.029 J-0.634
G1 Y-11.488
X-95.317 Y-11.644
X-95.296 Y-11.804
X-95.257 Y-11.986
X-95.202 Y-12.171
X-95.123 Y-12.373
X-95.022 Y-12.581
X-94.898 Y-12.792
X-94.743 Y-13.012
X-94.564 Y-13.228
X-94.359 Y-13.438
X-94.123 Y-13.644
X-93.859 Y-13.839
X-93.572 Y-14.018
X-93.264 Y-14.177
X-92.938 Y-14.313
X-92.618 Y-14.418
X-92.286 Y-14.497
X-91.98 Y-14.545
X-91.66 Y-14.569
X-91.371 Y-14.567
X-91.066 Y-14.541
X-90.911 Y-14.515
X-90.625 Y-14.437
X-90.36 Y-14.303
X-90.127 Y-14.119
X-89.935 Y-13.893
X-89.793 Y-13.633
X-89.705 Y-13.349
X-89.675 Y-13.054
Y-11.331
G3 X-90.332 Y-10.718 I-0.635 J-0.022
G1 X-94.713 Y-10.876
G3 X-95.325 Y-11.488 I0.023 J-0.635
G1 Y-13.148
X-95.314 Y-13.366
X-95.293 Y-13.531
X-95.255 Y-13.707
X-95.197 Y-13.899
X-95.121 Y-14.095
X-95.018 Y-14.307
X-94.894 Y-14.518
X-94.743 Y-14.733
X-94.56 Y-14.953
X-94.353 Y-15.165
X-94.122 Y-15.367
X-93.86 Y-15.561
X-93.572 Y-15.74
X-93.26 Y-15.901
X-92.939 Y-16.035
X-92.612 Y-16.142
X-92.287 Y-16.22
X-91.976 Y-16.268
X-91.661 Y-16.292
X-91.37 Y-16.29
X-91.066 Y-16.264
X-90.911 Y-16.238
X-90.625 Y-16.16
X-90.36 Y-16.026
X-90.127 Y-15.842
X-89.935 Y-15.616
X-89.793 Y-15.356
X-89.705 Y-15.072
X-89.675 Y-14.777
Y-13.054
G3 X-90.323 Y-12.441 I-0.635 J-0.022
G1 X-94.704 Y-12.536
G3 X-95.325 Y-13.148 I0.014 J-0.635
G1 Y-14.931
X-95.317 Y-15.086
X-95.296 Y-15.251
X-95.258 Y-15.427
X-95.2 Y-15.62
X-95.124 Y-15.816
X-95.021 Y-16.028
X-94.896 Y-16.24
X-94.745 Y-16.455
X-94.562 Y-16.676
X-94.355 Y-16.887
X-94.124 Y-17.09
X-93.861 Y-17.284
X-93.573 Y-17.463
X-93.261 Y-17.624
X-92.94 Y-17.758
X-92.613 Y-17.865
X-92.287 Y-17.943
X-91.977 Y-17.992
X-91.661 Y-18.015
X-91.37 Y-18.014
X-91.066 Y-17.987
X-90.911 Y-17.961
X-90.625 Y-17.883
X-90.36 Y-17.749
X-90.127 Y-17.566
X-89.935 Y-17.339
X-89.793 Y-17.079
X-89.705 Y-16.795
X-89.675 Y-16.5
Y-14.777
G3 X-90.332 Y-14.165 I-0.635 J-0.022
G1 X-94.713 Y-14.319
G3 X-95.325 Y-14.931 I0.022 J-0.635
G1 Y-16.714
X-95.317 Y-16.864
X-95.289 Y-17.038
X-95.246 Y-17.216
X-95.18 Y-17.415
X-95.094 Y-17.615
X-94.984 Y-17.826
X-94.846 Y-18.045
X-94.686 Y-18.259
X-94.495 Y-18.475
X-94.275 Y-18.688
X-94.03 Y-18.889
X-93.761 Y-19.076
X-93.466 Y-19.247
X-93.146 Y-19.4
X-92.825 Y-19.523
X-92.488 Y-19.623
X-92.177 Y-19.687
X-91.855 Y-19.728
X-91.554 Y-19.741
X-91.253 Y-19.73
X-90.962 Y-19.697
X-90.952 Y-19.694
X-90.649 Y-19.6
X-90.374 Y-19.442
X-90.138 Y-19.23
X-89.953 Y-18.973
X-89.827 Y-18.682
X-89.765 Y-18.37
X-89.718 Y-17.828
X-89.701 Y-17.605
X-89.68 Y-17.16
X-89.675 Y-16.937
Y-16.5
G3 X-90.341 Y-15.888 I-0.635 J-0.022
G1 X-94.721 Y-16.102
G3 X-95.325 Y-16.714 I0.031 J-0.634
G1 Y-16.937
X-95.327 Y-17.16
X-95.332 Y-17.605
X-95.348 Y-17.828
X-95.381 Y-18.051
X-95.397 Y-18.216
X-95.399 Y-18.366
X-95.388 Y-18.526
X-95.362 Y-18.696
X-95.318 Y-18.885
X-95.257 Y-19.077
X-95.17 Y-19.288
X-95.062 Y-19.5
X-94.928 Y-19.717
X-94.763 Y-19.943
X-94.575 Y-20.162
X-94.36 Y-20.374
X-94.113 Y-20.581
X-93.839 Y-20.777
X-93.541 Y-20.954
X-93.223 Y-21.11
X-92.899 Y-21.239
X-92.584 Y-21.335
X-92.262 Y-21.406
X-91.966 Y-21.447
X-91.649 Y-21.464
X-91.56 Y-21.462
X-91.246 Y-21.421
X-90.948 Y-21.313
X-90.68 Y-21.145
X-90.453 Y-20.924
X-90.279 Y-20.66
X-90.165 Y-20.364
X-89.963 Y-19.611
X-89.904 Y-19.388
X-89.87 Y-19.165
X-89.804 Y-18.72
X-89.776 Y-18.497
X-89.765 Y-18.37
G3 X-90.374 Y-17.703 I-0.634 J0.033
G1 X-94.731 Y-17.53
G3 X-95.381 Y-18.051 I-0.025 J-0.635
G1 X-95.421 Y-18.326
X-95.467 Y-18.497
X-95.536 Y-18.72
X-95.644 Y-18.996
X-95.658 Y-19.024
X-95.719 Y-19.161
X-95.762 Y-19.305
X-95.79 Y-19.452
X-95.807 Y-19.609
X-95.811 Y-19.774
X-95.8 Y-19.962
X-95.773 Y-20.157
X-95.727 Y-20.368
X-95.658 Y-20.593
X-95.568 Y-20.821
X-95.448 Y-21.063
X-95.302 Y-21.309
X-95.13 Y-21.55
X-94.926 Y-21.793
X-94.689 Y-22.032
X-94.428 Y-22.257
X-94.142 Y-22.466
X-93.835 Y-22.655
X-93.534 Y-22.808
X-93.212 Y-22.94
X-92.919 Y-23.034
X-92.731 Y-23.077
X-92.421 Y-23.116
X-92.109 Y-23.088
X-91.81 Y-22.996
X-91.537 Y-22.843
X-91.302 Y-22.635
X-91.116 Y-22.384
X-90.798 Y-21.84
X-90.739 Y-21.732
X-90.27 Y-20.725
X-90.202 Y-20.503
X-90.165 Y-20.364
G3 X-90.157 Y-20.117 I-0.619 J0.143
X-90.655 Y-19.6 I-0.626 J-0.105
G1 X-94.973 Y-18.708
G3 X-95.658 Y-19.024 I-0.128 J-0.622
G1 X-95.73 Y-19.165
X-95.852 Y-19.388
X-95.994 Y-19.611
X-96.09 Y-19.739
X-96.168 Y-19.834
X-96.26 Y-19.953
X-96.335 Y-20.083
X-96.397 Y-20.219
X-96.446 Y-20.361
X-96.488 Y-20.523
X-96.519 Y-20.695
X-96.537 Y-20.891
X-96.54 Y-21.099
X-96.525 Y-21.323
X-96.489 Y-21.567
X-96.432 Y-21.815
X-96.347 Y-22.08
X-96.234 Y-22.357
X-96.095 Y-22.631
X-95.925 Y-22.91
X-95.72 Y-23.191
X-95.486 Y-23.464
X-95.231 Y-23.716
X-94.963 Y-23.943
X-94.679 Y-24.146
X-94.408 Y-24.308
X-94.113 Y-24.454
X-94.107 Y-24.457
X-93.831 Y-24.537
X-93.545 Y-24.562
X-93.259 Y-24.532
X-92.985 Y-24.447
X-92.732 Y-24.31
X-92.51 Y-24.128
X-92.005 Y-23.623
X-91.854 Y-23.464
X-91.808 Y-23.4
X-91.34 Y-22.731
X-91.189 Y-22.508
X-91.116 Y-22.384
G3 X-91.414 Y-21.503 I-0.559 J0.302
G1 X-95.439 Y-19.685
G3 X-96.168 Y-19.834 I-0.261 J-0.579
G1 X-96.313 Y-20.003
X-96.536 Y-20.222
X-96.597 Y-20.28
X-96.759 Y-20.407
X-96.831 Y-20.459
X-96.948 Y-20.553
X-97.052 Y-20.661
X-97.145 Y-20.779
X-97.227 Y-20.905
X-97.305 Y-21.05
X-97.374 Y-21.207
X-97.438 Y-21.39
X-97.488 Y-21.587
X-97.526 Y-21.804
X-97.549 Y-22.045
X-97.551 Y-22.295
X-97.533 Y-22.57
X-97.489 Y-22.861
X-97.42 Y-23.157
X-97.321 Y-23.467
X-97.189 Y-23.787
X-97.028 Y-24.105
X-96.836 Y-24.417
X-96.622 Y-24.71
X-96.397 Y-24.972
X-96.161 Y-25.204
X-95.917 Y-25.409
X-95.896 Y-25.425
X-95.639 Y-25.571
X-95.358 Y-25.664
X-95.064 Y-25.699
X-94.769 Y-25.675
X-94.485 Y-25.593
X-94.223 Y-25.456
X-93.807 Y-25.182
X-93.637 Y-25.068
X-93.164 Y-24.737
X-92.969 Y-24.586
X-92.51 Y-24.128
G3 X-92.586 Y-23.193 I-0.464 J0.433
G1 X-96.088 Y-20.484
G3 X-96.831 Y-20.459 I-0.389 J-0.502
G1 X-96.982 Y-20.568
X-97.247 Y-20.725
X-97.427 Y-20.818
X-97.65 Y-20.914
X-97.788 Y-20.973
X-97.913 Y-21.056
X-98.029 Y-21.152
X-98.136 Y-21.257
X-98.245 Y-21.384
X-98.349 Y-21.526
X-98.45 Y-21.69
X-98.546 Y-21.879
X-98.63 Y-22.082
X-98.705 Y-22.315
X-98.764 Y-22.567
X-98.804 Y-22.837
X-98.825 Y-23.135
X-98.822 Y-23.447
X-98.792 Y-23.772
X-98.733 Y-24.114
X-98.642 Y-24.467
X-98.52 Y-24.82
X-98.379 Y-25.143
X-98.212 Y-25.453
X-98.037 Y-25.725
X-97.928 Y-25.867
X-97.729 Y-26.08
X-97.493 Y-26.249
X-97.228 Y-26.369
X-96.945 Y-26.435
X-96.655 Y-26.445
X-96.368 Y-26.398
X-95.867 Y-26.263
X-95.644 Y-26.169
X-94.529 Y-25.65
X-94.488 Y-25.628
X-94.223 Y-25.456
G3 X-94.103 Y-24.529 I-0.367 J0.518
G1 X-96.972 Y-21.111
G3 X-97.65 Y-20.914 I-0.486 J-0.408
G1 X-97.873 Y-20.993
X-98.096 Y-21.058
X-98.319 Y-21.109
X-98.442 Y-21.128
X-98.59 Y-21.159
X-98.734 Y-21.201
X-98.872 Y-21.259
X-99.004 Y-21.33
X-99.131 Y-21.412
X-99.268 Y-21.517
X-99.403 Y-21.639
X-99.538 Y-21.783
X-99.674 Y-21.953
X-99.8 Y-22.14
X-99.923 Y-22.357
X-100.035 Y-22.599
X-100.131 Y-22.86
X-100.213 Y-23.155
X-100.275 Y-23.47
X-100.312 Y-23.8
X-100.323 Y-24.151
X-100.305 Y-24.518
X-100.259 Y-24.875
X-100.183 Y-25.231
X-100.089 Y-25.546
X-99.968 Y-25.858
X-99.932 Y-25.933
X-99.777 Y-26.186
X-99.574 Y-26.403
X-99.332 Y-26.575
X-99.061 Y-26.696
X-98.77 Y-26.76
X-98.473 Y-26.764
X-97.873 Y-26.712
X-97.65 Y-26.689
X-96.982 Y-26.556
X-96.824 Y-26.52
X-96.368 Y-26.398
G3 X-95.975 Y-25.53 I-0.186 J0.607
G1 X-97.786 Y-21.498
G3 X-98.442 Y-21.128 I-0.579 J-0.26
G1 X-98.542 Y-21.144
X-98.765 Y-21.157
X-99.211 Y-21.173
X-99.434 Y-21.175
X-99.501
X-99.651 Y-21.183
X-99.799 Y-21.207
X-99.944 Y-21.245
X-100.092 Y-21.298
X-100.247 Y-21.369
X-100.406 Y-21.456
X-100.575 Y-21.569
X-100.741 Y-21.699
X-100.912 Y-21.857
X-101.081 Y-22.041
X-101.242 Y-22.246
X-101.4 Y-22.487
X-101.546 Y-22.752
X-101.675 Y-23.039
X-101.789 Y-23.358
X-101.881 Y-23.702
X-101.947 Y-24.062
X-101.984 Y-24.42
X-101.991 Y-24.771
X-101.971 Y-25.107
X-101.926 Y-25.425
X-101.857 Y-25.734
X-101.842 Y-25.782
X-101.719 Y-26.069
X-101.537 Y-26.325
X-101.306 Y-26.536
X-101.036 Y-26.694
X-100.738 Y-26.792
X-100.427 Y-26.825
X-99.434
X-99.211 Y-26.823
X-98.473 Y-26.764
G3 X-97.93 Y-25.994 I-0.076 J0.63
G1 X-98.904 Y-21.67
G3 X-99.501 Y-21.175 I-0.619 J-0.14
G1 X-100.894
X-101.044 Y-21.183
X-101.192 Y-21.205
X-101.346 Y-21.24
X-101.516 Y-21.295
X-101.689 Y-21.366
X-101.875 Y-21.461
X-102.067 Y-21.578
X-102.258 Y-21.718
X-102.459 Y-21.891
X-102.651 Y-22.085
X-102.84 Y-22.31
X-103.023 Y-22.568
X-103.191 Y-22.85
X-103.341 Y-23.154
X-103.472 Y-23.484
X-103.58 Y-23.838
X-103.653 Y-24.166
X-103.701 Y-24.514
X-103.718 Y-24.825
X-103.71 Y-25.147
X-103.679 Y-25.445
X-103.647 Y-25.616
X-103.565 Y-25.897
X-103.429 Y-26.156
X-103.245 Y-26.384
X-103.02 Y-26.571
X-102.762 Y-26.71
X-102.482 Y-26.796
X-102.191 Y-26.825
X-100.427
G3 X-99.818 Y-26.123 I-0.022 J0.635
G1 X-100.285 Y-21.742
G3 X-100.894 Y-21.175 I-0.631 J-0.067
G1 X-102.455
X-102.605 Y-21.183
X-102.764 Y-21.205
X-102.93 Y-21.241
X-103.115 Y-21.298
X-103.301 Y-21.372
X-103.504 Y-21.473
X-103.708 Y-21.595
X-103.917 Y-21.744
X-104.13 Y-21.924
X-104.335 Y-22.127
X-104.535 Y-22.359
X-104.725 Y-22.621
X-104.903 Y-22.91
X-105.06 Y-23.221
X-105.194 Y-23.548
X-105.298 Y-23.875
X-105.377 Y-24.212
X-105.423 Y-24.523
X-105.445 Y-24.846
X-105.441 Y-25.139
X-105.412 Y-25.446
X-105.385 Y-25.6
X-105.305 Y-25.884
X-105.171 Y-26.147
X-104.987 Y-26.377
X-104.761 Y-26.567
X-104.501 Y-26.709
X-104.219 Y-26.796
X-103.926 Y-26.825
X-102.191
G3 X-101.949 Y-26.768 I-0.022 J0.635
X-101.579 Y-26.152 I-0.263 J0.578
G1 X-101.843 Y-21.771
G3 X-102.455 Y-21.175 I-0.634 J-0.038
G1 X-104.116
X-104.266 Y-21.183
X-104.427 Y-21.204
X-104.601 Y-21.241
X-104.791 Y-21.299
X-104.984 Y-21.374
X-105.194 Y-21.476
X-105.403 Y-21.6
X-105.616 Y-21.75
X-105.835 Y-21.932
X-106.045 Y-22.137
X-106.246 Y-22.369
X-106.439 Y-22.632
X-106.618 Y-22.92
X-106.778 Y-23.231
X-106.913 Y-23.555
X-107.019 Y-23.881
X-107.097 Y-24.211
X-107.145 Y-24.52
X-107.169 Y-24.839
X-107.166 Y-25.13
X-107.14 Y-25.436
X-107.123 Y-25.533
X-107.037 Y-25.838
X-106.888 Y-26.118
X-106.682 Y-26.359
X-106.43 Y-26.552
X-106.143 Y-26.686
X-105.834 Y-26.757
X-105.454 Y-26.801
X-105.231 Y-26.825
X-103.926
G3 X-103.313 Y-26.163 I-0.022 J0.635
G1 X-103.504 Y-21.782
G3 X-104.116 Y-21.175 I-0.634 J-0.028
G1 X-105.231
X-105.454 Y-21.199
X-105.899 Y-21.251
X-106.122 Y-21.279
X-106.234 Y-21.308
X-106.568 Y-21.434
X-106.791 Y-21.523
X-106.937 Y-21.617
X-107.26 Y-21.84
X-107.36 Y-21.917
X-107.46 Y-22.024
X-107.691 Y-22.285
X-107.787 Y-22.397
X-107.854 Y-22.508
X-108.087 Y-22.954
X-108.129 Y-23.06
X-108.213 Y-23.4
X-108.267 Y-23.623
X-108.278 Y-23.734
Y-24.068
X-108.277 Y-24.291
X-108.262 Y-24.403
X-108.129 Y-24.939
X-108.123 Y-24.96
X-108.016 Y-25.182
X-107.841 Y-25.517
X-107.808 Y-25.572
X-107.767 Y-25.628
X-107.683 Y-25.724
X-107.46 Y-25.976
X-107.37 Y-26.074
X-107.237 Y-26.176
X-107.014 Y-26.33
X-106.791 Y-26.476
X-106.69 Y-26.52
X-106.234 Y-26.692
X-106.178 Y-26.71
X-106.122 Y-26.721
X-105.899 Y-26.749
X-105.834 Y-26.757
X-105.782 Y-26.759 Z-5.495
X-105.73 Y-26.75 Z-5.477
X-105.682 Y-26.743 Z-5.447
X-105.642 Y-26.737 Z-5.407
X-105.612 Y-26.732 Z-5.36
X-105.594 Y-26.729 Z-5.307
X-105.588 Y-26.728 Z-5.251
G0 Z5
Z15
X-32.993 Y3.473
Z5
Z3.685
G1 Z3.05 F1016
G3 X-38.264 Y0.54 Z2.719 I-2.636 J-1.467
X-32.993 Y3.473 Z2.388 I2.636 J1.467
X-38.264 Y0.54 Z2.057 I-2.636 J-1.467
X-32.993 Y3.473 Z1.726 I2.636 J1.467
X-38.264 Y0.54 Z1.395 I-2.636 J-1.467
X-32.993 Y3.473 Z1.065 I2.636 J1.467
X-38.264 Y0.54 Z0.734 I-2.636 J-1.467
X-32.993 Y3.473 Z0.403 I2.636 J1.467
X-38.264 Y0.54 Z0.072 I-2.636 J-1.467
X-32.993 Y3.473 Z-0.259 I2.636 J1.467
X-38.264 Y0.54 Z-0.59 I-2.636 J-1.467
X-32.993 Y3.473 Z-0.921 I2.636 J1.467
X-38.264 Y0.54 Z-1.252 I-2.636 J-1.467
X-32.993 Y3.473 Z-1.583 I2.636 J1.467
X-38.264 Y0.54 Z-1.914 I-2.636 J-1.467
X-32.993 Y3.473 Z-2.244 I2.636 J1.467
X-38.264 Y0.54 Z-2.575 I-2.636 J-1.467
X-32.993 Y3.473 Z-2.906 I2.636 J1.467
X-38.264 Y0.54 Z-3.237 I-2.636 J-1.467
X-32.993 Y3.473 Z-3.568 I2.636 J1.467
X-38.264 Y0.54 Z-3.899 I-2.636 J-1.467
X-32.993 Y3.473 Z-4.23 I2.636 J1.467
X-38.264 Y0.54 Z-4.561 I-2.636 J-1.467
X-32.993 Y3.473 Z-4.892 I2.636 J1.467
X-38.264 Y0.54 Z-5.223 I-2.636 J-1.467
X-32.612 Y2.006 Z-5.5 I2.636 J1.467
X-38.645 I-3.016
X-32.612 I3.016
G1 X-32.608 Y2.252
X-32.43 Y3.217
X-32.385 Y3.36
X-32.356 Y3.507
X-32.341 Y3.656
X-32.339 Y3.809
X-32.349 Y3.973
X-32.375 Y4.147
X-32.417 Y4.329
X-32.477 Y4.519
X-32.556 Y4.715
X-32.656 Y4.913
X-32.778 Y5.112
X-32.921 Y5.31
X-33.087 Y5.504
X-33.275 Y5.691
X-33.486 Y5.869
X-33.717 Y6.035
X-33.969 Y6.187
X-34.24 Y6.321
X-34.529 Y6.437
X-34.833 Y6.531
X-35.15 Y6.602
X-35.478 Y6.648
X-35.815 Y6.668
X-36.158 Y6.661
X-36.504 Y6.626
X-36.851 Y6.562
X-37.026 Y6.515
X-37.3 Y6.412
X-37.548 Y6.257
X-37.761 Y6.056
X-37.795 Y6.017
X-37.901 Y5.908
X-38.015 Y5.794
X-38.124 Y5.698
X-38.299 Y5.571
X-38.57 Y5.38
X-38.933 Y5.095
X-39.16 Y4.885
X-39.374 Y4.653
X-39.573 Y4.399
X-39.755 Y4.123
X-39.917 Y3.829
X-40.057 Y3.518
X-40.174 Y3.191
X-40.265 Y2.852
X-40.33 Y2.503
X-40.366 Y2.146
X-40.374 Y1.783
X-40.352 Y1.419
X-40.301 Y1.054
X-40.221 Y0.693
X-40.111 Y0.337
X-39.972 Y-0.011
X-39.805 Y-0.348
X-39.673 Y-0.567
X-39.496 Y-0.805
X-39.275 Y-1.003
X-39.019 Y-1.152
X-38.793 Y-1.256
X-38.629 Y-1.337
X-38.347 Y-1.526
X-38.297 Y-1.56
X-38.124 Y-1.705
X-37.767 Y-1.975
X-37.508 Y-2.141
X-37.229 Y-2.288
X-36.933 Y-2.416
X-36.622 Y-2.522
X-36.296 Y-2.603
X-35.96 Y-2.66
X-35.615 Y-2.689
X-35.265 Y-2.691
X-34.911 Y-2.665
X-34.556 Y-2.609
X-34.204 Y-2.525
X-33.857 Y-2.411
X-33.518 Y-2.269
X-33.189 Y-2.099
X-32.873 Y-1.902
X-32.572 Y-1.68
X-32.289 Y-1.432
X-32.025 Y-1.162
X-31.784 Y-0.871
X-31.565 Y-0.56
X-31.38 Y-0.244
X-31.267 Y-0.007
X-31.198 Y0.246
X-31.175 Y0.507
Y4.457
X-31.187 Y4.701
X-31.221 Y4.963
X-31.28 Y5.234
X-31.362 Y5.509
X-31.47 Y5.785
X-31.606 Y6.067
X-31.773 Y6.351
X-31.969 Y6.63
X-32.193 Y6.899
X-32.445 Y7.158
X-32.729 Y7.406
X-33.044 Y7.638
X-33.388 Y7.852
X-33.756 Y8.043
X-34.147 Y8.206
X-34.559 Y8.34
X-34.985 Y8.442
X-35.395 Y8.507
X-35.45 Y8.511
X-35.782 Y8.498
X-36.103 Y8.412
X-36.397 Y8.257
X-36.648 Y8.04
X-36.845 Y7.772
X-36.977 Y7.468
X-37.009 Y7.365
G3 X-36.72 Y6.653 I0.613 J-0.165
G1 X-32.134 Y3.933
G3 X-31.175 Y4.457 I0.324 J0.546
G1 Y6.686
X-31.185 Y6.879
X-31.211 Y7.077
X-31.254 Y7.279
X-31.322 Y7.506
X-31.411 Y7.735
X-31.531 Y7.981
X-31.68 Y8.236
X-31.858 Y8.488
X-32.077 Y8.752
X-32.327 Y9.009
X-32.611 Y9.256
X-32.935 Y9.496
X-33.242 Y9.687
X-33.576 Y9.86
X-33.879 Y9.986
X-34.2 Y10.091
X-34.506 Y10.164
X-34.802 Y10.211
X-35.112 Y10.234
X-35.39 Y10.232
X-35.473 Y10.225
X-35.778 Y10.166
X-36.063 Y10.045
X-36.317 Y9.868
X-36.529 Y9.641
X-36.689 Y9.376
X-36.79 Y9.083
X-36.827 Y8.775
X-36.833 Y8.468
G3 X-36.436 Y7.889 I0.635 J0.01
G1 X-32.047 Y6.119
G3 X-31.175 Y6.686 I0.238 J0.589
G1 Y8.691
X-31.183 Y8.841
X-31.21 Y9.03
X-31.255 Y9.233
X-31.321 Y9.443
X-31.414 Y9.672
X-31.528 Y9.9
X-31.67 Y10.136
X-31.844 Y10.376
X-32.042 Y10.609
X-32.266 Y10.834
X-32.52 Y11.05
X-32.803 Y11.254
X-33.109 Y11.439
X-33.413 Y11.592
X-33.731 Y11.72
X-34.039 Y11.816
X-34.342 Y11.885
X-34.649 Y11.929
X-34.934 Y11.947
X-35.237 Y11.942
X-35.508 Y11.915
X-35.606 Y11.897
X-35.889 Y11.816
X-36.151 Y11.681
X-36.38 Y11.497
X-36.569 Y11.272
X-36.709 Y11.013
X-36.796 Y10.732
X-36.825 Y10.439
Y8.914
X-36.827 Y8.775
G3 X-36.203 Y8.151 I0.635 J0.011
G1 X-31.82 Y8.079
G3 X-31.175 Y8.691 I0.011 J0.635
G1 Y10.474
X-31.185 Y10.672
X-31.207 Y10.842
X-31.248 Y11.033
X-31.306 Y11.227
X-31.389 Y11.439
X-31.493 Y11.654
X-31.622 Y11.873
X-31.781 Y12.1
X-31.965 Y12.321
X-32.173 Y12.534
X-32.412 Y12.743
X-32.677 Y12.939
X-32.967 Y13.119
X-33.278 Y13.28
X-33.597 Y13.413
X-33.916 Y13.517
X-34.238 Y13.595
X-34.543 Y13.642
X-34.857 Y13.666
X-35.144 Y13.664
X-35.446 Y13.638
X-35.589 Y13.614
X-35.875 Y13.536
X-36.14 Y13.402
X-36.373 Y13.218
X-36.565 Y12.992
X-36.707 Y12.731
X-36.795 Y12.448
X-36.825 Y12.153
Y10.439
G3 X-36.185 Y9.826 I0.635 J0.022
G1 X-31.805 Y9.861
G3 X-31.175 Y10.474 I-0.005 J0.635
G1 Y12.257
X-31.184 Y12.442
X-31.206 Y12.607
X-31.245 Y12.788
X-31.303 Y12.981
X-31.38 Y13.181
X-31.484 Y13.395
X-31.61 Y13.608
X-31.763 Y13.826
X-31.946 Y14.047
X-32.154 Y14.26
X-32.386 Y14.463
X-32.649 Y14.657
X-32.938 Y14.837
X-33.25 Y14.998
X-33.57 Y15.132
X-33.896 Y15.238
X-34.22 Y15.316
X-34.53 Y15.364
X-34.844 Y15.388
X-35.134 Y15.386
X-35.437 Y15.36
X-35.589 Y15.334
X-35.875 Y15.256
X-36.14 Y15.123
X-36.373 Y14.939
X-36.565 Y14.712
X-36.707 Y14.452
X-36.795 Y14.169
X-36.825 Y13.873
Y12.153
G3 X-36.175 Y11.54 I0.635 J0.022
G1 X-31.795 Y11.644
G3 X-31.175 Y12.257 I-0.015 J0.635
G1 Y14.04
X-31.183 Y14.19
X-31.206 Y14.357
X-31.245 Y14.535
X-31.305 Y14.73
X-31.383 Y14.927
X-31.489 Y15.14
X-31.617 Y15.354
X-31.77 Y15.569
X-31.956 Y15.789
X-32.166 Y16.002
X-32.401 Y16.204
X-32.665 Y16.396
X-32.955 Y16.574
X-33.27 Y16.733
X-33.591 Y16.865
X-33.92 Y16.97
X-34.241 Y17.044
X-34.555 Y17.091
X-34.866 Y17.112
X-35.159 Y17.108
X-35.46 Y17.08
X-35.599 Y17.055
X-35.884 Y16.976
X-36.146 Y16.841
X-36.377 Y16.657
X-36.567 Y16.431
X-36.709 Y16.172
X-36.796 Y15.89
X-36.825 Y15.596
Y13.873
G3 X-36.166 Y13.261 I0.635 J0.022
G1 X-31.785 Y13.427
G3 X-31.175 Y14.04 I-0.024 J0.635
G1 Y15.722
X-31.184 Y15.907
X-31.205 Y16.069
X-31.244 Y16.248
X-31.301 Y16.438
X-31.378 Y16.635
X-31.481 Y16.848
X-31.604 Y17.058
X-31.757 Y17.275
X-31.939 Y17.495
X-32.145 Y17.705
X-32.378 Y17.909
X-32.641 Y18.103
X-32.93 Y18.283
X-33.24 Y18.443
X-33.562 Y18.578
X-33.886 Y18.684
X-34.214 Y18.762
X-34.522 Y18.81
X-34.84 Y18.834
X-35.13 Y18.832
X-35.434 Y18.806
X-35.589 Y18.78
X-35.875 Y18.702
X-36.14 Y18.568
X-36.373 Y18.384
X-36.565 Y18.158
X-36.707 Y17.898
X-36.795 Y17.614
X-36.825 Y17.319
Y15.596
G3 X-36.172 Y14.983 I0.635 J0.022
G1 X-31.791 Y15.11
G3 X-31.175 Y15.722 I-0.018 J0.635
G1 Y17.505
X-31.183 Y17.655
X-31.207 Y17.825
X-31.248 Y18.002
X-31.31 Y18.198
X-31.391 Y18.396
X-31.498 Y18.608
X-31.629 Y18.824
X-31.784 Y19.038
X-31.971 Y19.256
X-32.186 Y19.469
X-32.423 Y19.67
X-32.688 Y19.86
X-32.98 Y20.036
X-33.297 Y20.193
X-33.618 Y20.322
X-33.951 Y20.425
X-34.269 Y20.496
X-34.586 Y20.541
X-34.894 Y20.559
X-35.189 Y20.553
X-35.487 Y20.523
X-35.611 Y20.5
X-35.893 Y20.419
X-36.153 Y20.283
X-36.382 Y20.099
X-36.57 Y19.874
X-36.71 Y19.615
X-36.796 Y19.335
X-36.825 Y19.043
Y17.319
G3 X-36.163 Y16.707 I0.635 J0.022
G1 X-31.783 Y16.893
G3 X-31.175 Y17.505 I-0.027 J0.634
G1 Y19.165
X-31.185 Y19.356
X-31.206 Y19.517
X-31.244 Y19.697
X-31.3 Y19.884
X-31.378 Y20.084
X-31.48 Y20.295
X-31.604 Y20.504
X-31.758 Y20.724
X-31.939 Y20.942
X-32.143 Y21.151
X-32.377 Y21.356
X-32.641 Y21.551
X-32.929 Y21.73
X-33.238 Y21.89
X-33.562 Y22.025
X-33.884 Y22.13
X-34.214 Y22.209
X-34.521 Y22.257
X-34.84 Y22.281
X-35.13 Y22.279
X-35.434 Y22.253
X-35.589 Y22.227
X-35.875 Y22.149
X-36.14 Y22.015
X-36.373 Y21.831
X-36.565 Y21.605
X-36.707 Y21.344
X-36.795 Y21.061
X-36.825 Y20.766
Y19.043
G3 X-36.173 Y18.43 I0.635 J0.022
G1 X-31.792 Y18.553
G3 X-31.175 Y19.165 I-0.018 J0.635
G1 Y20.948
X-31.183 Y21.098
X-31.207 Y21.267
X-31.247 Y21.444
X-31.309 Y21.64
X-31.388 Y21.837
X-31.495 Y22.049
X-31.625 Y22.265
X-31.779 Y22.478
X-31.966 Y22.697
X-32.179 Y22.91
X-32.415 Y23.111
X-32.68 Y23.302
X-32.971 Y23.478
X-33.288 Y23.636
X-33.609 Y23.766
X-33.941 Y23.869
X-34.26 Y23.942
X-34.576 Y23.987
X-34.885 Y24.006
X-35.18 Y24
X-35.479 Y23.971
X-35.75 Y23.922
X-35.822 Y23.902
X-36.116 Y23.79
X-36.379 Y23.618
X-36.6 Y23.395
X-36.769 Y23.13
X-36.878 Y22.836
X-36.923 Y22.525
X-36.901 Y22.211
X-36.875 Y22.063
X-36.839 Y21.617
X-36.825 Y21.394
Y20.766
G3 X-36.164 Y20.154 I0.635 J0.022
G1 X-31.783 Y20.336
G3 X-31.175 Y20.948 I-0.026 J0.634
G1 Y22.631
X-31.184 Y22.802
X-31.205 Y22.963
X-31.243 Y23.143
X-31.299 Y23.331
X-31.377 Y23.53
X-31.48 Y23.742
X-31.603 Y23.951
X-31.757 Y24.17
X-31.938 Y24.388
X-32.142 Y24.598
X-32.377 Y24.802
X-32.64 Y24.997
X-32.929 Y25.177
X-33.238 Y25.337
X-33.568 Y25.474
X-33.908 Y25.585
X-34.234 Y25.663
X-34.573 Y25.716
X-34.878 Y25.739
X-35.202 Y25.737
X-35.49 Y25.713
X-35.789 Y25.662
X-36.066 Y25.593
X-36.327 Y25.504
X-36.591 Y25.39
X-36.821 Y25.268
X-37.065 Y25.073
X-37.262 Y24.83
X-37.403 Y24.55
X-37.482 Y24.247
X-37.494 Y23.935
X-37.44 Y23.626
X-37.322 Y23.337
X-37.274 Y23.249
G3 X-36.843 Y22.946 I0.548 J0.321
G1 X-31.926 Y22.029
G3 X-31.175 Y22.631 I0.116 J0.624
G1 Y24.291
X-31.187 Y24.525
X-31.208 Y24.689
X-31.246 Y24.866
X-31.304 Y25.058
X-31.38 Y25.254
X-31.483 Y25.466
X-31.607 Y25.678
X-31.76 Y25.895
X-31.944 Y26.116
X-32.151 Y26.329
X-32.387 Y26.535
X-32.652 Y26.731
X-32.947 Y26.914
X-33.262 Y27.077
X-33.597 Y27.217
X-33.95 Y27.332
X-34.319 Y27.421
X-34.701 Y27.48
X-35.093 Y27.51
X-35.483 Y27.507
X-35.83 Y27.477
X-36.181 Y27.419
X-36.486 Y27.342
X-36.8 Y27.235
X-37.071 Y27.118
X-37.343 Y26.974
X-37.587 Y26.818
X-37.81 Y26.649
X-38.026 Y26.456
X-38.209 Y26.263
X-38.383 Y25.994
X-38.495 Y25.693
X-38.539 Y25.375
X-38.514 Y25.055
X-38.421 Y24.749
X-38.264 Y24.469
X-38.05 Y24.23
G3 X-37.686 Y24.082 I0.408 J0.486
G1 X-31.853 Y23.68
G3 X-31.175 Y24.291 I0.044 J0.633
G1 Y26.074
X-31.184 Y26.25
X-31.205 Y26.414
X-31.244 Y26.593
X-31.301 Y26.786
X-31.378 Y26.984
X-31.483 Y27.199
X-31.608 Y27.411
X-31.764 Y27.633
X-31.951 Y27.858
X-32.162 Y28.075
X-32.41 Y28.291
X-32.693 Y28.501
X-33 Y28.692
X-33.34 Y28.867
X-33.707 Y29.021
X-34.101 Y29.149
X-34.511 Y29.247
X-34.935 Y29.314
X-35.366 Y29.346
X-35.802 Y29.343
X-36.238 Y29.306
X-36.669 Y29.233
X-37.094 Y29.126
X-37.506 Y28.986
X-37.863 Y28.832
X-38.209 Y28.649
X-38.5 Y28.463
X-38.777 Y28.253
X-39.019 Y28.037
X-39.234 Y27.812
X-39.432 Y27.568
X-39.593 Y27.333
X-39.744 Y27.068
X-39.862 Y26.819
X-39.881 Y26.768
X-39.962 Y26.453
X-39.972 Y26.128
X-39.91 Y25.809
X-39.781 Y25.511
X-39.591 Y25.249
X-39.347 Y25.034
X-39.063 Y24.877
G3 X-38.818 Y24.837 I0.223 J0.595
X-38.784 Y24.839 I-0.022 J0.635
G1 X-31.753 Y25.464
G3 X-31.175 Y26.074 I-0.056 J0.633
G1 Y27.411
X-31.207 Y27.97
X-31.224 Y28.126
X-31.259 Y28.307
X-31.31 Y28.493
X-31.384 Y28.698
X-31.481 Y28.909
X-31.604 Y29.129
X-31.759 Y29.36
X-31.937 Y29.585
X-32.156 Y29.819
X-32.406 Y30.048
X-32.686 Y30.264
X-33.008 Y30.475
X-33.243 Y30.603
X-33.428 Y30.688
X-33.622 Y30.746
X-33.823 Y30.778
G3 X-34.323 Y29.714 I-0.033 J-0.634
G1 X-32.309 Y27.525
G3 X-31.207 Y27.97 I0.467 J0.43
G1 X-31.213 Y28.08
X-31.232 Y28.302
X-31.257 Y28.525
X-31.276 Y28.637
X-31.312 Y28.748
X-31.435 Y29.1
X-31.471 Y29.194
X-31.602 Y29.417
X-31.742 Y29.64
X-31.802 Y29.729
X-31.881 Y29.819
X-32.148 Y30.085
X-32.238 Y30.171
X-32.327 Y30.237
X-32.55 Y30.377
X-32.773 Y30.513
X-32.811 Y30.531
X-32.996 Y30.598
X-33.33 Y30.715
X-33.442 Y30.739
X-33.665 Y30.764
X-33.888 Y30.783
X-34.557 Y30.825
X-36.786
X-37.202 Y30.804
X-37.598 Y30.752
X-37.997 Y30.667
X-38.395 Y30.548
X-38.789 Y30.394
X-39.176 Y30.207
X-39.547 Y29.988
X-39.903 Y29.738
X-40.231 Y29.466
X-40.506 Y29.197
X-40.758 Y28.908
X-40.959 Y28.637
X-41.145 Y28.338
X-41.286 Y28.064
X-41.412 Y27.763
X-41.505 Y27.48
X-41.573 Y27.193
X-41.619 Y26.9
X-41.639 Y26.631
Y26.621
X-41.604 Y26.31
X-41.505 Y26.013
X-41.345 Y25.743
X-41.132 Y25.513
X-40.875 Y25.333
X-40.586 Y25.211
X-40.278 Y25.153
X-40.13 Y25.141
G3 X-39.592 Y25.396 I0.03 J0.634
G1 X-36.299 Y29.811
G3 X-36.786 Y30.825 I-0.509 J0.38
G1 X-39.684
X-39.948 Y30.812
X-40.168 Y30.783
X-40.405 Y30.732
X-40.645 Y30.66
X-40.901 Y30.561
X-41.162 Y30.434
X-41.42 Y30.282
X-41.679 Y30.1
X-41.934 Y29.888
X-42.181 Y29.648
X-42.413 Y29.381
X-42.628 Y29.091
X-42.81 Y28.799
X-42.964 Y28.5
X-43.089 Y28.201
X-43.183 Y27.913
X-43.256 Y27.607
X-43.3 Y27.329
X-43.322 Y27.028
X-43.321 Y26.752
X-43.296 Y26.472
X-43.286 Y26.411
X-43.208 Y26.125
X-43.074 Y25.86
X-42.891 Y25.627
X-42.664 Y25.435
X-42.404 Y25.293
X-42.12 Y25.205
X-41.825 Y25.175
X-40.576
X-40.312 Y25.156
X-40.278 Y25.153
G3 X-39.618 Y25.71 I0.03 J0.634
G1 X-39.076 Y30.113
G3 X-39.684 Y30.825 I-0.63 J0.078
G1 X-41.814
X-41.967 Y30.817
X-42.152 Y30.793
X-42.349 Y30.751
X-42.555 Y30.689
X-42.777 Y30.603
X-42.999 Y30.495
X-43.227 Y30.361
X-43.46 Y30.197
X-43.687 Y30.009
X-43.905 Y29.796
X-44.115 Y29.555
X-44.314 Y29.286
X-44.496 Y28.993
X-44.658 Y28.68
X-44.789 Y28.368
X-44.893 Y28.047
X-44.968 Y27.737
X-45.016 Y27.43
X-45.038 Y27.126
X-45.037 Y26.838
X-45.011 Y26.542
X-44.989 Y26.411
X-44.911 Y26.125
X-44.777 Y25.86
X-44.594 Y25.627
X-44.367 Y25.435
X-44.107 Y25.293
X-43.823 Y25.205
X-43.528 Y25.175
X-41.825
G3 X-41.212 Y25.808 I-0.022 J0.635
G1 X-41.201 Y30.189
G3 X-41.814 Y30.825 I-0.635 J0.002
G1 X-43.597
X-43.794 Y30.815
X-43.959 Y30.793
X-44.145 Y30.754
X-44.339 Y30.696
X-44.543 Y30.616
X-44.759 Y30.511
X-44.974 Y30.385
X-45.195 Y30.23
X-45.417 Y30.045
X-45.631 Y29.837
X-45.835 Y29.603
X-46.03 Y29.339
X-46.21 Y29.05
X-46.371 Y28.737
X-46.504 Y28.419
X-46.611 Y28.094
X-46.688 Y27.773
X-46.736 Y27.463
X-46.759 Y27.151
X-46.758 Y26.861
X-46.732 Y26.559
X-46.707 Y26.411
X-46.629 Y26.125
X-46.495 Y25.86
X-46.311 Y25.627
X-46.084 Y25.435
X-45.824 Y25.293
X-45.541 Y25.205
X-45.246 Y25.175
X-43.528
G3 X-42.915 Y25.82 I-0.022 J0.635
G1 X-42.984 Y30.2
G3 X-43.597 Y30.825 I-0.635 J-0.01
G1 X-45.381
X-45.543 Y30.817
X-45.707 Y30.795
X-45.886 Y30.757
X-46.08 Y30.699
X-46.278 Y30.622
X-46.491 Y30.518
X-46.703 Y30.393
X-46.921 Y30.241
X-47.142 Y30.057
X-47.354 Y29.85
X-47.557 Y29.618
X-47.751 Y29.355
X-47.931 Y29.067
X-48.092 Y28.755
X-48.226 Y28.434
X-48.332 Y28.108
X-48.41 Y27.783
X-48.458 Y27.473
X-48.482 Y27.158
X-48.48 Y26.867
X-48.454 Y26.564
X-48.428 Y26.411
X-48.35 Y26.125
X-48.216 Y25.86
X-48.033 Y25.627
X-47.806 Y25.435
X-47.546 Y25.293
X-47.262 Y25.205
X-46.967 Y25.175
X-45.246
G3 X-44.633 Y25.829 I-0.022 J0.635
G1 X-44.768 Y30.21
G3 X-45.381 Y30.825 I-0.635 J-0.02
G1 X-47.042
X-47.276 Y30.813
X-47.44 Y30.792
X-47.617 Y30.754
X-47.81 Y30.696
X-48.006 Y30.62
X-48.218 Y30.517
X-48.43 Y30.392
X-48.646 Y30.241
X-48.866 Y30.058
X-49.078 Y29.851
X-49.28 Y29.62
X-49.474 Y29.358
X-49.653 Y29.069
X-49.814 Y28.757
X-49.948 Y28.437
X-50.055 Y28.11
X-50.132 Y27.785
X-50.181 Y27.475
X-50.205 Y27.16
X-50.203 Y26.869
X-50.177 Y26.565
X-50.151 Y26.411
X-50.073 Y26.125
X-49.939 Y25.86
X-49.755 Y25.627
X-49.529 Y25.435
X-49.268 Y25.293
X-48.985 Y25.205
X-48.69 Y25.175
X-46.967
G3 X-46.354 Y25.82 I-0.022 J0.635
G1 X-46.429 Y30.201
G3 X-47.042 Y30.825 I-0.635 J-0.011
G1 X-48.825
X-48.998 Y30.816
X-49.162 Y30.795
X-49.339 Y30.757
X-49.532 Y30.699
X-49.728 Y30.623
X-49.941 Y30.52
X-50.152 Y30.395
X-50.368 Y30.244
X-50.588 Y30.061
X-50.8 Y29.854
X-51.002 Y29.622
X-51.196 Y29.36
X-51.376 Y29.072
X-51.537 Y28.76
X-51.671 Y28.439
X-51.778 Y28.112
X-51.856 Y27.787
X-51.904 Y27.476
X-51.928 Y27.161
X-51.926 Y26.869
X-51.9 Y26.566
X-51.874 Y26.411
X-51.796 Y26.125
X-51.662 Y25.86
X-51.478 Y25.627
X-51.252 Y25.435
X-50.991 Y25.293
X-50.708 Y25.205
X-50.413 Y25.175
X-48.69
G3 X-48.077 Y25.829 I-0.022 J0.635
G1 X-48.213 Y30.21
G3 X-48.825 Y30.825 I-0.635 J-0.02
G1 X-50.609
X-50.759 Y30.817
X-50.93 Y30.791
X-51.108 Y30.75
X-51.305 Y30.686
X-51.503 Y30.604
X-51.715 Y30.496
X-51.932 Y30.362
X-52.146 Y30.205
X-52.364 Y30.016
X-52.577 Y29.799
X-52.778 Y29.559
X-52.967 Y29.293
X-53.141 Y29
X-53.297 Y28.682
X-53.423 Y28.361
X-53.525 Y28.026
X-53.594 Y27.711
X-53.637 Y27.392
X-53.653 Y27.087
X-53.645 Y26.789
X-53.614 Y26.494
X-53.592 Y26.381
X-53.51 Y26.1
X-53.374 Y25.842
X-53.19 Y25.615
X-52.964 Y25.428
X-52.707 Y25.289
X-52.427 Y25.204
X-52.136 Y25.175
X-50.413
G3 X-49.8 Y25.838 I-0.022 J0.635
G1 X-49.997 Y30.219
G3 X-50.609 Y30.825 I-0.634 J-0.028
G1 X-52.292
X-52.449 Y30.817
X-52.61 Y30.796
X-52.791 Y30.757
X-52.977 Y30.702
X-53.178 Y30.623
X-53.387 Y30.522
X-53.597 Y30.398
X-53.818 Y30.243
X-54.034 Y30.063
X-54.244 Y29.859
X-54.45 Y29.623
X-54.645 Y29.359
X-54.824 Y29.072
X-54.983 Y28.764
X-55.119 Y28.438
X-55.224 Y28.118
X-55.303 Y27.786
X-55.351 Y27.48
X-55.375 Y27.16
X-55.373 Y26.871
X-55.347 Y26.566
X-55.301 Y26.293
X-55.296 Y26.274
X-55.196 Y25.996
X-55.042 Y25.743
X-54.841 Y25.526
X-54.601 Y25.353
X-54.331 Y25.232
X-54.043 Y25.166
X-53.747 Y25.159
X-53.73 Y25.16
X-53.284 Y25.172
X-53.061 Y25.175
X-52.136
G3 X-51.524 Y25.832 I-0.022 J0.635
G1 X-51.68 Y30.213
G3 X-52.292 Y30.825 I-0.635 J-0.023
G1 X-53.953
X-54.172 Y30.814
X-54.336 Y30.793
X-54.513 Y30.755
X-54.705 Y30.697
X-54.901 Y30.621
X-55.113 Y30.518
X-55.324 Y30.394
X-55.539 Y30.243
X-55.759 Y30.06
X-55.971 Y29.853
X-56.173 Y29.622
X-56.367 Y29.36
X-56.546 Y29.072
X-56.707 Y28.76
X-56.845 Y28.429
X-56.951 Y28.104
X-57.03 Y27.776
X-57.079 Y27.461
X-57.102 Y27.151
X-57.1 Y26.846
X-57.076 Y26.559
X-57.026 Y26.266
X-56.96 Y26.003
X-56.867 Y25.728
X-56.841 Y25.669
X-56.677 Y25.381
X-56.452 Y25.137
X-56.178 Y24.949
X-55.87 Y24.827
X-55.542 Y24.776
X-55.211 Y24.799
X-54.894 Y24.896
G3 X-54.55 Y25.315 I-0.272 J0.574
G1 X-53.359 Y30.035
G3 X-53.953 Y30.825 I-0.616 J0.155
G1 X-55.737
X-55.892 Y30.817
X-56.056 Y30.796
X-56.233 Y30.758
X-56.426 Y30.7
X-56.622 Y30.624
X-56.835 Y30.52
X-57.047 Y30.396
X-57.263 Y30.244
X-57.484 Y30.06
X-57.696 Y29.853
X-57.899 Y29.62
X-58.094 Y29.357
X-58.275 Y29.067
X-58.436 Y28.755
X-58.574 Y28.423
X-58.688 Y28.074
X-58.775 Y27.711
X-58.833 Y27.339
X-58.859 Y26.996
X-58.857 Y26.638
X-58.83 Y26.326
X-58.775 Y26
X-58.702 Y25.708
X-58.606 Y25.427
X-58.487 Y25.151
X-58.36 Y24.911
X-58.202 Y24.663
X-58.038 Y24.447
X-57.987 Y24.389
X-57.737 Y24.167
X-57.445 Y24.006
X-57.124 Y23.914
X-56.79 Y23.897
X-56.461 Y23.955
X-56.153 Y24.086
X-55.883 Y24.281
G3 X-55.695 Y24.67 I-0.444 J0.454
G1 X-55.127 Y30.125
G3 X-55.737 Y30.825 I-0.632 J0.066
G1 X-57.52
X-57.67 Y30.817
X-57.844 Y30.789
X-58.023 Y30.746
X-58.221 Y30.68
X-58.422 Y30.595
X-58.635 Y30.484
X-58.855 Y30.345
X-59.072 Y30.184
X-59.295 Y29.987
X-59.514 Y29.761
X-59.721 Y29.509
X-59.919 Y29.225
X-60.104 Y28.907
X-60.267 Y28.567
X-60.405 Y28.207
X-60.517 Y27.827
X-60.599 Y27.433
X-60.651 Y27.027
X-60.67 Y26.613
X-60.655 Y26.197
X-60.607 Y25.779
X-60.526 Y25.369
X-60.423 Y25.008
X-60.289 Y24.647
X-60.148 Y24.345
X-59.975 Y24.041
X-59.799 Y23.782
X-59.603 Y23.538
X-59.391 Y23.314
X-59.182 Y23.126
X-58.941 Y22.942
X-58.71 Y22.794
X-58.661 Y22.768
X-58.356 Y22.645
X-58.031 Y22.594
X-57.702 Y22.615
X-57.386 Y22.709
X-57.099 Y22.869
X-56.855 Y23.09
X-56.665 Y23.358
G3 X-56.597 Y23.676 I-0.566 J0.287
G1 X-56.908 Y30.221
G3 X-57.52 Y30.825 I-0.634 J-0.03
G1 X-59.081
X-59.203 Y30.823
X-59.382 Y30.812
X-59.548 Y30.789
X-59.735 Y30.746
X-59.925 Y30.687
X-60.136 Y30.601
X-60.347 Y30.496
X-60.57 Y30.361
X-60.799 Y30.195
X-61.023 Y30.006
X-61.251 Y29.777
X-61.473 Y29.516
X-61.681 Y29.228
X-61.879 Y28.9
X-62.062 Y28.535
X-62.22 Y28.145
X-62.35 Y27.73
X-62.451 Y27.284
X-62.517 Y26.82
X-62.547 Y26.34
X-62.538 Y25.858
X-62.491 Y25.374
X-62.405 Y24.898
X-62.281 Y24.432
X-62.122 Y23.981
X-61.93 Y23.551
X-61.705 Y23.139
X-61.454 Y22.756
X-61.205 Y22.437
X-60.934 Y22.14
X-60.678 Y21.902
X-60.393 Y21.677
X-60.13 Y21.501
X-59.838 Y21.338
X-59.562 Y21.212
X-59.279 Y21.11
X-58.989 Y21.03
X-58.716 Y20.979
X-58.403
X-58.097 Y21.045
X-57.811 Y21.173
X-57.559 Y21.359
X-57.352 Y21.593
X-57.198 Y21.866
X-57.105 Y22.165
G3 X-57.108 Y22.384 I-0.627 J0.101
G1 X-57.113 Y22.413
X-58.594 Y30.306
G3 X-59.203 Y30.823 I-0.624 J-0.117
G1 X-59.75 Y30.816
X-59.973 Y30.805
X-60.425 Y30.754
X-60.641 Y30.723
X-60.864 Y30.647
X-61.087 Y30.569
X-61.191 Y30.531
X-61.31 Y30.465
X-61.56 Y30.308
X-61.756 Y30.176
X-61.852 Y30.085
X-62.075 Y29.862
X-62.202 Y29.724
X-62.258 Y29.64
X-62.425 Y29.374
X-62.53 Y29.194
X-62.61 Y28.971
X-62.688 Y28.748
X-62.724 Y28.637
X-62.743 Y28.525
X-62.768 Y28.302
X-62.787 Y28.08
X-62.825 Y27.411
Y23.177
X-62.813 Y22.928
X-62.779 Y22.67
X-62.723 Y22.408
X-62.639 Y22.129
X-62.527 Y21.84
X-62.387 Y21.553
X-62.218 Y21.266
X-62.019 Y20.982
X-61.789 Y20.705
X-61.529 Y20.439
X-61.245 Y20.191
X-60.969 Y19.987
X-60.671 Y19.801
X-60.388 Y19.655
X-60.093 Y19.532
X-59.801 Y19.437
X-59.52 Y19.369
X-59.221 Y19.323
X-58.95 Y19.302
X-58.658 Y19.304
X-58.529 Y19.315
X-58.221 Y19.375
X-57.933 Y19.498
X-57.677 Y19.68
X-57.465 Y19.911
X-57.306 Y20.181
X-57.208 Y20.479
X-57.175 Y20.791
Y21.394
X-57.161 Y21.617
X-57.125 Y22.063
X-57.105 Y22.165
G3 X-57.608 Y22.889 I-0.627 J0.101
G1 X-62.066 Y23.777
G3 X-62.825 Y23.177 I-0.124 J-0.623
G1 Y20.948
X-62.814 Y20.736
X-62.789 Y20.539
X-62.746 Y20.338
X-62.679 Y20.117
X-62.591 Y19.89
X-62.48 Y19.66
X-62.339 Y19.422
X-62.171 Y19.183
X-61.98 Y18.952
X-61.761 Y18.728
X-61.514 Y18.512
X-61.24 Y18.31
X-60.943 Y18.125
X-60.639 Y17.968
X-60.327 Y17.838
X-60.011 Y17.735
X-59.714 Y17.663
X-59.4 Y17.614
X-59.116 Y17.593
X-58.812 Y17.595
X-58.534 Y17.619
X-58.411 Y17.639
X-58.125 Y17.718
X-57.86 Y17.851
X-57.627 Y18.035
X-57.435 Y18.262
X-57.293 Y18.522
X-57.205 Y18.805
X-57.175 Y19.101
Y20.791
G3 X-57.787 Y21.404 I-0.635 J-0.022
G1 X-62.168 Y21.561
G3 X-62.825 Y20.948 I-0.023 J-0.635
G1 Y19.043
X-62.816 Y18.862
X-62.794 Y18.694
X-62.753 Y18.503
X-62.695 Y18.308
X-62.613 Y18.099
X-62.507 Y17.881
X-62.38 Y17.664
X-62.222 Y17.44
X-62.037 Y17.216
X-61.828 Y17.003
X-61.592 Y16.796
X-61.328 Y16.601
X-61.037 Y16.42
X-60.725 Y16.259
X-60.408 Y16.127
X-60.084 Y16.021
X-59.765 Y15.944
X-59.456 Y15.896
X-59.146 Y15.873
X-58.856 Y15.875
X-58.555 Y15.901
X-58.411 Y15.925
X-58.125 Y16.003
X-57.86 Y16.137
X-57.627 Y16.321
X-57.435 Y16.547
X-57.293 Y16.807
X-57.205 Y17.091
X-57.175 Y17.386
Y19.101
G3 X-57.818 Y19.713 I-0.635 J-0.022
G1 X-62.199 Y19.656
G3 X-62.825 Y19.043 I0.008 J-0.635
G1 Y17.26
X-62.817 Y17.096
X-62.795 Y16.931
X-62.756 Y16.75
X-62.699 Y16.557
X-62.621 Y16.358
X-62.517 Y16.143
X-62.392 Y15.931
X-62.239 Y15.713
X-62.055 Y15.491
X-61.848 Y15.279
X-61.615 Y15.076
X-61.352 Y14.881
X-61.063 Y14.702
X-60.751 Y14.541
X-60.431 Y14.407
X-60.105 Y14.3
X-59.781 Y14.223
X-59.471 Y14.174
X-59.157 Y14.151
X-58.866 Y14.152
X-58.563 Y14.178
X-58.411 Y14.204
X-58.125 Y14.282
X-57.86 Y14.416
X-57.627 Y14.6
X-57.435 Y14.826
X-57.293 Y15.086
X-57.205 Y15.37
X-57.175 Y15.665
Y17.386
G3 X-57.828 Y17.999 I-0.635 J-0.022
G1 X-62.209 Y17.873
G3 X-62.825 Y17.26 I0.018 J-0.635
G1 Y15.6
X-62.813 Y15.358
X-62.791 Y15.194
X-62.753 Y15.016
X-62.696 Y14.824
X-62.619 Y14.627
X-62.516 Y14.415
X-62.391 Y14.203
X-62.24 Y13.987
X-62.057 Y13.767
X-61.85 Y13.555
X-61.618 Y13.353
X-61.356 Y13.159
X-61.068 Y12.98
X-60.756 Y12.819
X-60.436 Y12.685
X-60.109 Y12.578
X-59.785 Y12.5
X-59.474 Y12.452
X-59.159 Y12.428
X-58.868 Y12.43
X-58.565 Y12.456
X-58.411 Y12.482
X-58.125 Y12.56
X-57.86 Y12.694
X-57.627 Y12.878
X-57.435 Y13.104
X-57.293 Y13.364
X-57.205 Y13.648
X-57.175 Y13.943
Y15.665
G3 X-57.819 Y16.278 I-0.635 J-0.022
G1 X-62.2 Y16.213
G3 X-62.825 Y15.6 I0.009 J-0.635
G1 Y13.817
X-62.816 Y13.635
X-62.794 Y13.471
X-62.756 Y13.293
X-62.699 Y13.101
X-62.622 Y12.905
X-62.519 Y12.692
X-62.395 Y12.481
X-62.243 Y12.265
X-62.06 Y12.045
X-61.854 Y11.833
X-61.622 Y11.63
X-61.36 Y11.436
X-61.071 Y11.257
X-60.759 Y11.096
X-60.438 Y10.962
X-60.112 Y10.855
X-59.786 Y10.777
X-59.476 Y10.729
X-59.16 Y10.705
X-58.869 Y10.707
X-58.565 Y10.733
X-58.411 Y10.759
X-58.125 Y10.837
X-57.86 Y10.971
X-57.627 Y11.155
X-57.435 Y11.381
X-57.293 Y11.641
X-57.205 Y11.925
X-57.175 Y12.22
Y13.943
G3 X-57.828 Y14.556 I-0.635 J-0.022
G1 X-62.209 Y14.43
G3 X-62.825 Y13.817 I0.018 J-0.635
G1 Y12.034
X-62.818 Y11.884
X-62.793 Y11.714
X-62.752 Y11.537
X-62.69 Y11.341
X-62.609 Y11.143
X-62.502 Y10.931
X-62.371 Y10.715
X-62.216 Y10.501
X-62.028 Y10.283
X-61.814 Y10.07
X-61.576 Y9.869
X-61.311 Y9.679
X-61.02 Y9.503
X-60.702 Y9.346
X-60.381 Y9.217
X-60.048 Y9.114
X-59.731 Y9.043
X-59.414 Y8.998
X-59.106 Y8.98
X-58.811 Y8.986
X-58.513 Y9.017
X-58.389 Y9.039
X-58.107 Y9.121
X-57.846 Y9.256
X-57.618 Y9.44
X-57.43 Y9.666
X-57.29 Y9.924
X-57.204 Y10.204
X-57.175 Y10.497
Y12.22
G3 X-57.837 Y12.832 I-0.635 J-0.022
G1 X-62.217 Y12.646
G3 X-62.825 Y12.034 I0.027 J-0.634
G1 Y10.352
X-62.817 Y10.184
X-62.796 Y10.023
X-62.757 Y9.842
X-62.701 Y9.656
X-62.623 Y9.456
X-62.521 Y9.245
X-62.397 Y9.035
X-62.243 Y8.816
X-62.062 Y8.598
X-61.858 Y8.388
X-61.623 Y8.184
X-61.359 Y7.988
X-61.071 Y7.809
X-60.762 Y7.65
X-60.438 Y7.514
X-60.117 Y7.409
X-59.786 Y7.33
X-59.479 Y7.282
X-59.16 Y7.258
X-58.871 Y7.26
X-58.566 Y7.286
X-58.292 Y7.332
X-57.983 Y7.448
X-57.707 Y7.63
X-57.478 Y7.869
X-57.307 Y8.152
X-57.204 Y8.466
X-57.173 Y8.795
X-57.175 Y8.914
Y10.497
G3 X-57.831 Y11.109 I-0.635 J-0.022
G1 X-62.211 Y10.964
G3 X-62.825 Y10.352 I0.021 J-0.635
G1 Y8.691
X-62.813 Y8.461
X-62.792 Y8.297
X-62.754 Y8.12
X-62.697 Y7.928
X-62.62 Y7.732
X-62.517 Y7.52
X-62.393 Y7.309
X-62.242 Y7.094
X-62.06 Y6.874
X-61.853 Y6.662
X-61.622 Y6.46
X-61.36 Y6.266
X-61.071 Y6.087
X-60.76 Y5.926
X-60.429 Y5.788
X-60.107 Y5.683
X-59.784 Y5.606
X-59.464 Y5.556
X-59.169 Y5.534
X-58.853 Y5.535
X-58.572 Y5.56
X-58.282 Y5.608
X-58.007 Y5.678
X-57.98 Y5.687
X-57.683 Y5.826
X-57.423 Y6.027
X-57.215 Y6.281
X-57.067 Y6.574
X-56.988 Y6.892
X-56.98 Y7.22
X-57.045 Y7.542
G3 X-57.463 Y7.936 I-0.598 J-0.215
G1 X-62.011 Y9.278
G3 X-62.825 Y8.691 I-0.18 J-0.609
G1 Y6.908
X-62.817 Y6.741
X-62.795 Y6.577
X-62.757 Y6.4
X-62.7 Y6.207
X-62.623 Y6.011
X-62.52 Y5.798
X-62.395 Y5.586
X-62.243 Y5.37
X-62.061 Y5.15
X-61.854 Y4.938
X-61.621 Y4.735
X-61.36 Y4.542
X-61.07 Y4.361
X-60.759 Y4.201
X-60.428 Y4.063
X-60.08 Y3.949
X-59.731 Y3.865
X-59.397 Y3.813
X-59.057 Y3.788
X-58.753 Y3.789
X-58.43 Y3.817
X-58.144 Y3.865
X-57.855 Y3.938
X-57.58 Y4.031
X-57.333 Y4.138
X-57.076 Y4.274
X-56.958 Y4.349
X-56.725 Y4.533
X-56.534 Y4.76
X-56.391 Y5.021
X-56.303 Y5.304
X-56.274 Y5.6
X-56.304 Y5.895
X-56.392 Y6.179
X-56.535 Y6.439
G3 X-56.945 Y6.688 I-0.51 J-0.378
G1 X-62.09 Y7.513
G3 X-62.825 Y6.908 I-0.101 J-0.627
G1 Y5.126
X-62.818 Y4.976
X-62.791 Y4.803
X-62.749 Y4.626
X-62.684 Y4.428
X-62.602 Y4.229
X-62.492 Y4.016
X-62.357 Y3.798
X-62.198 Y3.582
X-62.004 Y3.359
X-61.783 Y3.143
X-61.538 Y2.938
X-61.261 Y2.743
X-60.957 Y2.563
X-60.627 Y2.402
X-60.278 Y2.266
X-59.912 Y2.156
X-59.532 Y2.074
X-59.141 Y2.022
X-58.743 Y2.001
X-58.341 Y2.012
X-57.966 Y2.053
X-57.597 Y2.124
X-57.271 Y2.214
X-56.949 Y2.332
X-56.668 Y2.461
X-56.387 Y2.618
X-56.147 Y2.779
X-55.907 Y2.97
X-55.704 Y3.16
X-55.508 Y3.374
X-55.34 Y3.591
X-55.196 Y3.877
X-55.118 Y4.187
X-55.109 Y4.507
X-55.171 Y4.821
X-55.299 Y5.114
X-55.489 Y5.372
X-55.73 Y5.582
G3 X-56.068 Y5.682 I-0.343 J-0.534
G1 X-62.185 Y5.738
G3 X-62.825 Y5.126 I-0.006 J-0.635
G1 Y3.443
X-62.817 Y3.282
X-62.796 Y3.119
X-62.756 Y2.935
X-62.7 Y2.748
X-62.62 Y2.542
X-62.518 Y2.333
X-62.39 Y2.114
X-62.231 Y1.888
X-62.048 Y1.668
X-61.829 Y1.443
X-61.576 Y1.223
X-61.299 Y1.017
X-60.985 Y0.822
X-60.633 Y0.641
X-60.256 Y0.483
X-59.857 Y0.353
X-59.436 Y0.252
X-59 Y0.184
X-58.55 Y0.15
X-58.098 Y0.153
X-57.643 Y0.192
X-57.195 Y0.267
X-56.754 Y0.378
X-56.327 Y0.523
X-55.914 Y0.701
X-55.533 Y0.903
X-55.205 Y1.113
X-54.907 Y1.339
X-54.654 Y1.565
X-54.415 Y1.815
X-54.222 Y2.053
X-54.038 Y2.321
X-53.894 Y2.574
X-53.766 Y2.844
X-53.664 Y3.115
X-53.633 Y3.223
X-53.579 Y3.541
X-53.598 Y3.863
X-53.688 Y4.173
X-53.844 Y4.455
X-54.06 Y4.695
X-54.323 Y4.881
X-54.622 Y5.004
X-54.845 Y5.086
G3 X-55.137 Y5.111 I-0.199 J-0.603
G1 X-62.284 Y4.049
G3 X-62.825 Y3.443 I0.093 J-0.628
G1 Y1.66
X-62.818 Y1.51
X-62.793 Y1.342
X-62.751 Y1.154
X-62.689 Y0.956
X-62.605 Y0.747
X-62.494 Y0.524
X-62.359 Y0.301
X-62.187 Y0.062
X-61.99 Y-0.17
X-61.757 Y-0.403
X-61.483 Y-0.637
X-61.182 Y-0.855
X-60.841 Y-1.061
X-60.458 Y-1.254
X-60.041 Y-1.422
X-59.601 Y-1.561
X-59.13 Y-1.668
X-58.629 Y-1.74
X-58.105 Y-1.774
X-57.566 Y-1.764
X-57.02 Y-1.711
X-56.479 Y-1.614
X-55.95 Y-1.474
X-55.441 Y-1.295
X-54.954 Y-1.078
X-54.495 Y-0.828
X-54.064 Y-0.546
X-53.666 Y-0.237
X-53.3 Y0.097
X-52.973 Y0.448
X-52.706 Y0.785
X-52.476 Y1.129
X-52.298 Y1.448
X-52.145 Y1.782
X-52.034 Y2.085
X-51.944 Y2.413
X-51.888 Y2.709
X-51.855 Y3.018
X-51.847 Y3.314
X-51.853 Y3.426
X-51.903 Y3.737
X-52.017 Y4.031
X-52.192 Y4.293
X-52.418 Y4.513
X-52.685 Y4.68
X-52.982 Y4.787
X-53.294 Y4.829
X-53.63 Y4.837
G3 X-53.806 Y4.811 I0.006 J-0.635
G1 X-53.874 Y4.79
X-62.372 Y2.246
G3 X-62.825 Y1.66 I0.182 J-0.608
G1 Y-0.123
X-62.818 Y-0.272
X-62.794 Y-0.445
X-62.751 Y-0.639
X-62.69 Y-0.839
X-62.602 Y-1.061
X-62.493 Y-1.283
X-62.348 Y-1.526
X-62.178 Y-1.765
X-61.97 Y-2.013
X-61.722 Y-2.264
X-61.445 Y-2.502
X-61.117 Y-2.742
X-60.747 Y-2.969
X-60.347 Y-3.172
X-59.894 Y-3.359
X-59.393 Y-3.519
X-58.864 Y-3.642
X-58.308 Y-3.726
X-58.185 Y-3.734
X-57.899 Y-3.725
X-57.621 Y-3.657
X-57.363 Y-3.534
X-57.134 Y-3.362
X-56.946 Y-3.146
X-56.805 Y-2.897
X-56.684 Y-2.674
X-56.628 Y-2.575
X-56.544 Y-2.451
X-56.387 Y-2.229
X-56.182 Y-1.995
X-55.959 Y-1.783
X-55.737 Y-1.587
X-55.291 Y-1.292
X-55.179 Y-1.233
X-55.068 Y-1.179
X-54.845 Y-1.083
X-54.622 Y-1.005
X-54.399 Y-0.94
X-54.176 Y-0.889
X-53.953 Y-0.857
X-53.73 Y-0.84
X-53.384 Y-0.831
X-53.227 Y-0.819
X-53.037 Y-0.789
X-52.832 Y-0.74
X-52.612 Y-0.668
X-52.39 Y-0.574
X-52.151 Y-0.451
X-51.913 Y-0.302
X-51.678 Y-0.128
X-51.442 Y0.079
X-51.212 Y0.315
X-50.996 Y0.576
X-50.796 Y0.861
X-50.615 Y1.169
X-50.469 Y1.47
X-50.343 Y1.795
X-50.256 Y2.089
X-50.188 Y2.407
X-50.15 Y2.698
X-50.136 Y2.996
X-50.145 Y3.287
X-50.175 Y3.558
X-50.188 Y3.626
X-50.272 Y3.905
X-50.408 Y4.163
X-50.593 Y4.389
X-50.817 Y4.574
X-51.074 Y4.712
X-51.353 Y4.796
X-51.643 Y4.825
X-53.061
X-53.294 Y4.829
G3 X-53.923 Y4.207 I0.006 J-0.635
G1 X-54.014 Y-0.183
G3 X-53.384 Y-0.831 I0.635 J-0.013
G1 X-53.284 Y-0.828
X-53.061 Y-0.825
X-51.601
X-51.419 Y-0.816
X-51.243 Y-0.793
X-51.057 Y-0.753
X-50.858 Y-0.694
X-50.646 Y-0.611
X-50.434 Y-0.508
X-50.21 Y-0.376
X-49.985 Y-0.218
X-49.766 Y-0.037
X-49.549 Y0.175
X-49.34 Y0.415
X-49.143 Y0.681
X-48.964 Y0.969
X-48.805 Y1.278
X-48.669 Y1.602
X-48.566 Y1.917
X-48.488 Y2.242
X-48.441 Y2.544
X-48.418 Y2.859
X-48.419 Y3.146
X-48.445 Y3.447
X-48.469 Y3.589
X-48.547 Y3.875
X-48.681 Y4.14
X-48.865 Y4.373
X-49.091 Y4.565
X-49.352 Y4.707
X-49.635 Y4.795
X-49.93 Y4.825
X-51.643
G3 X-52.256 Y4.184 I0.022 J-0.635
G1 X-52.214 Y-0.196
G3 X-51.601 Y-0.825 I0.635 J0.006
G1 X-49.817
X-49.643 Y-0.816
X-49.478 Y-0.795
X-49.297 Y-0.756
X-49.103 Y-0.698
X-48.904 Y-0.62
X-48.689 Y-0.516
X-48.476 Y-0.391
X-48.258 Y-0.237
X-48.036 Y-0.053
X-47.824 Y0.154
X-47.621 Y0.387
X-47.426 Y0.65
X-47.246 Y0.939
X-47.085 Y1.251
X-46.951 Y1.571
X-46.845 Y1.897
X-46.767 Y2.22
X-46.719 Y2.53
X-46.696 Y2.844
X-46.697 Y3.135
X-46.723 Y3.438
X-46.749 Y3.589
X-46.827 Y3.875
X-46.961 Y4.14
X-47.145 Y4.373
X-47.371 Y4.565
X-47.631 Y4.707
X-47.915 Y4.795
X-48.21 Y4.825
X-49.93
G3 X-50.543 Y4.174 I0.022 J-0.635
G1 X-50.43 Y-0.207
G3 X-49.817 Y-0.825 I0.635 J0.016
G1 X-48.034
X-47.884 Y-0.817
X-47.734 Y-0.807
X-47.586 Y-0.785
X-47.439 Y-0.753
X-47.295 Y-0.712
X-47.154 Y-0.662
X-47.015 Y-0.604
X-46.88 Y-0.539
X-46.749 Y-0.467
X-46.621 Y-0.389
X-46.497 Y-0.305
X-46.377 Y-0.215
X-46.261 Y-0.12
X-46.149 Y-0.02
X-46.041 Y0.085
X-45.938 Y0.193
X-45.839 Y0.306
X-45.744 Y0.423
X-45.654 Y0.542
X-45.568 Y0.665
X-45.487 Y0.792
X-45.41 Y0.92
X-45.338 Y1.052
X-45.27 Y1.186
X-45.207 Y1.322
X-45.149 Y1.46
X-45.096 Y1.6
X-45.047 Y1.742
X-45.003 Y1.886
X-44.965 Y2.031
X-44.931 Y2.177
X-44.903 Y2.324
X-44.88 Y2.472
X-44.863 Y2.622
X-44.851 Y2.771
X-44.845 Y2.921
Y3.071
X-44.852 Y3.221
X-44.863 Y3.37
X-44.881 Y3.519
X-44.89 Y3.577
X-44.967 Y3.866
X-45.1 Y4.133
X-45.283 Y4.368
X-45.51 Y4.562
X-45.772 Y4.706
X-46.056 Y4.795
X-46.353 Y4.825
X-48.21
X-48.264 Y4.813 Z-5.494
X-48.315 Y4.802 Z-5.475
X-48.361 Y4.793 Z-5.445
X-48.399 Y4.784 Z-5.406
X-48.428 Y4.778 Z-5.359
X-48.445 Y4.771 Z-5.306
X-48.451 Y4.768 Z-5.251
G0 Z5
X-38.34 Y5.473
Z-4.865
G1 Z-5.5 F1016
G3 X-38.57 Y5.38 I0.119 J-0.624
G1 X-38.614 Y5.348
X-38.793 Y5.251
X-39.016 Y5.142
X-39.239 Y5.05
X-39.461 Y4.979
X-39.684 Y4.921
X-39.767 Y4.903
X-39.907 Y4.877
X-40.353 Y4.841
X-40.576 Y4.825
X-46.353
X-46.409 Y4.812 Z-5.493
X-46.462 Y4.799 Z-5.473
X-46.509 Y4.788 Z-5.441
X-46.547 Y4.779 Z-5.399
X-46.568 Y4.769 Z-5.361
X-46.582 Y4.762 Z-5.32
X-46.588 Y4.758 Z-5.286
X-46.591 Y4.757 Z-5.251
G0 Z5
X-48.275 Y-0.768
Z-4.865
G1 Z-5.5 F1016
G3 X-48.034 Y-0.825 I0.263 J0.578
G1 X-46.25
X-40.576
X-40.353 Y-0.841
X-40.13 Y-0.859
X-40.101 Y-0.86 Z-5.498
X-40.043 Y-0.85 Z-5.484
X-39.991 Y-0.841 Z-5.456
X-39.947 Y-0.833 Z-5.416
X-39.913 Y-0.827 Z-5.366
X-39.892 Y-0.823 Z-5.31
X-39.885 Y-0.822 Z-5.251
G0 Z5
X-37.847 Y-0.908
Z-4.23
G1 Z-4.865 F1016
X-37.851 Y-0.915 Z-4.964
X-37.863 Y-0.935 Z-5.061
X-37.882 Y-0.968 Z-5.153
X-37.908 Y-1.014 Z-5.238
X-37.94 Y-1.07 Z-5.314
X-37.977 Y-1.135 Z-5.379
X-38.02 Y-1.209 Z-5.431
X-38.066 Y-1.289 Z-5.469
X-38.114 Y-1.373 Z-5.492
X-38.163 Y-1.459 Z-5.5
G3 X-38.124 Y-1.705 I0.172 J-0.099
G1 X-38.032 Y-1.783
X-37.901 Y-1.903
X-37.809 Y-2.006
X-37.614 Y-2.229
X-37.455 Y-2.452
X-37.314 Y-2.674
X-37.232 Y-2.826
X-37.149 Y-2.964
X-37.06 Y-3.086
X-36.947 Y-3.219
X-36.818 Y-3.348
X-36.659 Y-3.482
X-36.484 Y-3.608
X-36.28 Y-3.731
X-36.049 Y-3.846
X-35.801 Y-3.946
X-35.52 Y-4.034
X-35.215 Y-4.102
X-34.897 Y-4.148
X-34.551 Y-4.169
X-34.183 Y-4.162
X-33.804 Y-4.124
X-33.418 Y-4.053
X-33.021 Y-3.948
X-32.616 Y-3.804
X-32.21 Y-3.622
X-31.944 Y-3.477
X-31.685 Y-3.296
X-31.47 Y-3.064
X-31.308 Y-2.792
X-31.209 Y-2.492
X-31.175 Y-2.177
Y0.507
G3 X-32.146 Y1.024 I-0.635 J-0.022
G1 X-36.999 Y-2.005
G3 X-37.232 Y-2.826 I0.336 J-0.539
G1 X-37.194 Y-2.897
X-37.097 Y-3.12
X-37.017 Y-3.343
X-37.009 Y-3.366
X-36.949 Y-3.566
X-36.896 Y-3.789
X-36.862 Y-3.935
X-36.812 Y-4.076
X-36.749 Y-4.212
X-36.672 Y-4.347
X-36.572 Y-4.494
X-36.454 Y-4.641
X-36.312 Y-4.79
X-36.143 Y-4.942
X-35.955 Y-5.085
X-35.732 Y-5.229
X-35.488 Y-5.36
X-35.215 Y-5.479
X-34.906 Y-5.585
X-34.579 Y-5.668
X-34.222 Y-5.729
X-33.829 Y-5.765
X-33.428 Y-5.768
X-33.038 Y-5.74
X-32.659 Y-5.683
X-32.325 Y-5.604
X-32.202 Y-5.564
X-31.918 Y-5.438
X-31.667 Y-5.256
X-31.459 Y-5.026
X-31.303 Y-4.757
X-31.207 Y-4.462
X-31.175 Y-4.154
Y-2.177
G3 X-32.017 Y-1.599 I-0.635 J-0.022
G1 X-36.471 Y-3.14
G3 X-36.896 Y-3.789 I0.208 J-0.6
G1 X-36.872 Y-4.011
X-36.827 Y-4.457
X-36.825 Y-4.68
Y-4.803
X-36.817 Y-4.963
X-36.798 Y-5.111
X-36.764 Y-5.258
X-36.717 Y-5.404
X-36.651 Y-5.566
X-36.568 Y-5.729
X-36.46 Y-5.905
X-36.332 Y-6.082
X-36.178 Y-6.26
X-35.992 Y-6.444
X-35.785 Y-6.619
X-35.541 Y-6.793
X-35.268 Y-6.956
X-34.972 Y-7.103
X-34.641 Y-7.234
X-34.283 Y-7.344
X-33.932 Y-7.422
X-33.576 Y-7.471
X-33.241 Y-7.49
X-32.916 Y-7.482
X-32.599 Y-7.449
X-32.309 Y-7.395
X-32.27 Y-7.385
X-31.97 Y-7.267
X-31.702 Y-7.088
X-31.48 Y-6.855
X-31.313 Y-6.58
X-31.21 Y-6.275
X-31.175 Y-5.955
Y-4.154
G3 X-31.903 Y-3.548 I-0.635 J-0.022
G1 X-36.284 Y-4.196
G3 X-36.825 Y-4.803 I0.093 J-0.628
G1 Y-6.24
X-36.816 Y-6.428
X-36.796 Y-6.581
X-36.762 Y-6.738
X-36.71 Y-6.912
X-36.639 Y-7.093
X-36.547 Y-7.284
X-36.428 Y-7.485
X-36.288 Y-7.684
X-36.116 Y-7.892
X-35.918 Y-8.095
X-35.694 Y-8.291
X-35.437 Y-8.48
X-35.152 Y-8.658
X-34.845 Y-8.816
X-34.518 Y-8.953
X-34.175 Y-9.065
X-33.853 Y-9.142
X-33.514 Y-9.195
X-33.212 Y-9.218
X-32.89 Y-9.216
X-32.599 Y-9.191
X-32.309 Y-9.142
X-32.295 Y-9.138
X-31.989 Y-9.024
X-31.716 Y-8.846
X-31.488 Y-8.612
X-31.317 Y-8.334
X-31.211 Y-8.026
X-31.175 Y-7.701
Y-5.955
G3 X-31.851 Y-5.343 I-0.635 J-0.022
G1 X-36.232 Y-5.628
G3 X-36.825 Y-6.24 I0.041 J-0.634
G1 Y-7.922
X-36.818 Y-8.072
X-36.794 Y-8.238
X-36.756 Y-8.408
X-36.697 Y-8.598
X-36.619 Y-8.79
X-36.517 Y-8.995
X-36.389 Y-9.208
X-36.238 Y-9.418
X-36.057 Y-9.632
X-35.845 Y-9.844
X-35.611 Y-10.044
X-35.35 Y-10.233
X-35.059 Y-10.41
X-34.745 Y-10.568
X-34.41 Y-10.704
X-34.089 Y-10.805
X-33.759 Y-10.88
X-33.441 Y-10.927
X-33.141 Y-10.946
X-32.826 Y-10.941
X-32.547 Y-10.914
X-32.396 Y-10.887
X-32.113 Y-10.806
X-31.851 Y-10.672
X-31.621 Y-10.488
X-31.432 Y-10.262
X-31.291 Y-10.003
X-31.204 Y-9.721
X-31.175 Y-9.428
Y-7.701
G3 X-31.842 Y-7.089 I-0.635 J-0.022
G1 X-36.222 Y-7.31
G3 X-36.825 Y-7.922 I0.032 J-0.634
G1 Y-9.583
X-36.816 Y-9.753
X-36.795 Y-9.913
X-36.758 Y-10.091
X-36.701 Y-10.279
X-36.625 Y-10.475
X-36.522 Y-10.686
X-36.399 Y-10.895
X-36.247 Y-11.112
X-36.066 Y-11.33
X-35.861 Y-11.54
X-35.628 Y-11.743
X-35.366 Y-11.937
X-35.076 Y-12.117
X-34.767 Y-12.277
X-34.445 Y-12.412
X-34.121 Y-12.518
X-33.791 Y-12.597
X-33.482 Y-12.645
X-33.163 Y-12.669
X-32.873 Y-12.667
X-32.568 Y-12.641
X-32.295 Y-12.595
X-31.989 Y-12.481
X-31.716 Y-12.303
X-31.488 Y-12.069
X-31.317 Y-11.791
X-31.211 Y-11.482
X-31.175 Y-11.158
Y-9.428
G3 X-31.832 Y-8.816 I-0.635 J-0.022
G1 X-36.213 Y-8.97
G3 X-36.825 Y-9.583 I0.022 J-0.635
G1 Y-11.366
X-36.818 Y-11.515
X-36.79 Y-11.689
X-36.747 Y-11.866
X-36.682 Y-12.064
X-36.598 Y-12.264
X-36.488 Y-12.474
X-36.351 Y-12.693
X-36.193 Y-12.906
X-36.003 Y-13.122
X-35.783 Y-13.335
X-35.54 Y-13.536
X-35.272 Y-13.723
X-34.978 Y-13.895
X-34.659 Y-14.049
X-34.32 Y-14.18
X-34.008 Y-14.273
X-33.674 Y-14.343
X-33.368 Y-14.382
X-33.061 Y-14.397
X-32.758 Y-14.387
X-32.481 Y-14.355
X-32.371 Y-14.334
X-32.093 Y-14.25
X-31.836 Y-14.113
X-31.611 Y-13.929
X-31.426 Y-13.704
X-31.288 Y-13.448
X-31.204 Y-13.169
X-31.175 Y-12.88
Y-11.158
G3 X-31.84 Y-10.546 I-0.635 J-0.022
G1 X-36.22 Y-10.753
G3 X-36.825 Y-11.366 I0.03 J-0.634
G1 Y-13.048
X-36.818 Y-13.198
X-36.796 Y-13.359
X-36.756 Y-13.541
X-36.7 Y-13.726
X-36.62 Y-13.929
X-36.519 Y-14.137
X-36.392 Y-14.35
X-36.237 Y-14.57
X-36.057 Y-14.785
X-35.85 Y-14.996
X-35.613 Y-15.202
X-35.347 Y-15.396
X-35.06 Y-15.574
X-34.751 Y-15.732
X-34.424 Y-15.867
X-34.105 Y-15.971
X-33.773 Y-16.049
X-33.468 Y-16.096
X-33.148 Y-16.119
X-32.859 Y-16.116
X-32.554 Y-16.089
X-32.406 Y-16.063
X-32.121 Y-15.985
X-31.857 Y-15.85
X-31.625 Y-15.667
X-31.434 Y-15.44
X-31.292 Y-15.18
X-31.205 Y-14.898
X-31.175 Y-14.603
Y-12.88
G3 X-31.834 Y-12.267 I-0.635 J-0.022
G1 X-36.215 Y-12.436
G3 X-36.825 Y-13.048 I0.024 J-0.635
G1 Y-14.708
X-36.815 Y-14.916
X-36.793 Y-15.079
X-36.755 Y-15.256
X-36.698 Y-15.448
X-36.622 Y-15.644
X-36.518 Y-15.856
X-36.394 Y-16.067
X-36.243 Y-16.283
X-36.06 Y-16.503
X-35.854 Y-16.714
X-35.623 Y-16.916
X-35.36 Y-17.11
X-35.072 Y-17.29
X-34.76 Y-17.45
X-34.439 Y-17.585
X-34.113 Y-17.691
X-33.787 Y-17.769
X-33.477 Y-17.818
X-33.161 Y-17.841
X-32.87 Y-17.84
X-32.566 Y-17.813
X-32.411 Y-17.787
X-32.125 Y-17.709
X-31.86 Y-17.575
X-31.627 Y-17.392
X-31.435 Y-17.165
X-31.293 Y-16.905
X-31.205 Y-16.621
X-31.175 Y-16.326
Y-14.603
G3 X-31.825 Y-13.99 I-0.635 J-0.022
G1 X-36.206 Y-14.096
G3 X-36.825 Y-14.708 I0.015 J-0.635
G1 Y-16.491
X-36.818 Y-16.641
X-36.795 Y-16.806
X-36.757 Y-16.983
X-36.698 Y-17.177
X-36.621 Y-17.373
X-36.517 Y-17.585
X-36.391 Y-17.798
X-36.239 Y-18.013
X-36.056 Y-18.233
X-35.847 Y-18.445
X-35.615 Y-18.647
X-35.352 Y-18.84
X-35.063 Y-19.019
X-34.749 Y-19.179
X-34.428 Y-19.312
X-34.1 Y-19.418
X-33.776 Y-19.495
X-33.464 Y-19.543
X-33.15 Y-19.565
X-32.858 Y-19.562
X-32.555 Y-19.535
X-32.407 Y-19.51
X-32.121 Y-19.431
X-31.857 Y-19.297
X-31.625 Y-19.113
X-31.434 Y-18.887
X-31.292 Y-18.627
X-31.205 Y-18.344
X-31.175 Y-18.05
Y-16.326
G3 X-31.834 Y-15.714 I-0.635 J-0.022
G1 X-36.214 Y-15.879
G3 X-36.825 Y-16.491 I0.024 J-0.635
G1 Y-18.174
X-36.816 Y-18.361
X-36.794 Y-18.524
X-36.756 Y-18.702
X-36.699 Y-18.893
X-36.622 Y-19.09
X-36.519 Y-19.302
X-36.395 Y-19.513
X-36.243 Y-19.729
X-36.061 Y-19.949
X-35.855 Y-20.16
X-35.623 Y-20.362
X-35.36 Y-20.557
X-35.072 Y-20.736
X-34.761 Y-20.897
X-34.439 Y-21.031
X-34.113 Y-21.138
X-33.787 Y-21.216
X-33.477 Y-21.264
X-33.161 Y-21.288
X-32.87 Y-21.286
X-32.566 Y-21.26
X-32.411 Y-21.234
X-32.125 Y-21.156
X-31.86 Y-21.022
X-31.627 Y-20.838
X-31.435 Y-20.612
X-31.293 Y-20.351
X-31.205 Y-20.068
X-31.175 Y-19.773
Y-18.05
G3 X-31.828 Y-17.437 I-0.635 J-0.022
G1 X-36.208 Y-17.561
G3 X-36.825 Y-18.174 I0.018 J-0.635
G1 Y-19.957
X-36.818 Y-20.106
X-36.793 Y-20.276
X-36.753 Y-20.453
X-36.691 Y-20.649
X-36.611 Y-20.846
X-36.504 Y-21.058
X-36.374 Y-21.274
X-36.219 Y-21.487
X-36.032 Y-21.706
X-35.819 Y-21.919
X-35.582 Y-22.12
X-35.317 Y-22.311
X-35.026 Y-22.486
X-34.709 Y-22.645
X-34.387 Y-22.774
X-34.055 Y-22.877
X-33.737 Y-22.949
X-33.421 Y-22.994
X-33.112 Y-23.013
X-32.817 Y-23.007
X-32.518 Y-22.977
X-32.391 Y-22.954
X-32.109 Y-22.873
X-31.848 Y-22.738
X-31.619 Y-22.554
X-31.43 Y-22.328
X-31.29 Y-22.07
X-31.204 Y-21.789
X-31.175 Y-21.496
Y-19.773
G3 X-31.836 Y-19.16 I-0.635 J-0.022
G1 X-36.217 Y-19.344
G3 X-36.825 Y-19.957 I0.027 J-0.634
G1 Y-21.617
X-36.815 Y-21.81
X-36.794 Y-21.971
X-36.756 Y-22.151
X-36.7 Y-22.338
X-36.622 Y-22.538
X-36.52 Y-22.749
X-36.396 Y-22.958
X-36.242 Y-23.177
X-36.061 Y-23.396
X-35.857 Y-23.605
X-35.623 Y-23.809
X-35.359 Y-24.004
X-35.071 Y-24.184
X-34.761 Y-24.343
X-34.438 Y-24.479
X-34.116 Y-24.584
X-33.786 Y-24.663
X-33.479 Y-24.711
X-33.16 Y-24.735
X-32.87 Y-24.733
X-32.566 Y-24.707
X-32.411 Y-24.681
X-32.125 Y-24.603
X-31.86 Y-24.469
X-31.627 Y-24.285
X-31.435 Y-24.058
X-31.293 Y-23.798
X-31.205 Y-23.515
X-31.175 Y-23.22
Y-21.496
G3 X-31.827 Y-20.884 I-0.635 J-0.022
G1 X-36.208 Y-21.004
G3 X-36.825 Y-21.617 I0.017 J-0.635
G1 Y-23.4
X-36.818 Y-23.549
X-36.793 Y-23.718
X-36.753 Y-23.895
X-36.692 Y-24.091
X-36.613 Y-24.287
X-36.507 Y-24.5
X-36.377 Y-24.715
X-36.223 Y-24.929
X-36.037 Y-25.148
X-35.824 Y-25.361
X-35.589 Y-25.562
X-35.324 Y-25.753
X-35.033 Y-25.929
X-34.717 Y-26.088
X-34.396 Y-26.218
X-34.064 Y-26.322
X-33.745 Y-26.394
X-33.429 Y-26.44
X-33.238 Y-26.452
X-32.946 Y-26.442
X-32.663 Y-26.375
X-32.398 Y-26.253
X-32.162 Y-26.082
G3 X-32.267 Y-25.081 I-0.437 J0.46
G1 X-35.859 Y-22.88
G3 X-36.825 Y-23.4 I-0.332 J-0.541
G1 Y-23.623
X-36.812 Y-23.845
X-36.736 Y-24.514
X-36.721 Y-24.625
X-36.691 Y-24.737
X-36.522 Y-25.182
X-36.475 Y-25.294
X-36.405 Y-25.405
X-36.251 Y-25.628
X-36.117 Y-25.819
X-36.091 Y-25.851
X-35.894 Y-26.033
X-35.671 Y-26.23
X-35.59 Y-26.297
X-35.448 Y-26.377
X-35.176 Y-26.52
X-35.003 Y-26.607
X-34.78 Y-26.669
X-34.48 Y-26.742
X-34.334 Y-26.773
X-34.111 Y-26.778
X-33.888
X-33.665 Y-26.773
X-33.52 Y-26.742
X-33.219 Y-26.668
X-32.996 Y-26.606
X-32.824 Y-26.52
X-32.55 Y-26.376
X-32.411 Y-26.297
X-32.327 Y-26.229
X-32.104 Y-26.031
X-31.909 Y-25.851
X-31.881 Y-25.818
X-31.658 Y-25.497
X-31.595 Y-25.405
X-31.525 Y-25.294
X-31.478 Y-25.182
X-31.309 Y-24.737
X-31.291 Y-24.681
X-31.279 Y-24.625
X-31.264 Y-24.514
X-31.188 Y-23.845
X-31.175 Y-23.623
Y-23.22
X-31.187 Y-23.166 Z-5.494
X-31.198 Y-23.114 Z-5.475
X-31.207 Y-23.068 Z-5.445
X-31.216 Y-23.03 Z-5.406
X-31.222 Y-23.001 Z-5.359
X-31.229 Y-22.984 Z-5.306
X-31.232 Y-22.978 Z-5.251
G0 Z5
X-62.757 Y0.115
Z-4.865
G1 Z-5.5 F1016
G3 X-62.825 Y-0.123 I0.439 J-0.255
G1 Y-1.905
X-62.815 Y-2.102
X-62.791 Y-2.283
X-62.75 Y-2.477
X-62.687 Y-2.689
X-62.599 Y-2.913
X-62.486 Y-3.147
X-62.338 Y-3.397
X-62.164 Y-3.646
X-61.942 Y-3.913
X-61.692 Y-4.169
X-61.391 Y-4.432
X-61.043 Y-4.689
X-60.674 Y-4.919
X-60.31 Y-5.107
X-59.961 Y-5.253
X-59.617 Y-5.365
X-59.29 Y-5.443
X-58.967 Y-5.494
X-58.654 Y-5.517
X-58.611
X-58.303 Y-5.483
X-58.01 Y-5.385
X-57.742 Y-5.229
X-57.513 Y-5.021
X-57.333 Y-4.769
X-57.208 Y-4.486
X-57.145 Y-4.183
X-57.136 Y-4.088
G3 X-57.495 Y-3.475 I-0.634 J0.041
G1 X-61.916 Y-1.355
G3 X-62.825 Y-1.905 I-0.275 J-0.573
G1 Y-3.789
X-62.815 Y-3.994
X-62.79 Y-4.185
X-62.747 Y-4.383
X-62.681 Y-4.604
X-62.593 Y-4.831
X-62.477 Y-5.07
X-62.329 Y-5.32
X-62.157 Y-5.565
X-61.953 Y-5.812
X-61.715 Y-6.055
X-61.449 Y-6.288
X-61.158 Y-6.503
X-60.853 Y-6.693
X-60.55 Y-6.849
X-60.238 Y-6.979
X-59.945 Y-7.075
X-59.632 Y-7.15
X-59.348 Y-7.195
X-59.042 Y-7.217
X-58.763 Y-7.216
X-58.478 Y-7.191
X-58.411 Y-7.18
X-58.125 Y-7.102
X-57.86 Y-6.968
X-57.627 Y-6.784
X-57.435 Y-6.558
X-57.293 Y-6.297
X-57.205 Y-6.014
X-57.175 Y-5.719
Y-4.68
X-57.173 Y-4.457
X-57.145 Y-4.183
G3 X-57.732 Y-3.508 I-0.634 J0.041
G1 X-62.143 Y-3.177
G3 X-62.825 Y-3.789 I-0.047 J-0.633
G1 Y-5.694
X-62.815 Y-5.893
X-62.792 Y-6.069
X-62.75 Y-6.265
X-62.69 Y-6.466
X-62.605 Y-6.684
X-62.498 Y-6.904
X-62.366 Y-7.128
X-62.205 Y-7.358
X-62.017 Y-7.584
X-61.805 Y-7.802
X-61.565 Y-8.011
X-61.297 Y-8.209
X-61.004 Y-8.392
X-60.69 Y-8.553
X-60.377 Y-8.685
X-60.055 Y-8.789
X-59.743 Y-8.864
X-59.436 Y-8.912
X-59.13 Y-8.935
X-58.842 Y-8.934
X-58.545 Y-8.908
X-58.411 Y-8.885
X-58.125 Y-8.807
X-57.86 Y-8.674
X-57.627 Y-8.49
X-57.435 Y-8.263
X-57.293 Y-8.003
X-57.205 Y-7.72
X-57.175 Y-7.424
Y-5.719
G3 X-57.806 Y-5.106 I-0.635 J-0.022
G1 X-62.187 Y-5.081
G3 X-62.825 Y-5.694 I-0.004 J-0.635
G1 Y-7.577
X-62.818 Y-7.727
X-62.792 Y-7.898
X-62.749 Y-8.083
X-62.685 Y-8.283
X-62.602 Y-8.486
X-62.492 Y-8.703
X-62.358 Y-8.921
X-62.199 Y-9.139
X-62.009 Y-9.361
X-61.792 Y-9.575
X-61.552 Y-9.777
X-61.284 Y-9.968
X-60.991 Y-10.143
X-60.673 Y-10.3
X-60.355 Y-10.426
X-60.023 Y-10.528
X-59.71 Y-10.597
X-59.393 Y-10.641
X-59.089 Y-10.658
X-58.793 Y-10.652
X-58.499 Y-10.621
X-58.385 Y-10.6
X-58.104 Y-10.518
X-57.844 Y-10.382
X-57.616 Y-10.198
X-57.429 Y-9.973
X-57.29 Y-9.715
X-57.204 Y-9.435
X-57.175 Y-9.143
Y-7.424
G3 X-57.832 Y-6.812 I-0.635 J-0.022
G1 X-62.213 Y-6.965
G3 X-62.825 Y-7.577 I0.022 J-0.635
G1 Y-9.26
X-62.816 Y-9.445
X-62.795 Y-9.607
X-62.755 Y-9.79
X-62.699 Y-9.976
X-62.621 Y-10.179
X-62.518 Y-10.39
X-62.394 Y-10.6
X-62.239 Y-10.822
X-62.058 Y-11.039
X-61.854 Y-11.249
X-61.618 Y-11.455
X-61.353 Y-11.65
X-61.066 Y-11.829
X-60.757 Y-11.989
X-60.433 Y-12.124
X-60.112 Y-12.229
X-59.782 Y-12.308
X-59.476 Y-12.356
X-59.158 Y-12.38
X-58.868 Y-12.378
X-58.564 Y-12.352
X-58.411 Y-12.326
X-58.125 Y-12.248
X-57.86 Y-12.114
X-57.627 Y-11.93
X-57.435 Y-11.704
X-57.293 Y-11.444
X-57.205 Y-11.16
X-57.175 Y-10.865
Y-9.143
G3 X-57.826 Y-8.531 I-0.635 J-0.022
G1 X-62.207 Y-8.647
G3 X-62.825 Y-9.26 I0.017 J-0.635
G1 Y-11.042
X-62.818 Y-11.192
X-62.793 Y-11.361
X-62.753 Y-11.538
X-62.692 Y-11.734
X-62.613 Y-11.931
X-62.506 Y-12.144
X-62.376 Y-12.359
X-62.222 Y-12.573
X-62.036 Y-12.793
X-61.823 Y-13.006
X-61.587 Y-13.207
X-61.322 Y-13.398
X-61.032 Y-13.574
X-60.715 Y-13.733
X-60.394 Y-13.863
X-60.063 Y-13.967
X-59.743 Y-14.039
X-59.428 Y-14.085
X-59.119 Y-14.104
X-58.824 Y-14.099
X-58.525 Y-14.07
X-58.394 Y-14.046
X-58.111 Y-13.966
X-57.85 Y-13.831
X-57.62 Y-13.647
X-57.431 Y-13.421
X-57.291 Y-13.162
X-57.204 Y-12.881
X-57.175 Y-12.588
Y-10.865
G3 X-57.835 Y-10.253 I-0.635 J-0.022
G1 X-62.216 Y-10.43
G3 X-62.825 Y-11.042 I0.026 J-0.634
G1 Y-12.703
X-62.815 Y-12.901
X-62.794 Y-13.062
X-62.755 Y-13.242
X-62.699 Y-13.43
X-62.622 Y-13.629
X-62.519 Y-13.84
X-62.396 Y-14.05
X-62.242 Y-14.269
X-62.061 Y-14.487
X-61.856 Y-14.697
X-61.622 Y-14.901
X-61.359 Y-15.096
X-61.07 Y-15.275
X-60.761 Y-15.435
X-60.438 Y-15.57
X-60.115 Y-15.676
X-59.786 Y-15.754
X-59.478 Y-15.803
X-59.16 Y-15.826
X-58.87 Y-15.825
X-58.566 Y-15.798
X-58.411 Y-15.772
X-58.125 Y-15.694
X-57.86 Y-15.56
X-57.627 Y-15.377
X-57.435 Y-15.15
X-57.293 Y-14.89
X-57.205 Y-14.606
X-57.175 Y-14.311
Y-12.588
G3 X-57.826 Y-11.976 I-0.635 J-0.022
G1 X-62.207 Y-12.09
G3 X-62.825 Y-12.703 I0.017 J-0.635
G1 Y-14.486
X-62.818 Y-14.635
X-62.794 Y-14.803
X-62.755 Y-14.98
X-62.695 Y-15.175
X-62.616 Y-15.371
X-62.511 Y-15.584
X-62.382 Y-15.798
X-62.229 Y-16.012
X-62.044 Y-16.232
X-61.833 Y-16.444
X-61.598 Y-16.645
X-61.334 Y-16.837
X-61.044 Y-17.014
X-60.729 Y-17.174
X-60.407 Y-17.305
X-60.077 Y-17.41
X-59.756 Y-17.484
X-59.442 Y-17.53
X-59.131 Y-17.551
X-58.838 Y-17.547
X-58.537 Y-17.518
X-58.399 Y-17.494
X-58.115 Y-17.414
X-57.853 Y-17.279
X-57.622 Y-17.095
X-57.432 Y-16.869
X-57.291 Y-16.61
X-57.204 Y-16.328
X-57.175 Y-16.035
Y-14.311
G3 X-57.835 Y-13.699 I-0.635 J-0.022
G1 X-62.216 Y-13.873
G3 X-62.825 Y-14.486 I0.025 J-0.634
G1 Y-16.168
X-62.816 Y-16.347
X-62.795 Y-16.509
X-62.757 Y-16.688
X-62.7 Y-16.877
X-62.623 Y-17.075
X-62.52 Y-17.287
X-62.396 Y-17.497
X-62.243 Y-17.715
X-62.061 Y-17.934
X-61.856 Y-18.144
X-61.623 Y-18.347
X-61.36 Y-18.542
X-61.071 Y-18.722
X-60.761 Y-18.882
X-60.439 Y-19.017
X-60.115 Y-19.122
X-59.787 Y-19.201
X-59.478 Y-19.249
X-59.161 Y-19.273
X-58.87 Y-19.271
X-58.566 Y-19.245
X-58.411 Y-19.219
X-58.125 Y-19.141
X-57.86 Y-19.007
X-57.627 Y-18.823
X-57.435 Y-18.597
X-57.293 Y-18.337
X-57.205 Y-18.053
X-57.175 Y-17.758
Y-16.035
G3 X-57.829 Y-15.422 I-0.635 J-0.022
G1 X-62.21 Y-15.556
G3 X-62.825 Y-16.168 I0.019 J-0.635
G1 Y-17.828
X-62.813 Y-18.07
X-62.791 Y-18.235
X-62.754 Y-18.411
X-62.696 Y-18.604
X-62.62 Y-18.799
X-62.517 Y-19.011
X-62.393 Y-19.222
X-62.241 Y-19.437
X-62.059 Y-19.657
X-61.852 Y-19.869
X-61.621 Y-20.071
X-61.359 Y-20.265
X-61.071 Y-20.444
X-60.759 Y-20.605
X-60.438 Y-20.739
X-60.111 Y-20.846
X-59.786 Y-20.924
X-59.476 Y-20.972
X-59.16 Y-20.996
X-58.869 Y-20.994
X-58.565 Y-20.968
X-58.411 Y-20.942
X-58.125 Y-20.864
X-57.86 Y-20.73
X-57.627 Y-20.546
X-57.435 Y-20.32
X-57.293 Y-20.059
X-57.205 Y-19.776
X-57.175 Y-19.481
Y-17.758
G3 X-57.82 Y-17.145 I-0.635 J-0.022
G1 X-62.201 Y-17.216
G3 X-62.825 Y-17.828 I0.01 J-0.635
G1 Y-19.611
X-62.816 Y-19.79
X-62.794 Y-19.955
X-62.757 Y-20.131
X-62.699 Y-20.324
X-62.623 Y-20.52
X-62.52 Y-20.732
X-62.395 Y-20.944
X-62.244 Y-21.159
X-62.061 Y-21.379
X-61.854 Y-21.591
X-61.623 Y-21.794
X-61.36 Y-21.987
X-61.072 Y-22.167
X-60.76 Y-22.328
X-60.439 Y-22.462
X-60.112 Y-22.569
X-59.787 Y-22.647
X-59.476 Y-22.695
X-59.161 Y-22.719
X-58.87 Y-22.717
X-58.566 Y-22.691
X-58.411 Y-22.665
X-58.125 Y-22.587
X-57.86 Y-22.453
X-57.627 Y-22.269
X-57.435 Y-22.043
X-57.293 Y-21.783
X-57.205 Y-21.499
X-57.175 Y-21.204
Y-19.481
G3 X-57.828 Y-18.868 I-0.635 J-0.022
G1 X-62.209 Y-18.999
G3 X-62.825 Y-19.611 I0.019 J-0.635
G1 Y-21.394
X-62.818 Y-21.544
X-62.792 Y-21.714
X-62.751 Y-21.891
X-62.688 Y-22.088
X-62.607 Y-22.286
X-62.5 Y-22.498
X-62.367 Y-22.714
X-62.212 Y-22.928
X-62.024 Y-23.146
X-61.809 Y-23.36
X-61.57 Y-23.561
X-61.304 Y-23.75
X-61.013 Y-23.925
X-60.695 Y-24.082
X-60.374 Y-24.21
X-60.04 Y-24.312
X-59.723 Y-24.383
X-59.406 Y-24.427
X-59.099 Y-24.444
X-58.803 Y-24.437
X-58.506 Y-24.407
X-58.386 Y-24.384
X-58.105 Y-24.302
X-57.845 Y-24.167
X-57.617 Y-23.983
X-57.429 Y-23.757
X-57.29 Y-23.5
X-57.204 Y-23.219
X-57.175 Y-22.928
Y-21.204
G3 X-57.837 Y-20.592 I-0.635 J-0.022
G1 X-62.218 Y-20.782
G3 X-62.825 Y-21.394 I0.028 J-0.634
G1 Y-23.077
X-62.817 Y-23.241
X-62.796 Y-23.401
X-62.757 Y-23.582
X-62.701 Y-23.768
X-62.623 Y-23.969
X-62.521 Y-24.179
X-62.398 Y-24.389
X-62.243 Y-24.609
X-62.063 Y-24.826
X-61.858 Y-25.035
X-61.623 Y-25.241
X-61.359 Y-25.436
X-61.071 Y-25.615
X-60.763 Y-25.774
X-60.438 Y-25.91
X-60.117 Y-26.015
X-59.786 Y-26.094
X-59.48 Y-26.142
X-59.16 Y-26.166
X-58.871 Y-26.164
X-58.767 Y-26.155
X-58.447 Y-26.092
X-58.15 Y-25.96
X-57.888 Y-25.767
X-57.675 Y-25.521
G3 X-57.916 Y-24.616 I-0.535 J0.342
G1 X-61.896 Y-22.536
G3 X-62.825 Y-23.077 I-0.294 J-0.563
G1 Y-23.623
X-62.812 Y-23.845
X-62.736 Y-24.514
X-62.721 Y-24.625
X-62.709 Y-24.681
X-62.691 Y-24.737
X-62.522 Y-25.182
X-62.482 Y-25.279
X-62.425 Y-25.376
X-62.202 Y-25.699
X-62.091 Y-25.851
X-61.979 Y-25.958
X-61.756 Y-26.155
X-61.588 Y-26.297
X-61.533 Y-26.332
X-61.087 Y-26.566
X-60.976 Y-26.617
X-60.864 Y-26.648
X-60.418 Y-26.758
X-60.307 Y-26.776
X-60.195 Y-26.778
X-59.75
X-59.638 Y-26.769
X-59.52 Y-26.742
X-59.081 Y-26.634
X-58.969 Y-26.594
X-58.824 Y-26.52
X-58.635 Y-26.42
X-58.411 Y-26.297
X-58.189 Y-26.106
X-57.966 Y-25.909
X-57.909 Y-25.851
X-57.743 Y-25.62
X-57.595 Y-25.405
X-57.52 Y-25.285
X-57.478 Y-25.182
X-57.309 Y-24.737
X-57.297 Y-24.702
X-57.264 Y-24.514
X-57.188 Y-23.845
X-57.175 Y-23.623
Y-22.928
X-57.187 Y-22.874 Z-5.494
X-57.198 Y-22.822 Z-5.475
X-57.207 Y-22.777 Z-5.445
X-57.216 Y-22.738 Z-5.406
X-57.222 Y-22.709 Z-5.359
X-57.229 Y-22.692 Z-5.306
X-57.232 Y-22.686 Z-5.251
G0 Z5
Z15
X-10.747 Y28.349
Z5
Z3.685
G1 Z3.05 F1016
G3 X-16.018 Y25.416 Z2.719 I-2.636 J-1.467
X-10.747 Y28.349 Z2.388 I2.636 J1.467
X-16.018 Y25.416 Z2.057 I-2.636 J-1.467
X-10.747 Y28.349 Z1.726 I2.636 J1.467
X-16.018 Y25.416 Z1.395 I-2.636 J-1.467
X-10.747 Y28.349 Z1.065 I2.636 J1.467
X-16.018 Y25.416 Z0.734 I-2.636 J-1.467
X-10.747 Y28.349 Z0.403 I2.636 J1.467
X-16.018 Y25.416 Z0.072 I-2.636 J-1.467
X-10.747 Y28.349 Z-0.259 I2.636 J1.467
X-16.018 Y25.416 Z-0.59 I-2.636 J-1.467
X-10.747 Y28.349 Z-0.921 I2.636 J1.467
X-16.018 Y25.416 Z-1.252 I-2.636 J-1.467
X-10.747 Y28.349 Z-1.583 I2.636 J1.467
X-16.018 Y25.416 Z-1.914 I-2.636 J-1.467
X-10.747 Y28.349 Z-2.244 I2.636 J1.467
X-16.018 Y25.416 Z-2.575 I-2.636 J-1.467
X-10.747 Y28.349 Z-2.906 I2.636 J1.467
X-16.018 Y25.416 Z-3.237 I-2.636 J-1.467
X-10.747 Y28.349 Z-3.568 I2.636 J1.467
X-16.018 Y25.416 Z-3.899 I-2.636 J-1.467
X-10.747 Y28.349 Z-4.23 I2.636 J1.467
X-16.018 Y25.416 Z-4.561 I-2.636 J-1.467
X-10.747 Y28.349 Z-4.892 I2.636 J1.467
X-16.018 Y25.416 Z-5.223 I-2.636 J-1.467
X-10.366 Y26.883 Z-5.5 I2.636 J1.467
X-16.398 I-3.016
X-10.366 I3.016
G1 X-10.362 Y27.128
X-10.184 Y28.093
X-10.139 Y28.236
X-10.11 Y28.383
X-10.094 Y28.533
X-10.092 Y28.685
X-10.103 Y28.849
X-10.128 Y29.023
X-10.17 Y29.206
X-10.23 Y29.396
X-10.31 Y29.591
X-10.41 Y29.789
X-10.531 Y29.989
X-10.675 Y30.186
X-10.841 Y30.38
X-10.854 Y30.394
X-11.079 Y30.577
X-11.334 Y30.713
X-11.611 Y30.797
X-11.899 Y30.825
X-13.6
X-13.823 Y30.823
X-14.492 Y30.799
X-14.714 Y30.778
X-14.925 Y30.754
X-15.06 Y30.733
X-15.16 Y30.717
X-15.383 Y30.641
X-15.606 Y30.563
X-15.69 Y30.531
X-15.829 Y30.453
X-16.06 Y30.308
X-16.275 Y30.161
X-16.352 Y30.085
X-16.575 Y29.862
X-16.656 Y29.78
X-16.721 Y29.698
X-16.944 Y29.344
X-17.029 Y29.194
X-17.11 Y28.971
X-17.188 Y28.748
X-17.224 Y28.637
X-17.243 Y28.525
X-17.268 Y28.302
X-17.287 Y28.08
X-17.325 Y27.411
Y25.628
X-17.317 Y25.464
X-17.286 Y25.228
X-17.234 Y24.984
X-17.159 Y24.736
X-17.061 Y24.485
X-16.939 Y24.233
X-16.793 Y23.984
X-16.622 Y23.741
X-16.426 Y23.505
X-16.207 Y23.28
X-15.965 Y23.069
X-15.701 Y22.874
X-15.418 Y22.698
X-15.115 Y22.542
X-14.797 Y22.409
X-14.464 Y22.3
X-14.12 Y22.217
X-13.766 Y22.162
X-13.406 Y22.135
X-13.041 Y22.137
X-12.675 Y22.169
X-12.31 Y22.23
X-12.005 Y22.344
X-11.733 Y22.521
X-11.505 Y22.754
X-11.334 Y23.031
X-11.265 Y23.177
X-11.144 Y23.4
X-10.997 Y23.623
X-10.701 Y23.987
X-10.621 Y24.068
X-10.387 Y24.291
X-10.256 Y24.389
X-10.082 Y24.514
X-9.917 Y24.646
X-9.752 Y24.802
X-9.532 Y25.045
X-9.231 Y25.436
X-8.963 Y25.85
X-8.753 Y26.241
X-8.586 Y26.621
X-8.455 Y26.999
X-8.357 Y27.377
X-8.291 Y27.755
X-8.256 Y28.133
X-8.252 Y28.511
X-8.277 Y28.887
X-8.333 Y29.262
X-8.418 Y29.623
X-8.472 Y29.794
X-8.597 Y30.079
X-8.779 Y30.331
X-9.01 Y30.54
X-9.279 Y30.696
X-9.574 Y30.792
X-9.884 Y30.825
X-11.899
G3 X-12.488 Y30.019 I0.022 J-0.635
G1 X-11.047 Y24.87
G3 X-10.082 Y24.514 I0.611 J0.171
G1 X-10.033 Y24.55
X-9.81 Y24.697
X-9.739 Y24.737
X-9.587 Y24.809
X-9.364 Y24.909
X-9.141 Y24.991
X-8.918 Y25.054
X-8.85 Y25.07
X-8.706 Y25.11
X-8.548 Y25.17
X-8.379 Y25.25
X-8.201 Y25.353
X-8.02 Y25.478
X-7.83 Y25.633
X-7.646 Y25.809
X-7.46 Y26.019
X-7.279 Y26.259
X-7.113 Y26.521
X-6.956 Y26.819
X-6.815 Y27.149
X-6.697 Y27.498
X-6.605 Y27.868
X-6.546 Y28.228
X-6.515 Y28.598
X-6.514 Y28.924
X-6.541 Y29.265
X-6.588 Y29.564
X-6.62 Y29.693
X-6.732 Y30.002
X-6.91 Y30.278
X-7.144 Y30.508
X-7.423 Y30.681
X-7.733 Y30.789
X-8.06 Y30.825
X-9.884
G3 X-10.484 Y30.067 I0.022 J-0.635
G1 X-9.593 Y25.57
G3 X-8.85 Y25.07 I0.623 J0.123
G1 X-8.695 Y25.105
X-8.472 Y25.143
X-7.803 Y25.174
X-7.68 Y25.175
X-7.513 Y25.184
X-7.364 Y25.203
X-7.206 Y25.238
X-7.041 Y25.289
X-6.863 Y25.36
X-6.675 Y25.454
X-6.485 Y25.568
X-6.282 Y25.713
X-6.085 Y25.879
X-5.885 Y26.077
X-5.687 Y26.307
X-5.503 Y26.56
X-5.332 Y26.841
X-5.174 Y27.153
X-5.038 Y27.487
X-4.931 Y27.822
X-4.853 Y28.16
X-4.804 Y28.494
X-4.783 Y28.801
X-4.788 Y29.126
X-4.815 Y29.413
X-4.869 Y29.717
X-4.984 Y30.02
X-5.163 Y30.29
X-5.396 Y30.516
X-5.673 Y30.685
X-5.98 Y30.79
X-6.303 Y30.825
X-8.06
G3 X-8.67 Y30.136 I0.022 J-0.635
G1 X-8.292 Y25.755
G3 X-7.68 Y25.175 I0.633 J0.055
G1 X-6.02
X-5.87 Y25.183
X-5.703 Y25.21
X-5.53 Y25.253
X-5.342 Y25.317
X-5.144 Y25.401
X-4.942 Y25.508
X-4.728 Y25.644
X-4.519 Y25.801
X-4.308 Y25.988
X-4.098 Y26.208
X-3.9 Y26.451
X-3.716 Y26.718
X-3.545 Y27.014
X-3.394 Y27.333
X-3.264 Y27.676
X-3.172 Y27.993
X-3.104 Y28.329
X-3.066 Y28.639
X-3.053 Y28.947
X-3.065 Y29.253
X-3.099 Y29.531
X-3.12 Y29.638
X-3.225 Y29.959
X-3.399 Y30.248
X-3.634 Y30.49
X-3.919 Y30.673
X-4.237 Y30.786
X-4.572 Y30.825
X-6.303
G3 X-6.914 Y30.149 I0.022 J-0.635
G1 X-6.631 Y25.769
G3 X-6.02 Y25.175 I0.634 J0.041
G1 X-4.459
X-4.239 Y25.186
X-4.08 Y25.207
X-3.901 Y25.245
X-3.719 Y25.3
X-3.518 Y25.378
X-3.314 Y25.477
X-3.102 Y25.601
X-2.884 Y25.755
X-2.672 Y25.931
X-2.461 Y26.137
X-2.255 Y26.373
X-2.061 Y26.635
X-1.884 Y26.92
X-1.725 Y27.227
X-1.588 Y27.556
X-1.485 Y27.87
X-1.404 Y28.21
X-1.355 Y28.518
X-1.332 Y28.83
X-1.334 Y29.137
X-1.358 Y29.417
X-1.387 Y29.589
X-1.465 Y29.875
X-1.599 Y30.14
X-1.783 Y30.373
X-2.009 Y30.565
X-2.269 Y30.707
X-2.553 Y30.795
X-2.848 Y30.825
X-4.572
G3 X-5.185 Y30.174 I0.022 J-0.635
G1 X-5.072 Y25.793
G3 X-4.459 Y25.175 I0.635 J0.016
G1 X-2.675
X-2.526 Y25.183
X-2.36 Y25.205
X-2.184 Y25.243
X-1.991 Y25.302
X-1.796 Y25.379
X-1.583 Y25.483
X-1.371 Y25.609
X-1.158 Y25.76
X-0.938 Y25.944
X-0.725 Y26.153
X-0.524 Y26.386
X-0.332 Y26.648
X-0.152 Y26.938
X0.007 Y27.251
X0.14 Y27.572
X0.246 Y27.901
X0.322 Y28.225
X0.37 Y28.537
X0.392 Y28.851
X0.389 Y29.144
X0.362 Y29.447
X0.336 Y29.595
X0.257 Y29.88
X0.123 Y30.143
X-0.061 Y30.375
X-0.287 Y30.566
X-0.547 Y30.708
X-0.829 Y30.795
X-1.124 Y30.825
X-2.848
G3 X-3.461 Y30.165 I0.022 J-0.635
G1 X-3.288 Y25.785
G3 X-2.675 Y25.175 I0.635 J0.025
G1 X-0.992
X-0.81 Y25.184
X-0.647 Y25.205
X-0.47 Y25.243
X-0.279 Y25.301
X-0.083 Y25.377
X0.13 Y25.48
X0.34 Y25.604
X0.556 Y25.756
X0.776 Y25.938
X0.987 Y26.144
X1.189 Y26.376
X1.384 Y26.639
X1.563 Y26.927
X1.724 Y27.238
X1.858 Y27.56
X1.964 Y27.885
X2.043 Y28.212
X2.091 Y28.522
X2.115 Y28.839
X2.113 Y29.13
X2.087 Y29.434
X2.061 Y29.589
X1.983 Y29.875
X1.849 Y30.14
X1.665 Y30.373
X1.439 Y30.565
X1.178 Y30.707
X0.895 Y30.795
X0.6 Y30.825
X-1.124
G3 X-1.736 Y30.171 I0.022 J-0.635
G1 X-1.605 Y25.791
G3 X-0.992 Y25.175 I0.635 J0.019
G1 X0.791
X0.941 Y25.183
X1.112 Y25.208
X1.289 Y25.249
X1.486 Y25.312
X1.683 Y25.393
X1.895 Y25.5
X2.112 Y25.633
X2.325 Y25.789
X2.544 Y25.977
X2.757 Y26.192
X2.958 Y26.431
X3.147 Y26.697
X3.322 Y26.988
X3.479 Y27.306
X3.606 Y27.628
X3.709 Y27.961
X3.779 Y28.278
X3.823 Y28.596
X3.84 Y28.903
X3.833 Y29.199
X3.802 Y29.495
X3.78 Y29.615
X3.698 Y29.896
X3.563 Y30.156
X3.378 Y30.384
X3.153 Y30.571
X2.895 Y30.71
X2.615 Y30.796
X2.323 Y30.825
X0.6
G3 X-0.013 Y30.163 I0.022 J-0.635
G1 X0.179 Y25.782
G3 X0.791 Y25.175 I0.634 J0.028
G1 X2.452
X2.638 Y25.184
X2.798 Y25.205
X2.979 Y25.244
X3.165 Y25.3
X3.365 Y25.378
X3.575 Y25.48
X3.785 Y25.603
X4.005 Y25.758
X4.222 Y25.938
X4.432 Y26.142
X4.637 Y26.377
X4.832 Y26.641
X5.011 Y26.929
X5.17 Y27.238
X5.306 Y27.562
X5.411 Y27.883
X5.49 Y28.214
X5.538 Y28.521
X5.562 Y28.84
X5.56 Y29.129
X5.534 Y29.434
X5.508 Y29.589
X5.43 Y29.875
X5.296 Y30.14
X5.112 Y30.373
X4.886 Y30.565
X4.625 Y30.707
X4.342 Y30.795
X4.047 Y30.825
X2.323
G3 X1.711 Y30.172 I0.022 J-0.635
G1 X1.84 Y25.791
G3 X2.452 Y25.175 I0.635 J0.019
G1 X4.236
X4.386 Y25.183
X4.556 Y25.208
X4.733 Y25.249
X4.93 Y25.311
X5.127 Y25.392
X5.339 Y25.499
X5.556 Y25.631
X5.769 Y25.786
X5.987 Y25.974
X6.201 Y26.189
X6.401 Y26.427
X6.591 Y26.692
X6.766 Y26.984
X6.923 Y27.302
X7.052 Y27.623
X7.154 Y27.956
X7.225 Y28.274
