%
(JHdrill)
(T1  D=6.35 CR=0 TAPER=118deg - ZMIN=-15.908 - drill)
G90 G94
G17
G21
G28 G91 Z0
G90

(Drill1)
M9
T1 M6
S1000 M3
G54
M9
G0 X-47.819 Y35.159
Z15
Z5
Z-6
G1 Z-15.908 F254
G0 Z5
Y-34.841
Z-6
G1 Z-15.908 F254
G0 Z5
X48.181
Z-6
G1 Z-15.908 F254
G0 Z5
Y35.494
Z-6
G1 Z-15.908 F254
G0 Z5
Z15
M9
G28 G91 Z0
G28 X0 Y0
M30
%
