%
(JHmill)
(T2  D=6.35 CR=0 - ZMIN=-5.5 - flat end mill)
G90 G94
G17
G21
G28 G91 Z0
G90

(2D Adaptive1)
M9
T2 M6
S1000 M3
G54
M9
G0 X-18.862 Y25.835
Z15
Z5
Z3.685
G1 Z3.05 F1016
G3 X-24.134 Y22.902 Z2.719 I-2.636 J-1.467
X-18.862 Y25.835 Z2.388 I2.636 J1.467
X-24.134 Y22.902 Z2.057 I-2.636 J-1.467
X-18.862 Y25.835 Z1.726 I2.636 J1.467
X-24.134 Y22.902 Z1.395 I-2.636 J-1.467
X-18.862 Y25.835 Z1.065 I2.636 J1.467
X-24.134 Y22.902 Z0.734 I-2.636 J-1.467
X-18.862 Y25.835 Z0.403 I2.636 J1.467
X-24.134 Y22.902 Z0.072 I-2.636 J-1.467
X-18.862 Y25.835 Z-0.259 I2.636 J1.467
X-24.134 Y22.902 Z-0.59 I-2.636 J-1.467
X-18.862 Y25.835 Z-0.921 I2.636 J1.467
X-24.134 Y22.902 Z-1.252 I-2.636 J-1.467
X-18.862 Y25.835 Z-1.583 I2.636 J1.467
X-24.134 Y22.902 Z-1.914 I-2.636 J-1.467
X-18.862 Y25.835 Z-2.244 I2.636 J1.467
X-24.134 Y22.902 Z-2.575 I-2.636 J-1.467
X-18.862 Y25.835 Z-2.906 I2.636 J1.467
X-24.134 Y22.902 Z-3.237 I-2.636 J-1.467
X-18.862 Y25.835 Z-3.568 I2.636 J1.467
X-24.134 Y22.902 Z-3.899 I-2.636 J-1.467
X-18.862 Y25.835 Z-4.23 I2.636 J1.467
X-24.134 Y22.902 Z-4.561 I-2.636 J-1.467
X-18.862 Y25.835 Z-4.892 I2.636 J1.467
X-24.134 Y22.902 Z-5.223 I-2.636 J-1.467
X-18.482 Y24.368 Z-5.5 I2.636 J1.467
X-24.514 I-3.016
X-18.482 I3.016
G1 X-18.478 Y24.614
X-18.299 Y25.579
X-18.255 Y25.722
X-18.225 Y25.869
X-18.21 Y26.018
X-18.208 Y26.171
X-18.219 Y26.335
X-18.244 Y26.509
X-18.286 Y26.691
X-18.346 Y26.881
X-18.426 Y27.077
X-18.526 Y27.275
X-18.647 Y27.474
X-18.79 Y27.672
X-18.956 Y27.866
X-19.145 Y28.053
X-19.355 Y28.231
X-19.587 Y28.397
X-19.838 Y28.549
X-20.11 Y28.683
X-20.198 Y28.719
X-20.377 Y28.777
X-20.561 Y28.813
X-20.749 Y28.825
X-22.079
X-22.4 Y28.809
X-22.708 Y28.769
X-23.019 Y28.702
X-23.33 Y28.609
X-23.639 Y28.489
X-23.943 Y28.341
X-24.238 Y28.167
X-24.522 Y27.968
X-24.793 Y27.743
X-25.048 Y27.494
X-25.285 Y27.223
X-25.501 Y26.931
X-25.695 Y26.62
X-25.864 Y26.292
X-26.007 Y25.95
X-26.123 Y25.595
X-26.21 Y25.231
X-26.268 Y24.859
X-26.296 Y24.482
X-26.294 Y24.103
X-26.261 Y23.724
X-26.198 Y23.348
X-26.105 Y22.977
X-26.103 Y22.971
X-25.987 Y22.713
X-25.824 Y22.482
X-25.62 Y22.286
X-25.5 Y22.191
X-25.425 Y22.118
X-25.285 Y21.968
X-24.979 Y21.584
X-24.937 Y21.522
X-24.786 Y21.297
X-24.599 Y21.059
X-24.387 Y20.831
X-24.152 Y20.616
X-23.895 Y20.416
X-23.617 Y20.234
X-23.32 Y20.072
X-23.007 Y19.932
X-22.679 Y19.816
X-22.338 Y19.725
X-21.987 Y19.662
X-21.628 Y19.626
X-21.265 Y19.62
X-20.899 Y19.643
X-20.534 Y19.695
X-20.172 Y19.777
X-19.815 Y19.889
X-19.468 Y20.029
X-19.131 Y20.197
X-18.945 Y20.31
X-18.706 Y20.489
X-18.509 Y20.713
X-18.36 Y20.972
X-18.313 Y21.076
X-18.062 Y21.522
X-17.895 Y21.745
X-17.719 Y21.968
X-17.537 Y22.198
X-17.21 Y22.688
X-16.911 Y23.224
X-16.697 Y23.694
X-16.536 Y24.139
X-16.419 Y24.568
X-16.34 Y24.984
X-16.297 Y25.393
X-16.286 Y25.797
X-16.308 Y26.197
X-16.361 Y26.593
X-16.447 Y26.983
X-16.564 Y27.367
X-16.712 Y27.744
X-16.836 Y27.996
X-17.013 Y28.274
X-17.247 Y28.506
X-17.527 Y28.68
X-17.838 Y28.788
X-18.166 Y28.825
X-20.749
G3 X-21.307 Y27.933 I0.022 J-0.635
G1 X-18.745 Y22.163
G3 X-17.719 Y21.968 I0.58 J0.258
G1 X-17.619 Y22.073
X-17.501 Y22.191
X-17.173 Y22.453
X-16.95 Y22.602
X-16.727 Y22.73
X-16.504 Y22.853
X-16.487 Y22.86
X-16.35 Y22.921
X-16.202 Y23.004
X-16.035 Y23.114
X-15.872 Y23.242
X-15.698 Y23.403
X-15.53 Y23.585
X-15.363 Y23.799
X-15.2 Y24.047
X-15.053 Y24.314
X-14.916 Y24.618
X-14.796 Y24.955
X-14.701 Y25.31
X-14.631 Y25.691
X-14.589 Y26.102
X-14.581 Y26.517
X-14.605 Y26.922
X-14.657 Y27.292
X-14.734 Y27.637
X-14.779 Y27.782
X-14.903 Y28.07
X-15.084 Y28.325
X-15.315 Y28.536
X-15.585 Y28.694
X-15.883 Y28.792
X-16.194 Y28.825
X-18.166
G3 X-18.751 Y28.004 I0.022 J-0.635
G1 X-17.303 Y23.274
G3 X-16.487 Y22.86 I0.607 J0.186
G1 X-16.281 Y22.94
X-16.058 Y23.016
X-15.835 Y23.077
X-15.805 Y23.083
X-15.266 Y23.156
X-15.118 Y23.184
X-14.975 Y23.227
X-14.817 Y23.289
X-14.656 Y23.367
X-14.484 Y23.47
X-14.307 Y23.594
X-14.128 Y23.744
X-13.942 Y23.926
X-13.766 Y24.129
X-13.587 Y24.372
X-13.42 Y24.641
X-13.268 Y24.938
X-13.131 Y25.268
X-13.016 Y25.625
X-12.931 Y25.983
X-12.876 Y26.34
X-12.851 Y26.686
X-12.854 Y27.01
X-12.883 Y27.336
X-12.932 Y27.627
X-12.953 Y27.709
X-13.068 Y28.014
X-13.246 Y28.286
X-13.48 Y28.513
X-13.757 Y28.684
X-14.065 Y28.789
X-14.389 Y28.825
X-16.194
G3 X-16.796 Y28.071 I0.022 J-0.635
G1 X-15.953 Y23.669
G3 X-15.266 Y23.156 I0.624 J0.119
G1 X-15.166 Y23.17
X-14.496 Y23.175
X-14.05
X-13.896 Y23.183
X-13.747 Y23.202
X-13.586 Y23.237
X-13.419 Y23.287
X-13.233 Y23.36
X-13.048 Y23.45
X-12.847 Y23.569
X-12.647 Y23.71
X-12.444 Y23.879
X-12.238 Y24.081
X-12.043 Y24.305
X-11.856 Y24.559
X-11.68 Y24.843
X-11.52 Y25.154
X-11.383 Y25.484
X-11.274 Y25.819
X-11.196 Y26.148
X-11.144 Y26.485
X-11.122 Y26.788
X-11.124 Y27.112
X-11.15 Y27.401
X-11.2 Y27.696
X-11.203 Y27.708
X-11.317 Y28.013
X-11.496 Y28.286
X-11.729 Y28.513
X-12.007 Y28.683
X-12.315 Y28.789
X-12.639 Y28.825
X-14.389
G3 X-15 Y28.141 I0.022 J-0.635
G1 X-14.661 Y23.761
G3 X-14.05 Y23.175 I0.633 J0.049
G1 X-12.489
X-12.278 Y23.186
X-12.116 Y23.207
X-11.949 Y23.243
X-11.761 Y23.299
X-11.571 Y23.373
X-11.366 Y23.472
X-11.157 Y23.596
X-10.947 Y23.743
X-10.732 Y23.921
X-10.522 Y24.126
X-10.322 Y24.356
X-10.13 Y24.614
X-9.951 Y24.903
X-9.791 Y25.213
X-9.653 Y25.543
X-9.546 Y25.871
X-9.468 Y26.195
X-9.417 Y26.519
X-9.395 Y26.817
X-9.397 Y27.134
X-9.421 Y27.416
X-9.45 Y27.589
X-9.529 Y27.875
X-9.662 Y28.14
X-9.846 Y28.373
X-10.073 Y28.565
X-10.333 Y28.707
X-10.616 Y28.795
X-10.912 Y28.825
X-12.639
G3 X-13.251 Y28.169 I0.022 J-0.635
G1 X-13.102 Y23.788
G3 X-12.489 Y23.175 I0.635 J0.022
G1 X-10.705
X-10.555 Y23.183
X-10.385 Y23.208
X-10.21 Y23.249
X-10.015 Y23.312
X-9.818 Y23.393
X-9.608 Y23.5
X-9.391 Y23.633
X-9.179 Y23.788
X-8.962 Y23.975
X-8.749 Y24.191
X-8.548 Y24.431
X-8.36 Y24.695
X-8.185 Y24.988
X-8.029 Y25.305
X-7.902 Y25.627
X-7.799 Y25.962
X-7.73 Y26.279
X-7.686 Y26.597
X-7.669 Y26.904
X-7.676 Y27.201
X-7.708 Y27.498
X-7.729 Y27.613
X-7.827 Y27.93
X-7.992 Y28.218
X-8.218 Y28.462
X-8.492 Y28.649
X-8.801 Y28.77
X-9.13 Y28.82
X-9.367 Y28.825
X-10.912
G3 X-11.524 Y28.16 I0.022 J-0.635
G1 X-11.317 Y23.78
G3 X-10.705 Y23.175 I0.634 J0.03
G1 X-9.367
X-9.144 Y23.179
X-8.921 Y23.188
X-8.771 Y23.201
X-8.597 Y23.232
X-8.417 Y23.28
X-8.218 Y23.35
X-8.018 Y23.44
X-7.806 Y23.555
X-7.588 Y23.698
X-7.375 Y23.864
X-7.161 Y24.06
X-6.95 Y24.286
X-6.753 Y24.536
X-6.57 Y24.809
X-6.403 Y25.109
X-6.255 Y25.433
X-6.14 Y25.75
X-6.048 Y26.085
X-5.989 Y26.4
X-5.956 Y26.706
X-5.955 Y26.722
X-5.97 Y26.975
X-6.028 Y27.221
X-6.127 Y27.454
G3 X-7.203 Y27.494 I-0.551 J-0.316
G1 X-9.448 Y24.179
G3 X-8.921 Y23.188 I0.526 J-0.356
G1 X-8.475 Y23.205
X-8.029 Y23.259
X-7.806 Y23.295
X-7.772 Y23.306
X-7.36 Y23.462
X-7.198 Y23.529
X-7.137 Y23.566
X-6.691 Y23.874
X-6.637 Y23.919
X-6.583 Y23.975
X-6.245 Y24.357
X-6.197 Y24.421
X-6.075 Y24.644
X-5.958 Y24.867
X-5.901 Y24.979
X-5.879 Y25.034
X-5.864 Y25.09
X-5.754 Y25.536
X-5.73 Y25.648
X-5.722 Y25.759
Y26.205
X-5.725 Y26.317
X-5.745 Y26.428
X-5.855 Y26.874
X-5.887 Y26.986
X-5.939 Y27.097
X-6.174 Y27.543
X-6.245 Y27.642
X-6.552 Y27.989
X-6.621 Y28.065
X-6.691 Y28.126
X-7.139 Y28.435
X-7.194 Y28.468
X-7.249 Y28.496
X-7.583 Y28.623
X-7.677 Y28.659
X-7.806 Y28.705
X-8.029 Y28.741
X-8.475 Y28.795
X-8.921 Y28.812
X-9.13 Y28.82
G3 X-9.489 Y28.672 I-0.001 J-0.508
G2 X-12.664 Y26.661 I-6.122 J6.154
X-12.88 Y26.624 I-0.216 J0.597
G1 X-18.35 Y26.626
G2 X-18.566 Y26.664 J0.635
X-21.738 Y28.677 I2.954 J8.162
G3 X-22.079 Y28.825 I-0.359 J-0.36
G1 X-24.533
X-24.722 Y28.815
X-24.921 Y28.789
X-25.126 Y28.746
X-25.352 Y28.678
X-25.581 Y28.589
X-25.822 Y28.472
X-26.072 Y28.324
X-26.317 Y28.152
X-26.566 Y27.946
X-26.814 Y27.704
X-27.05 Y27.433
X-27.271 Y27.134
X-27.48 Y26.8
X-27.669 Y26.432
X-27.835 Y26.035
X-27.972 Y25.617
X-28.077 Y25.179
X-28.144 Y24.748
X-28.156 Y24.59
X-28.149 Y24.298
X-28.084 Y24.012
X-27.965 Y23.745
X-27.795 Y23.506
X-27.582 Y23.306
X-27.333 Y23.151
X-27.059 Y23.048
G3 X-26.355 Y23.373 I0.142 J0.619
G1 X-23.992 Y27.896
G3 X-24.533 Y28.825 I-0.563 J0.294
G1 X-26.439
X-26.644 Y28.815
X-26.823 Y28.791
X-27.021 Y28.749
X-27.226 Y28.687
X-27.452 Y28.599
X-27.678 Y28.49
X-27.924 Y28.345
X-28.166 Y28.175
X-28.415 Y27.969
X-28.668 Y27.722
X-28.907 Y27.448
X-29.139 Y27.134
X-29.335 Y26.819
X-29.508 Y26.485
X-29.636 Y26.178
X-29.742 Y25.852
X-29.814 Y25.554
X-29.863 Y25.237
X-29.885 Y24.949
X-29.883 Y24.645
X-29.873 Y24.528
X-29.813 Y24.222
X-29.691 Y23.934
X-29.51 Y23.679
X-29.281 Y23.467
X-29.012 Y23.308
X-28.715 Y23.209
X-28.404 Y23.174
X-27.878 Y23.172
X-27.655 Y23.145
X-27.209 Y23.087
X-27.19 Y23.083
X-27.059 Y23.048
G3 X-26.286 Y23.603 I0.142 J0.619
G1 X-25.83 Y28.127
G3 X-26.439 Y28.825 I-0.632 J0.064
G1 X-28.324
X-28.511 Y28.816
X-28.69 Y28.792
X-28.887 Y28.75
X-29.091 Y28.689
X-29.314 Y28.602
X-29.537 Y28.494
X-29.768 Y28.358
X-30.004 Y28.192
X-30.234 Y28.002
X-30.456 Y27.784
X-30.673 Y27.536
X-30.877 Y27.26
X-31.063 Y26.961
X-31.222 Y26.652
X-31.353 Y26.339
X-31.457 Y26.021
X-31.529 Y25.723
X-31.578 Y25.406
X-31.599 Y25.121
X-31.598 Y24.816
X-31.574 Y24.538
X-31.552 Y24.411
X-31.474 Y24.125
X-31.341 Y23.86
X-31.157 Y23.627
X-30.93 Y23.435
X-30.67 Y23.293
X-30.387 Y23.205
X-30.091 Y23.175
X-28.468
X-28.404 Y23.174
G3 X-27.788 Y23.798 I-0.019 J0.635
G1 X-27.711 Y28.179
G3 X-28.324 Y28.825 I-0.635 J0.011
G1 X-30.108
X-30.34 Y28.813
X-30.507 Y28.791
X-30.696 Y28.751
X-30.89 Y28.693
X-31.097 Y28.612
X-31.315 Y28.507
X-31.531 Y28.38
X-31.754 Y28.223
X-31.977 Y28.038
X-32.191 Y27.829
X-32.396 Y27.593
X-32.591 Y27.33
X-32.772 Y27.039
X-32.933 Y26.728
X-33.066 Y26.41
X-33.172 Y26.086
X-33.248 Y25.767
X-33.296 Y25.458
X-33.32 Y25.147
X-33.318 Y24.857
X-33.292 Y24.556
X-33.268 Y24.411
X-33.189 Y24.125
X-33.056 Y23.86
X-32.872 Y23.627
X-32.645 Y23.435
X-32.385 Y23.293
X-32.102 Y23.205
X-31.806 Y23.175
X-30.091
G3 X-29.478 Y23.812 I-0.022 J0.635
G1 X-29.495 Y28.193
G3 X-30.108 Y28.825 I-0.635 J-0.002
G1 X-31.892
X-32.1 Y28.815
X-32.264 Y28.793
X-32.444 Y28.754
X-32.638 Y28.697
X-32.836 Y28.619
X-33.051 Y28.515
X-33.263 Y28.39
X-33.481 Y28.237
X-33.702 Y28.054
X-33.914 Y27.847
X-34.117 Y27.614
X-34.311 Y27.351
X-34.491 Y27.063
X-34.652 Y26.751
X-34.786 Y26.431
X-34.892 Y26.105
X-34.97 Y25.781
X-35.018 Y25.471
X-35.042 Y25.157
X-35.04 Y24.866
X-35.014 Y24.563
X-34.988 Y24.411
X-34.91 Y24.125
X-34.776 Y23.86
X-34.593 Y23.627
X-34.366 Y23.435
X-34.106 Y23.293
X-33.822 Y23.205
X-33.527 Y23.175
X-31.806
G3 X-31.194 Y23.822 I-0.022 J0.635
G1 X-31.28 Y28.203
G3 X-31.892 Y28.825 I-0.635 J-0.012
G1 X-33.676
X-33.88 Y28.81
X-34.053 Y28.783
X-34.231 Y28.74
X-34.429 Y28.675
X-34.629 Y28.592
X-34.84 Y28.483
X-35.058 Y28.347
X-35.272 Y28.189
X-35.489 Y28
X-35.702 Y27.781
X-35.903 Y27.539
X-36.09 Y27.272
X-36.263 Y26.979
X-36.417 Y26.66
X-36.542 Y26.34
X-36.642 Y26.004
X-36.709 Y25.692
X-36.751 Y25.372
X-36.766 Y25.07
X-36.761 Y24.919
X-36.728 Y24.649
X-36.646 Y24.39
X-36.518 Y24.15
X-36.349 Y23.937
X-36.143 Y23.759
G3 X-35.232 Y23.988 I0.352 J0.529
G1 X-33.139 Y27.89
G3 X-33.676 Y28.825 I-0.56 J0.3
G1 X-33.9 Y28.819
X-34.346 Y28.801
X-34.569 Y28.79
X-35.015 Y28.736
X-35.126 Y28.721
X-35.182 Y28.709
X-35.238 Y28.691
X-35.684 Y28.522
X-35.772 Y28.486
X-35.861 Y28.435
X-36.184 Y28.212
X-36.353 Y28.09
X-36.448 Y27.989
X-36.646 Y27.766
X-36.799 Y27.587
X-36.826 Y27.543
X-37.061 Y27.097
X-37.113 Y26.986
X-37.145 Y26.874
X-37.255 Y26.428
X-37.275 Y26.317
X-37.278 Y26.205
Y25.759
X-37.27 Y25.648
X-37.245 Y25.53
X-37.136 Y25.09
X-37.121 Y25.034
X-37.099 Y24.979
X-37.022 Y24.828
X-36.925 Y24.644
X-36.804 Y24.421
X-36.799 Y24.414
X-36.614 Y24.198
X-36.417 Y23.975
X-36.353 Y23.91
X-36.13 Y23.75
X-35.907 Y23.596
X-35.801 Y23.529
X-35.684 Y23.478
X-35.229 Y23.306
X-35.122 Y23.279
X-35.015 Y23.264
X-34.569 Y23.21
X-34.346 Y23.199
X-33.9 Y23.181
X-33.676 Y23.175
X-33.527
G3 X-33.286 Y23.232 I-0.022 J0.635
G1 X-33.196 Y23.273 Z-5.492
X-33.107 Y23.313 Z-5.469
X-33.024 Y23.351 Z-5.431
X-32.946 Y23.387 Z-5.379
X-32.877 Y23.418 Z-5.314
X-32.819 Y23.445 Z-5.238
X-32.771 Y23.466 Z-5.153
X-32.736 Y23.482 Z-5.061
X-32.715 Y23.492 Z-4.964
X-32.708 Y23.495 Z-4.865
G0 Z5
X-24.402 Y22.174
Z-4.23
G1 Z-4.865 F1016
X-24.408 Y22.169 Z-4.964
X-24.426 Y22.154 Z-5.061
X-24.455 Y22.13 Z-5.153
X-24.495 Y22.097 Z-5.238
X-24.545 Y22.055 Z-5.314
X-24.603 Y22.006 Z-5.379
X-24.668 Y21.952 Z-5.431
X-24.738 Y21.893 Z-5.469
X-24.813 Y21.83 Z-5.492
X-24.889 Y21.766 Z-5.5
G3 X-24.937 Y21.522 I0.128 J-0.152
G1 X-24.681 Y21.076
X-24.587 Y20.853
X-24.505 Y20.63
X-24.443 Y20.407
X-24.4 Y20.184
X-24.371 Y20.036
X-24.318 Y19.886
X-24.25 Y19.734
X-24.158 Y19.566
X-24.049 Y19.399
X-23.912 Y19.223
X-23.75 Y19.047
X-23.566 Y18.876
X-23.348 Y18.703
X-23.106 Y18.542
X-22.839 Y18.393
X-22.537 Y18.255
X-22.209 Y18.137
X-21.862 Y18.042
X-21.49 Y17.972
X-21.092 Y17.929
X-20.674 Y17.918
X-20.263 Y17.941
X-19.862 Y17.995
X-19.838 Y18
X-19.523 Y18.108
X-19.239 Y18.282
X-19.002 Y18.516
X-18.823 Y18.796
X-18.711 Y19.109
X-18.672 Y19.44
Y19.515
X-18.659 Y19.738
X-18.63 Y19.961
G3 X-19.23 Y20.655 I-0.632 J0.061
G1 X-23.736 Y20.878
G3 X-24.4 Y20.184 I-0.031 J-0.634
G1 X-24.341 Y19.738
X-24.328 Y19.515
X-24.325 Y19.001
X-24.318 Y18.851
X-24.296 Y18.703
X-24.261 Y18.553
X-24.208 Y18.388
X-24.137 Y18.215
X-24.046 Y18.035
X-23.928 Y17.843
X-23.791 Y17.655
X-23.62 Y17.456
X-23.425 Y17.263
X-23.2 Y17.074
X-22.935 Y16.886
X-22.648 Y16.714
X-22.327 Y16.555
X-21.97 Y16.413
X-21.639 Y16.312
X-21.288 Y16.234
X-20.967 Y16.19
X-20.649 Y16.172
X-20.334 Y16.18
X-20.049 Y16.209
X-19.885 Y16.24
X-19.604 Y16.322
X-19.344 Y16.457
X-19.116 Y16.642
X-18.929 Y16.867
X-18.79 Y17.125
X-18.704 Y17.405
X-18.675 Y17.696
Y18.845
X-18.672 Y19.44
G3 X-19.37 Y20.053 I-0.635 J-0.019
G1 X-23.754 Y19.613
G3 X-24.325 Y19.001 I0.063 J-0.632
G1 Y17.507
X-24.315 Y17.313
X-24.295 Y17.156
X-24.259 Y16.99
X-24.204 Y16.806
X-24.131 Y16.619
X-24.031 Y16.413
X-23.911 Y16.209
X-23.763 Y15.998
X-23.584 Y15.783
X-23.383 Y15.576
X-23.151 Y15.374
X-22.889 Y15.181
X-22.602 Y15.002
X-22.294 Y14.843
X-21.969 Y14.707
X-21.645 Y14.601
X-21.307 Y14.52
X-20.999 Y14.472
X-20.675 Y14.448
X-20.383 Y14.449
X-20.076 Y14.476
X-19.801 Y14.522
X-19.795 Y14.524
X-19.489 Y14.638
X-19.216 Y14.816
X-18.988 Y15.05
X-18.817 Y15.328
X-18.711 Y15.636
X-18.675 Y15.961
Y17.696
G3 X-19.337 Y18.309 I-0.635 J-0.022
G1 X-23.718 Y18.12
G3 X-24.325 Y17.507 I0.027 J-0.634
G1 Y15.824
X-24.316 Y15.636
X-24.294 Y15.472
X-24.257 Y15.298
X-24.2 Y15.107
X-24.125 Y14.914
X-24.023 Y14.704
X-23.899 Y14.493
X-23.749 Y14.281
X-23.568 Y14.062
X-23.361 Y13.851
X-23.131 Y13.65
X-22.87 Y13.456
X-22.582 Y13.277
X-22.27 Y13.116
X-21.939 Y12.978
X-21.616 Y12.872
X-21.292 Y12.795
X-20.972 Y12.745
X-20.674 Y12.722
X-20.359 Y12.724
X-20.078 Y12.748
X-19.911 Y12.777
X-19.625 Y12.855
X-19.36 Y12.988
X-19.127 Y13.172
X-18.935 Y13.399
X-18.793 Y13.659
X-18.705 Y13.942
X-18.675 Y14.238
Y15.961
G3 X-19.329 Y16.573 I-0.635 J-0.022
G1 X-23.71 Y16.436
G3 X-24.325 Y15.824 I0.02 J-0.635
G1 Y14.162
X-24.313 Y13.922
X-24.291 Y13.758
X-24.254 Y13.583
X-24.196 Y13.39
X-24.121 Y13.196
X-24.018 Y12.984
X-23.893 Y12.772
X-23.742 Y12.557
X-23.56 Y12.338
X-23.353 Y12.126
X-23.121 Y11.924
X-22.861 Y11.731
X-22.571 Y11.551
X-22.26 Y11.39
X-21.94 Y11.256
X-21.613 Y11.149
X-21.288 Y11.071
X-20.977 Y11.023
X-20.661 Y10.999
X-20.37 Y11.001
X-20.066 Y11.027
X-19.911 Y11.053
X-19.625 Y11.131
X-19.36 Y11.265
X-19.127 Y11.449
X-18.935 Y11.675
X-18.793 Y11.936
X-18.705 Y12.219
X-18.675 Y12.514
Y14.238
G3 X-19.321 Y14.85 I-0.635 J-0.022
G1 X-23.701 Y14.775
G3 X-24.325 Y14.162 I0.011 J-0.635
G1 Y12.378
X-24.316 Y12.204
X-24.295 Y12.04
X-24.257 Y11.863
X-24.199 Y11.671
X-24.123 Y11.475
X-24.02 Y11.263
X-23.896 Y11.051
X-23.744 Y10.836
X-23.562 Y10.616
X-23.355 Y10.404
X-23.123 Y10.202
X-22.861 Y10.008
X-22.573 Y9.828
X-22.261 Y9.667
X-21.94 Y9.533
X-21.613 Y9.426
X-21.287 Y9.348
X-20.977 Y9.3
X-20.661 Y9.276
X-20.37 Y9.278
X-20.066 Y9.304
X-19.911 Y9.33
X-19.625 Y9.408
X-19.36 Y9.542
X-19.127 Y9.726
X-18.935 Y9.952
X-18.793 Y10.212
X-18.705 Y10.496
X-18.675 Y10.791
Y12.514
G3 X-19.329 Y13.127 I-0.635 J-0.022
G1 X-23.71 Y12.99
G3 X-24.325 Y12.378 I0.02 J-0.635
G1 Y10.594
X-24.317 Y10.444
X-24.291 Y10.272
X-24.249 Y10.095
X-24.186 Y9.897
X-24.103 Y9.699
X-23.995 Y9.487
X-23.861 Y9.27
X-23.704 Y9.056
X-23.515 Y8.839
X-23.298 Y8.625
X-23.058 Y8.424
X-22.791 Y8.236
X-22.499 Y8.062
X-22.18 Y7.906
X-21.859 Y7.78
X-21.524 Y7.678
X-21.209 Y7.61
X-20.89 Y7.567
X-20.585 Y7.551
X-20.287 Y7.559
X-19.992 Y7.59
X-19.88 Y7.612
X-19.6 Y7.694
X-19.341 Y7.83
X-19.114 Y8.014
X-18.928 Y8.24
X-18.789 Y8.497
X-18.704 Y8.776
X-18.675 Y9.067
Y10.791
G3 X-19.338 Y11.403 I-0.635 J-0.022
G1 X-23.719 Y11.206
G3 X-24.325 Y10.594 I0.029 J-0.634
G1 Y8.91
X-24.317 Y8.754
X-24.296 Y8.594
X-24.257 Y8.412
X-24.202 Y8.227
X-24.123 Y8.025
X-24.022 Y7.817
X-23.898 Y7.606
X-23.743 Y7.386
X-23.564 Y7.169
X-23.359 Y6.96
X-23.123 Y6.754
X-22.859 Y6.559
X-22.572 Y6.38
X-22.264 Y6.221
X-21.938 Y6.085
X-21.618 Y5.98
X-21.286 Y5.901
X-20.98 Y5.853
X-20.66 Y5.829
X-20.371 Y5.831
X-20.066 Y5.857
X-19.911 Y5.883
X-19.625 Y5.961
X-19.36 Y6.095
X-19.127 Y6.279
X-18.935 Y6.505
X-18.793 Y6.765
X-18.705 Y7.049
X-18.675 Y7.344
Y9.067
G3 X-19.332 Y9.68 I-0.635 J-0.022
G1 X-23.713 Y9.522
G3 X-24.325 Y8.91 I0.023 J-0.635
G1 Y7.248
X-24.314 Y7.032
X-24.293 Y6.867
X-24.255 Y6.691
X-24.197 Y6.499
X-24.121 Y6.303
X-24.018 Y6.091
X-23.894 Y5.88
X-23.743 Y5.665
X-23.56 Y5.445
X-23.354 Y5.233
X-23.122 Y5.031
X-22.86 Y4.837
X-22.572 Y4.658
X-22.26 Y4.497
X-21.939 Y4.363
X-21.612 Y4.256
X-21.287 Y4.178
X-20.976 Y4.129
X-20.661 Y4.106
X-20.37 Y4.108
X-20.066 Y4.134
X-19.911 Y4.16
X-19.625 Y4.238
X-19.36 Y4.372
X-19.127 Y4.555
X-18.935 Y4.782
X-18.793 Y5.042
X-18.705 Y5.326
X-18.675 Y5.621
Y7.344
G3 X-19.323 Y7.957 I-0.635 J-0.022
G1 X-23.704 Y7.861
G3 X-24.325 Y7.248 I0.014 J-0.635
G1 Y5.464
X-24.317 Y5.312
X-24.296 Y5.147
X-24.258 Y4.971
X-24.2 Y4.778
X-24.124 Y4.582
X-24.021 Y4.37
X-23.896 Y4.158
X-23.745 Y3.942
X-23.562 Y3.722
X-23.355 Y3.51
X-23.124 Y3.308
X-22.861 Y3.114
X-22.573 Y2.935
X-22.261 Y2.774
X-21.94 Y2.639
X-21.613 Y2.533
X-21.287 Y2.455
X-20.977 Y2.406
X-20.661 Y2.383
X-20.37 Y2.384
X-20.066 Y2.41
X-19.911 Y2.436
X-19.625 Y2.515
X-19.36 Y2.648
X-19.127 Y2.832
X-18.935 Y3.059
X-18.793 Y3.319
X-18.705 Y3.602
X-18.675 Y3.898
Y5.621
G3 X-19.332 Y6.233 I-0.635 J-0.022
G1 X-23.713 Y6.077
G3 X-24.325 Y5.464 I0.023 J-0.635
G1 Y3.78
X-24.315 Y3.587
X-24.294 Y3.422
X-24.256 Y3.246
X-24.198 Y3.053
X-24.122 Y2.858
X-24.019 Y2.645
X-23.895 Y2.434
X-23.743 Y2.219
X-23.561 Y1.999
X-23.354 Y1.787
X-23.122 Y1.585
X-22.86 Y1.391
X-22.572 Y1.212
X-22.26 Y1.051
X-21.939 Y0.916
X-21.612 Y0.81
X-21.287 Y0.732
X-20.976 Y0.683
X-20.661 Y0.659
X-20.37 Y0.661
X-20.066 Y0.687
X-19.911 Y0.713
X-19.625 Y0.792
X-19.36 Y0.925
X-19.127 Y1.109
X-18.935 Y1.336
X-18.793 Y1.596
X-18.705 Y1.879
X-18.675 Y2.175
Y3.898
G3 X-19.327 Y4.51 I-0.635 J-0.022
G1 X-23.707 Y4.393
G3 X-24.325 Y3.78 I0.017 J-0.635
G1 Y1.996
X-24.317 Y1.846
X-24.294 Y1.678
X-24.254 Y1.501
X-24.193 Y1.306
X-24.114 Y1.109
X-24.008 Y0.896
X-23.879 Y0.682
X-23.725 Y0.468
X-23.539 Y0.248
X-23.326 Y0.036
X-23.091 Y-0.165
X-22.826 Y-0.357
X-22.536 Y-0.533
X-22.22 Y-0.692
X-21.898 Y-0.822
X-21.567 Y-0.927
X-21.247 Y-1
X-20.933 Y-1.045
X-20.622 Y-1.065
X-20.328 Y-1.06
X-20.028 Y-1.031
X-19.896 Y-1.007
X-19.612 Y-0.927
X-19.35 Y-0.792
X-19.121 Y-0.608
X-18.932 Y-0.382
X-18.791 Y-0.123
X-18.704 Y0.158
X-18.675 Y0.451
Y2.175
G3 X-19.335 Y2.787 I-0.635 J-0.022
G1 X-23.716 Y2.608
G3 X-24.325 Y1.996 I0.026 J-0.634
G1 Y0.335
X-24.315 Y0.138
X-24.294 Y-0.023
X-24.256 Y-0.203
X-24.199 Y-0.392
X-24.122 Y-0.59
X-24.019 Y-0.802
X-23.896 Y-1.011
X-23.742 Y-1.229
X-23.561 Y-1.448
X-23.356 Y-1.658
X-23.123 Y-1.862
X-22.859 Y-2.057
X-22.571 Y-2.236
X-22.261 Y-2.396
X-21.938 Y-2.531
X-21.615 Y-2.637
X-21.286 Y-2.715
X-20.978 Y-2.763
X-20.66 Y-2.787
X-20.37 Y-2.786
X-20.066 Y-2.759
X-19.911 Y-2.733
X-19.625 Y-2.655
X-19.36 Y-2.521
X-19.127 Y-2.338
X-18.935 Y-2.111
X-18.793 Y-1.851
X-18.705 Y-1.567
X-18.675 Y-1.272
Y0.451
G3 X-19.326 Y1.064 I-0.635 J-0.022
G1 X-23.707 Y0.947
G3 X-24.325 Y0.335 I0.017 J-0.635
G1 Y-1.45
X-24.317 Y-1.599
X-24.294 Y-1.768
X-24.254 Y-1.944
X-24.193 Y-2.14
X-24.114 Y-2.337
X-24.009 Y-2.549
X-23.879 Y-2.763
X-23.726 Y-2.977
X-23.54 Y-3.197
X-23.328 Y-3.41
X-23.093 Y-3.611
X-22.829 Y-3.802
X-22.538 Y-3.979
X-22.222 Y-4.138
X-21.901 Y-4.268
X-21.57 Y-4.373
X-21.25 Y-4.446
X-20.935 Y-4.492
X-20.625 Y-4.512
X-20.331 Y-4.507
X-20.031 Y-4.478
X-19.896 Y-4.454
X-19.613 Y-4.374
X-19.351 Y-4.239
X-19.121 Y-4.055
X-18.932 Y-3.829
X-18.791 Y-3.57
X-18.704 Y-3.289
X-18.675 Y-2.996
Y-1.272
G3 X-19.335 Y-0.66 I-0.635 J-0.022
G1 X-23.716 Y-0.837
G3 X-24.325 Y-1.45 I0.026 J-0.634
G1 Y-3.133
X-24.316 Y-3.308
X-24.295 Y-3.469
X-24.257 Y-3.649
X-24.2 Y-3.838
X-24.123 Y-4.036
X-24.02 Y-4.248
X-23.897 Y-4.458
X-23.743 Y-4.676
X-23.562 Y-4.895
X-23.357 Y-5.105
X-23.123 Y-5.308
X-22.86 Y-5.503
X-22.571 Y-5.683
X-22.261 Y-5.843
X-21.939 Y-5.978
X-21.615 Y-6.083
X-21.286 Y-6.162
X-20.979 Y-6.21
X-20.661 Y-6.234
X-20.37 Y-6.232
X-20.066 Y-6.206
X-19.911 Y-6.18
X-19.625 Y-6.102
X-19.36 Y-5.968
X-19.127 Y-5.784
X-18.935 Y-5.558
X-18.793 Y-5.298
X-18.705 Y-5.014
X-18.675 Y-4.719
Y-2.996
G3 X-19.33 Y-2.383 I-0.635 J-0.022
G1 X-23.71 Y-2.521
G3 X-24.325 Y-3.133 I0.02 J-0.635
G1 Y-4.795
X-24.313 Y-5.031
X-24.292 Y-5.196
X-24.254 Y-5.372
X-24.196 Y-5.564
X-24.12 Y-5.76
X-24.017 Y-5.972
X-23.893 Y-6.183
X-23.742 Y-6.398
X-23.559 Y-6.618
X-23.353 Y-6.83
X-23.121 Y-7.032
X-22.859 Y-7.226
X-22.571 Y-7.405
X-22.259 Y-7.566
X-21.938 Y-7.7
X-21.612 Y-7.807
X-21.286 Y-7.885
X-20.976 Y-7.933
X-20.66 Y-7.957
X-20.369 Y-7.955
X-20.065 Y-7.929
X-19.911 Y-7.903
X-19.625 Y-7.825
X-19.36 Y-7.691
X-19.127 Y-7.507
X-18.935 Y-7.281
X-18.793 Y-7.021
X-18.705 Y-6.737
X-18.675 Y-6.442
Y-4.719
G3 X-19.321 Y-4.106 I-0.635 J-0.022
G1 X-23.701 Y-4.182
G3 X-24.325 Y-4.795 I0.011 J-0.635
G1 Y-6.579
X-24.316 Y-6.751
X-24.295 Y-6.916
X-24.257 Y-7.092
X-24.199 Y-7.285
X-24.123 Y-7.481
X-24.02 Y-7.693
X-23.896 Y-7.905
X-23.744 Y-8.12
X-23.561 Y-8.34
X-23.355 Y-8.552
X-23.123 Y-8.755
X-22.861 Y-8.949
X-22.572 Y-9.128
X-22.26 Y-9.289
X-21.939 Y-9.423
X-21.612 Y-9.53
X-21.287 Y-9.608
X-20.976 Y-9.656
X-20.661 Y-9.68
X-20.37 Y-9.678
X-20.066 Y-9.652
X-19.911 Y-9.626
X-19.625 Y-9.548
X-19.36 Y-9.414
X-19.127 Y-9.23
X-18.935 Y-9.004
X-18.793 Y-8.744
X-18.705 Y-8.46
X-18.675 Y-8.165
Y-6.442
G3 X-19.33 Y-5.829 I-0.635 J-0.022
G1 X-23.71 Y-5.967
G3 X-24.325 Y-6.579 I0.02 J-0.635
G1 Y-8.363
X-24.317 Y-8.513
X-24.291 Y-8.685
X-24.249 Y-8.862
X-24.185 Y-9.06
X-24.103 Y-9.259
X-23.994 Y-9.47
X-23.86 Y-9.688
X-23.703 Y-9.901
X-23.514 Y-10.119
X-23.297 Y-10.332
X-23.056 Y-10.533
X-22.789 Y-10.722
X-22.496 Y-10.895
X-22.178 Y-11.051
X-21.857 Y-11.177
X-21.521 Y-11.278
X-21.207 Y-11.347
X-20.888 Y-11.389
X-20.583 Y-11.406
X-20.285 Y-11.397
X-19.99 Y-11.365
X-19.879 Y-11.344
X-19.599 Y-11.262
X-19.341 Y-11.126
X-19.114 Y-10.941
X-18.928 Y-10.716
X-18.789 Y-10.459
X-18.704 Y-10.18
X-18.675 Y-9.889
Y-8.165
G3 X-19.338 Y-7.553 I-0.635 J-0.022
G1 X-23.719 Y-7.751
G3 X-24.325 Y-8.363 I0.029 J-0.634
G1 Y-10.047
X-24.317 Y-10.202
X-24.296 Y-10.362
X-24.257 Y-10.544
X-24.202 Y-10.729
X-24.123 Y-10.931
X-24.022 Y-11.139
X-23.898 Y-11.35
X-23.743 Y-11.571
X-23.564 Y-11.787
X-23.359 Y-11.996
X-23.123 Y-12.202
X-22.859 Y-12.398
X-22.572 Y-12.576
X-22.264 Y-12.735
X-21.938 Y-12.872
X-21.618 Y-12.976
X-21.286 Y-13.056
X-20.98 Y-13.103
X-20.66 Y-13.127
X-20.371 Y-13.126
X-20.066 Y-13.099
X-19.911 Y-13.073
X-19.625 Y-12.995
X-19.36 Y-12.861
X-19.127 Y-12.678
X-18.935 Y-12.451
X-18.793 Y-12.191
X-18.705 Y-11.907
X-18.675 Y-11.612
Y-9.889
G3 X-19.333 Y-9.276 I-0.635 J-0.022
G1 X-23.713 Y-9.435
G3 X-24.325 Y-10.047 I0.023 J-0.635
G1 Y-11.709
X-24.314 Y-11.925
X-24.293 Y-12.089
X-24.255 Y-12.265
X-24.197 Y-12.458
X-24.121 Y-12.653
X-24.018 Y-12.865
X-23.894 Y-13.077
X-23.743 Y-13.291
X-23.56 Y-13.511
X-23.354 Y-13.723
X-23.122 Y-13.925
X-22.86 Y-14.119
X-22.572 Y-14.298
X-22.26 Y-14.459
X-21.939 Y-14.593
X-21.612 Y-14.7
X-21.287 Y-14.778
X-20.976 Y-14.827
X-20.661 Y-14.85
X-20.37 Y-14.849
X-20.066 Y-14.822
X-19.911 Y-14.796
X-19.625 Y-14.718
X-19.36 Y-14.584
X-19.127 Y-14.401
X-18.935 Y-14.174
X-18.793 Y-13.914
X-18.705 Y-13.63
X-18.675 Y-13.335
Y-11.612
G3 X-19.324 Y-10.999 I-0.635 J-0.022
G1 X-23.704 Y-11.096
G3 X-24.325 Y-11.709 I0.014 J-0.635
G1 Y-13.493
X-24.317 Y-13.645
X-24.296 Y-13.809
X-24.258 Y-13.986
X-24.2 Y-14.178
X-24.124 Y-14.374
X-24.021 Y-14.586
X-23.896 Y-14.798
X-23.745 Y-15.014
X-23.562 Y-15.234
X-23.356 Y-15.446
X-23.124 Y-15.648
X-22.861 Y-15.842
X-22.573 Y-16.021
X-22.261 Y-16.182
X-21.94 Y-16.317
X-21.613 Y-16.423
X-21.287 Y-16.501
X-20.977 Y-16.55
X-20.661 Y-16.574
X-20.37 Y-16.572
X-20.066 Y-16.546
X-19.911 Y-16.52
X-19.625 Y-16.441
X-19.36 Y-16.308
X-19.127 Y-16.124
X-18.935 Y-15.897
X-18.793 Y-15.637
X-18.705 Y-15.354
X-18.675 Y-15.058
Y-13.335
G3 X-19.332 Y-12.723 I-0.635 J-0.022
G1 X-23.713 Y-12.88
G3 X-24.325 Y-13.493 I0.023 J-0.635
G1 Y-15.177
X-24.315 Y-15.37
X-24.294 Y-15.534
X-24.256 Y-15.71
X-24.198 Y-15.903
X-24.122 Y-16.098
X-24.019 Y-16.311
X-23.895 Y-16.522
X-23.743 Y-16.737
X-23.561 Y-16.957
X-23.354 Y-17.169
X-23.123 Y-17.371
X-22.861 Y-17.565
X-22.572 Y-17.745
X-22.26 Y-17.906
X-21.939 Y-18.04
X-21.612 Y-18.147
X-21.287 Y-18.225
X-20.976 Y-18.273
X-20.661 Y-18.297
X-20.37 Y-18.295
X-20.066 Y-18.269
X-19.911 Y-18.243
X-19.625 Y-18.165
X-19.36 Y-18.031
X-19.127 Y-17.847
X-18.935 Y-17.621
X-18.793 Y-17.36
X-18.705 Y-17.077
X-18.675 Y-16.782
Y-15.058
G3 X-19.327 Y-14.446 I-0.635 J-0.022
G1 X-23.708 Y-14.564
G3 X-24.325 Y-15.177 I0.017 J-0.635
G1 Y-16.961
X-24.317 Y-17.111
X-24.293 Y-17.279
X-24.254 Y-17.456
X-24.193 Y-17.652
X-24.113 Y-17.848
X-24.007 Y-18.061
X-23.878 Y-18.275
X-23.724 Y-18.49
X-23.538 Y-18.709
X-23.325 Y-18.922
X-23.089 Y-19.123
X-22.825 Y-19.314
X-22.534 Y-19.49
X-22.218 Y-19.649
X-21.897 Y-19.779
X-21.565 Y-19.883
X-21.246 Y-19.956
X-20.931 Y-20.002
X-20.621 Y-20.021
X-20.327 Y-20.016
X-20.027 Y-19.987
X-19.895 Y-19.963
X-19.612 Y-19.883
X-19.35 Y-19.748
X-19.12 Y-19.564
X-18.931 Y-19.338
X-18.791 Y-19.079
X-18.704 Y-18.798
X-18.675 Y-18.505
Y-16.782
G3 X-19.336 Y-16.169 I-0.635 J-0.022
G1 X-23.716 Y-16.349
G3 X-24.325 Y-16.961 I0.026 J-0.634
G1 Y-18.622
X-24.315 Y-18.819
X-24.294 Y-18.979
X-24.256 Y-19.159
X-24.199 Y-19.348
X-24.122 Y-19.546
X-24.019 Y-19.758
X-23.896 Y-19.967
X-23.742 Y-20.186
X-23.561 Y-20.404
X-23.356 Y-20.614
X-23.123 Y-20.818
X-22.859 Y-21.013
X-22.571 Y-21.192
X-22.261 Y-21.352
X-21.938 Y-21.487
X-21.615 Y-21.593
X-21.286 Y-21.672
X-20.978 Y-21.72
X-20.66 Y-21.743
X-20.37 Y-21.742
X-20.114 Y-21.72
X-19.828 Y-21.666
X-19.559 Y-21.559
X-19.315 Y-21.4
X-19.107 Y-21.198
X-18.943 Y-20.958
X-18.829 Y-20.691
X-18.768 Y-20.407
X-18.71 Y-19.738
X-18.68 Y-19.069
X-18.675 Y-18.845
Y-18.505
G3 X-19.327 Y-17.893 I-0.635 J-0.022
G1 X-23.707 Y-18.01
G3 X-24.325 Y-18.622 I0.017 J-0.635
G1 X-24.326 Y-19.069
X-24.328 Y-19.515
X-24.341 Y-19.738
X-24.386 Y-20.083
X-24.399 Y-20.242
Y-20.392
X-24.386 Y-20.554
X-24.357 Y-20.731
X-24.311 Y-20.916
X-24.243 Y-21.119
X-24.155 Y-21.323
X-24.041 Y-21.541
X-23.9 Y-21.763
X-23.737 Y-21.981
X-23.54 Y-22.202
X-23.316 Y-22.418
X-23.067 Y-22.621
X-22.793 Y-22.81
X-22.493 Y-22.984
X-22.176 Y-23.134
X-21.842 Y-23.261
X-21.532 Y-23.351
X-21.21 Y-23.418
X-20.909 Y-23.455
X-20.602 Y-23.468
X-20.54 Y-23.465
X-20.23 Y-23.42
X-19.937 Y-23.311
X-19.673 Y-23.143
X-19.45 Y-22.923
X-19.278 Y-22.661
X-19.166 Y-22.368
X-18.939 Y-21.522
X-18.881 Y-21.299
X-18.85 Y-21.076
X-18.793 Y-20.63
X-18.768 Y-20.407
G3 X-19.377 Y-19.725 I-0.633 J0.048
G1 X-23.735 Y-19.553
G3 X-24.386 Y-20.083 I-0.025 J-0.635
G1 X-24.4 Y-20.184
X-24.443 Y-20.407
X-24.505 Y-20.63
X-24.587 Y-20.853
X-24.681 Y-21.076
X-24.74 Y-21.214
X-24.777 Y-21.359
X-24.801 Y-21.507
X-24.813 Y-21.671
X-24.812 Y-21.842
X-24.796 Y-22.035
X-24.762 Y-22.236
X-24.708 Y-22.45
X-24.63 Y-22.68
X-24.531 Y-22.91
X-24.402 Y-23.153
X-24.244 Y-23.401
X-24.061 Y-23.643
X-23.847 Y-23.883
X-23.601 Y-24.117
X-23.327 Y-24.339
X-23.03 Y-24.543
X-22.724 Y-24.719
X-22.415 Y-24.865
X-22.102 Y-24.983
X-21.806 Y-25.068
X-21.683 Y-25.092
X-21.394 Y-25.122
X-21.104 Y-25.094
X-20.826 Y-25.011
X-20.569 Y-24.874
X-20.344 Y-24.691
X-20.159 Y-24.466
X-20.129 Y-24.421
X-19.849 Y-23.963
X-19.748 Y-23.752
X-19.332 Y-22.86
X-19.238 Y-22.637
X-19.166 Y-22.368
G3 X-19.668 Y-21.601 I-0.619 J0.143
G1 X-24.025 Y-20.786
G3 X-24.681 Y-21.076 I-0.117 J-0.624
G1 X-24.937 Y-21.522
X-24.979 Y-21.584
X-25.202 Y-21.864
X-25.289 Y-21.986
X-25.36 Y-22.118
X-25.418 Y-22.256
X-25.467 Y-22.406
X-25.505 Y-22.57
X-25.532 Y-22.75
X-25.547 Y-22.951
X-25.544 Y-23.161
X-25.523 Y-23.394
X-25.481 Y-23.638
X-25.416 Y-23.892
X-25.322 Y-24.164
X-25.202 Y-24.439
X-25.054 Y-24.715
X-24.872 Y-24.997
X-24.658 Y-25.277
X-24.416 Y-25.546
X-24.154 Y-25.793
X-23.881 Y-26.013
X-23.599 Y-26.204
X-23.319 Y-26.363
X-23.185 Y-26.425
X-22.901 Y-26.524
X-22.602 Y-26.563
X-22.302 Y-26.541
X-22.012 Y-26.459
X-21.745 Y-26.32
X-21.512 Y-26.13
X-20.919 Y-25.536
X-20.867 Y-25.48
X-20.825 Y-25.425
X-20.279 Y-24.644
X-20.159 Y-24.466
G3 X-20.433 Y-23.554 I-0.539 J0.335
G1 X-24.454 Y-21.7
G3 X-25.202 Y-21.864 I-0.266 J-0.577
G1 X-25.285 Y-21.968
X-25.425 Y-22.118
X-25.5 Y-22.191
X-25.871 Y-22.485
X-25.988 Y-22.578
X-26.089 Y-22.689
X-26.179 Y-22.809
X-26.259 Y-22.941
X-26.335 Y-23.088
X-26.402 Y-23.253
X-26.463 Y-23.442
X-26.51 Y-23.643
X-26.544 Y-23.869
X-26.561 Y-24.113
X-26.558 Y-24.37
X-26.532 Y-24.653
X-26.481 Y-24.945
X-26.404 Y-25.245
X-26.295 Y-25.56
X-26.154 Y-25.882
X-25.983 Y-26.199
X-25.786 Y-26.505
X-25.572 Y-26.783
X-25.337 Y-27.044
X-25.105 Y-27.262
X-24.964 Y-27.375
X-24.713 Y-27.538
X-24.434 Y-27.647
X-24.138 Y-27.697
X-23.839 Y-27.687
X-23.548 Y-27.617
X-23.276 Y-27.49
X-23.194 Y-27.441
X-22.997 Y-27.32
X-22.042 Y-26.651
X-21.856 Y-26.474
X-21.512 Y-26.13
G3 X-21.596 Y-25.188 I-0.464 J0.433
G1 X-25.164 Y-22.521
G3 X-25.871 Y-22.485 I-0.38 J-0.509
G1 X-26.094 Y-22.629
X-26.317 Y-22.756
X-26.514 Y-22.86
X-26.54 Y-22.872
X-26.607 Y-22.897
X-26.745 Y-22.957
X-26.873 Y-23.035
X-26.992 Y-23.126
X-27.103 Y-23.227
X-27.207 Y-23.341
X-27.315 Y-23.478
X-27.418 Y-23.634
X-27.513 Y-23.808
X-27.604 Y-24.01
X-27.681 Y-24.226
X-27.747 Y-24.47
X-27.796 Y-24.738
X-27.825 Y-25.018
X-27.831 Y-25.325
X-27.812 Y-25.65
X-27.765 Y-25.982
X-27.689 Y-26.326
X-27.58 Y-26.677
X-27.447 Y-27.008
X-27.285 Y-27.335
X-27.117 Y-27.614
X-26.923 Y-27.886
X-26.89 Y-27.925
X-26.647 Y-28.154
X-26.358 Y-28.323
X-26.039 Y-28.423
X-25.706 Y-28.449
X-25.375 Y-28.399
X-24.867 Y-28.263
X-24.756 Y-28.222
X-23.64 Y-27.702
X-23.417 Y-27.575
X-23.276 Y-27.49
G3 X-23.127 Y-26.559 I-0.345 J0.533
G1 X-25.909 Y-23.1
G3 X-26.607 Y-22.897 I-0.495 J-0.398
G1 X-26.763 Y-22.956
X-26.986 Y-23.029
X-27.19 Y-23.083
X-27.209 Y-23.087
X-27.432 Y-23.116
X-27.579 Y-23.142
X-27.724 Y-23.184
X-27.863 Y-23.24
X-27.995 Y-23.31
X-28.128 Y-23.395
X-28.26 Y-23.495
X-28.399 Y-23.62
X-28.534 Y-23.761
X-28.669 Y-23.928
X-28.8 Y-24.12
X-28.921 Y-24.33
X-29.035 Y-24.572
X-29.134 Y-24.837
X-29.216 Y-25.122
X-29.279 Y-25.436
X-29.319 Y-25.773
X-29.332 Y-26.122
X-29.317 Y-26.483
X-29.271 Y-26.857
X-29.202 Y-27.19
X-29.102 Y-27.533
X-28.99 Y-27.826
X-28.943 Y-27.926
X-28.788 Y-28.182
X-28.584 Y-28.401
X-28.341 Y-28.575
X-28.067 Y-28.697
X-27.775 Y-28.761
X-27.476 Y-28.765
X-27.209 Y-28.742
X-26.986 Y-28.721
X-26.317 Y-28.637
X-26.094 Y-28.592
X-25.375 Y-28.399
G3 X-24.981 Y-27.532 I-0.186 J0.607
G1 X-26.793 Y-23.488
G3 X-27.432 Y-23.116 I-0.58 J-0.26
G1 X-27.655 Y-23.145
X-27.878 Y-23.172
X-28.547 Y-23.175
X-28.697 Y-23.182
X-28.844 Y-23.211
X-28.988 Y-23.252
X-29.134 Y-23.308
X-29.293 Y-23.383
X-29.452 Y-23.475
X-29.62 Y-23.591
X-29.79 Y-23.73
X-29.957 Y-23.89
X-30.128 Y-24.082
X-30.288 Y-24.295
X-30.441 Y-24.537
X-30.587 Y-24.813
X-30.714 Y-25.109
X-30.821 Y-25.427
X-30.907 Y-25.775
X-30.967 Y-26.141
X-30.997 Y-26.492
X-30.998 Y-26.851
X-30.972 Y-27.175
X-30.921 Y-27.499
X-30.848 Y-27.797
X-30.845 Y-27.808
X-30.718 Y-28.089
X-30.536 Y-28.338
X-30.306 Y-28.544
X-30.038 Y-28.698
X-29.745 Y-28.793
X-29.438 Y-28.825
X-28.547
X-27.878 Y-28.796
X-27.655 Y-28.781
X-27.476 Y-28.765
G3 X-26.935 Y-27.99 I-0.077 J0.63
G1 X-27.951 Y-23.664
G3 X-28.547 Y-23.175 I-0.618 J-0.145
G1 X-29.885
X-30.035 Y-23.183
X-30.184 Y-23.203
X-30.341 Y-23.238
X-30.506 Y-23.289
X-30.68 Y-23.358
X-30.866 Y-23.451
X-31.052 Y-23.562
X-31.249 Y-23.703
X-31.443 Y-23.868
X-31.636 Y-24.06
X-31.83 Y-24.285
X-32.011 Y-24.535
X-32.179 Y-24.811
X-32.333 Y-25.116
X-32.468 Y-25.448
X-32.579 Y-25.799
X-32.656 Y-26.133
X-32.706 Y-26.475
X-32.727 Y-26.794
X-32.723 Y-27.108
X-32.693 Y-27.415
X-32.643 Y-27.698
X-32.638 Y-27.718
X-32.522 Y-28.021
X-32.343 Y-28.291
X-32.11 Y-28.516
X-31.833 Y-28.685
X-31.526 Y-28.79
X-31.204 Y-28.825
X-29.438
G3 X-28.828 Y-28.126 I-0.022 J0.635
G1 X-29.276 Y-23.745
G3 X-29.885 Y-23.175 I-0.632 J-0.064
G1 X-31.446
X-31.601 Y-23.183
X-31.759 Y-23.204
X-31.923 Y-23.239
X-32.107 Y-23.294
X-32.293 Y-23.366
X-32.494 Y-23.463
X-32.7 Y-23.585
X-32.907 Y-23.73
X-33.12 Y-23.907
X-33.327 Y-24.11
X-33.526 Y-24.338
X-33.718 Y-24.597
X-33.897 Y-24.884
X-34.057 Y-25.194
X-34.194 Y-25.523
X-34.303 Y-25.857
X-34.38 Y-26.178
X-34.432 Y-26.509
X-34.454 Y-26.807
X-34.453 Y-27.127
X-34.428 Y-27.412
X-34.378 Y-27.705
X-34.264 Y-28.011
X-34.086 Y-28.284
X-33.852 Y-28.512
X-33.575 Y-28.683
X-33.266 Y-28.789
X-32.942 Y-28.825
X-31.204
G3 X-30.592 Y-28.155 I-0.022 J0.635
G1 X-30.834 Y-23.775
G3 X-31.446 Y-23.175 I-0.634 J-0.035
G1 X-33.13
X-33.28 Y-23.183
X-33.446 Y-23.205
X-33.618 Y-23.243
X-33.81 Y-23.302
X-34.003 Y-23.378
X-34.212 Y-23.481
X-34.425 Y-23.607
X-34.637 Y-23.758
X-34.854 Y-23.941
X-35.066 Y-24.15
X-35.267 Y-24.383
X-35.458 Y-24.644
X-35.637 Y-24.934
X-35.796 Y-25.247
X-35.933 Y-25.58
X-36.036 Y-25.902
X-36.113 Y-26.228
X-36.161 Y-26.547
X-36.182 Y-26.845
X-36.178 Y-27.16
X-36.152 Y-27.439
X-36.135 Y-27.537
X-36.049 Y-27.84
X-35.9 Y-28.118
X-35.696 Y-28.358
X-35.446 Y-28.55
X-35.161 Y-28.684
X-34.854 Y-28.755
X-34.569 Y-28.79
X-34.346 Y-28.801
X-33.9 Y-28.819
X-33.676 Y-28.825
X-32.942
G3 X-32.329 Y-28.163 I-0.022 J0.635
G1 X-32.518 Y-23.782
G3 X-33.13 Y-23.175 I-0.634 J-0.027
G1 X-33.676
X-33.9 Y-23.181
X-34.346 Y-23.199
X-34.569 Y-23.21
X-35.015 Y-23.264
X-35.122 Y-23.279
X-35.229 Y-23.306
X-35.684 Y-23.478
X-35.801 Y-23.529
X-35.907 Y-23.596
X-36.133 Y-23.752
X-36.353 Y-23.91
X-36.417 Y-23.975
X-36.614 Y-24.198
X-36.799 Y-24.414
X-36.804 Y-24.421
X-36.925 Y-24.644
X-37.042 Y-24.867
X-37.099 Y-24.979
X-37.121 Y-25.034
X-37.136 Y-25.09
X-37.246 Y-25.536
X-37.27 Y-25.648
X-37.278 Y-25.759
Y-26.205
X-37.275 Y-26.317
X-37.255 Y-26.428
X-37.145 Y-26.874
X-37.113 Y-26.986
X-37.061 Y-27.097
X-36.826 Y-27.543
X-36.799 Y-27.587
X-36.646 Y-27.766
X-36.448 Y-27.989
X-36.353 Y-28.09
X-36.184 Y-28.212
X-35.861 Y-28.435
X-35.772 Y-28.486
X-35.684 Y-28.522
X-35.238 Y-28.691
X-35.182 Y-28.709
X-35.126 Y-28.721
X-35.015 Y-28.736
X-34.854 Y-28.755
G3 X-34.608 Y-28.728 I0.055 J0.633
G1 X-34.513 Y-28.698 Z-5.492
X-34.421 Y-28.668 Z-5.469
X-34.333 Y-28.641 Z-5.431
X-34.252 Y-28.615 Z-5.379
X-34.18 Y-28.592 Z-5.314
X-34.118 Y-28.573 Z-5.238
X-34.068 Y-28.557 Z-5.153
X-34.032 Y-28.545 Z-5.061
X-34.01 Y-28.538 Z-4.964
X-34.002 Y-28.536 Z-4.865
G0 Z15
X15.265 Y1.466
Z5
Z3.685
G1 Z3.05 F1016
G3 X9.993 Y-1.467 Z2.719 I-2.636 J-1.467
X15.265 Y1.466 Z2.388 I2.636 J1.467
X9.993 Y-1.467 Z2.057 I-2.636 J-1.467
X15.265 Y1.466 Z1.726 I2.636 J1.467
X9.993 Y-1.467 Z1.395 I-2.636 J-1.467
X15.265 Y1.466 Z1.065 I2.636 J1.467
X9.993 Y-1.467 Z0.734 I-2.636 J-1.467
X15.265 Y1.466 Z0.403 I2.636 J1.467
X9.993 Y-1.467 Z0.072 I-2.636 J-1.467
X15.265 Y1.466 Z-0.259 I2.636 J1.467
X9.993 Y-1.467 Z-0.59 I-2.636 J-1.467
X15.265 Y1.466 Z-0.921 I2.636 J1.467
X9.993 Y-1.467 Z-1.252 I-2.636 J-1.467
X15.265 Y1.466 Z-1.583 I2.636 J1.467
X9.993 Y-1.467 Z-1.914 I-2.636 J-1.467
X15.265 Y1.466 Z-2.244 I2.636 J1.467
X9.993 Y-1.467 Z-2.575 I-2.636 J-1.467
X15.265 Y1.466 Z-2.906 I2.636 J1.467
X9.993 Y-1.467 Z-3.237 I-2.636 J-1.467
X15.265 Y1.466 Z-3.568 I2.636 J1.467
X9.993 Y-1.467 Z-3.899 I-2.636 J-1.467
X15.265 Y1.466 Z-4.23 I2.636 J1.467
X9.993 Y-1.467 Z-4.561 I-2.636 J-1.467
X15.265 Y1.466 Z-4.892 I2.636 J1.467
X9.993 Y-1.467 Z-5.223 I-2.636 J-1.467
X15.645 Y0 Z-5.5 I2.636 J1.467
X9.613 I-3.016
X15.645 I3.016
G1 X15.649 Y0.245
X15.828 Y1.21
X15.873 Y1.353
X15.902 Y1.5
X15.917 Y1.65
X15.919 Y1.802
X15.909 Y1.966
X15.883 Y2.14
X15.841 Y2.323
X15.781 Y2.513
X15.702 Y2.708
X15.602 Y2.906
X15.48 Y3.106
X15.337 Y3.304
X15.171 Y3.497
X14.982 Y3.685
X14.772 Y3.862
X14.541 Y4.029
X14.289 Y4.18
X14.018 Y4.315
X13.729 Y4.43
X13.425 Y4.524
X13.108 Y4.595
X12.779 Y4.642
X12.442 Y4.662
X12.099 Y4.655
X11.753 Y4.619
X11.407 Y4.556
X11.062 Y4.464
X10.723 Y4.343
X10.392 Y4.194
X10.071 Y4.017
X9.763 Y3.814
X9.471 Y3.585
X9.196 Y3.333
X8.942 Y3.058
X8.709 Y2.761
X8.5 Y2.447
X8.316 Y2.115
X8.307 Y2.094
X8.234 Y1.897
X8.19 Y1.692
X8.175 Y1.483
Y-0.558
X8.193 Y-0.908
X8.233 Y-1.215
X8.299 Y-1.525
X8.392 Y-1.835
X8.512 Y-2.144
X8.659 Y-2.447
X8.833 Y-2.742
X9.033 Y-3.026
X9.257 Y-3.297
X9.506 Y-3.551
X9.777 Y-3.788
X10.069 Y-4.004
X10.379 Y-4.197
X10.707 Y-4.366
X11.049 Y-4.509
X11.403 Y-4.625
X11.768 Y-4.712
X12.139 Y-4.77
X12.516 Y-4.798
X12.895 Y-4.796
X13.274 Y-4.763
X13.65 Y-4.7
X14.026 Y-4.605
X14.28 Y-4.49
X14.507 Y-4.328
X14.699 Y-4.126
X14.902 Y-3.903
X14.943 Y-3.862
X15.166 Y-3.668
X15.389 Y-3.497
X15.447 Y-3.457
X15.612 Y-3.353
X15.738 Y-3.273
X15.976 Y-3.08
X16.203 Y-2.862
X16.417 Y-2.622
X16.615 Y-2.36
X16.945 Y-1.841
X17.269 Y-1.228
X17.49 Y-0.714
X17.65 Y-0.239
X17.763 Y0.211
X17.835 Y0.644
X17.87 Y1.066
X17.872 Y1.482
X17.865 Y1.579
X17.808 Y1.886
X17.689 Y2.174
X17.513 Y2.431
X17.287 Y2.645
X17.021 Y2.807
X16.727 Y2.911
X16.504 Y2.964
X16.281 Y3.037
X16.058 Y3.123
X15.83 Y3.234
X15.612 Y3.353
X15.447 Y3.457
X15.389 Y3.497
X15.166 Y3.668
X14.943 Y3.862
X14.902 Y3.903
X14.699 Y4.126
X14.526 Y4.349
X14.496 Y4.388
X14.377 Y4.572
X14.273 Y4.744
X14.26 Y4.772
X14.188 Y4.904
X14.096 Y5.034
X13.988 Y5.164
X13.854 Y5.302
X13.704 Y5.433
X13.523 Y5.567
X13.322 Y5.691
X13.098 Y5.807
X12.841 Y5.914
X12.568 Y6.003
X12.27 Y6.075
X11.943 Y6.126
X11.6 Y6.151
X11.243 Y6.149
X10.867 Y6.117
X10.475 Y6.051
X10.074 Y5.949
X9.672 Y5.813
X9.273 Y5.641
X8.877 Y5.43
X8.859 Y5.419
X8.626 Y5.235
X8.435 Y5.009
X8.293 Y4.749
X8.205 Y4.465
X8.175 Y4.17
Y1.483
Y1.234
Y-0.308
Y-0.558
Y-3.011
X8.186 Y-3.226
X8.212 Y-3.425
X8.256 Y-3.63
X8.323 Y-3.856
X8.412 Y-4.085
X8.529 Y-4.325
X8.676 Y-4.575
X8.849 Y-4.82
X9.054 Y-5.068
X9.296 Y-5.316
X9.567 Y-5.552
X9.866 Y-5.774
X10.2 Y-5.982
X10.568 Y-6.171
X10.964 Y-6.337
X11.382 Y-6.473
X11.82 Y-6.578
X12.251 Y-6.646
X12.409 Y-6.658
X12.701 Y-6.65
X12.987 Y-6.586
X13.254 Y-6.467
X13.492 Y-6.298
X13.693 Y-6.085
X13.848 Y-5.837
X13.951 Y-5.563
G3 X13.629 Y-4.859 I-0.619 J0.143
G1 X9.106 Y-2.471
G3 X8.175 Y-3.011 I-0.296 J-0.562
G1 Y-5.018
X8.182 Y-5.168
X8.208 Y-5.348
X8.254 Y-5.549
X8.318 Y-5.755
X8.41 Y-5.984
X8.524 Y-6.212
X8.672 Y-6.457
X8.849 Y-6.703
X9.058 Y-6.95
X9.311 Y-7.203
X9.592 Y-7.443
X9.908 Y-7.671
X10.224 Y-7.863
X10.556 Y-8.03
X10.865 Y-8.155
X11.188 Y-8.256
X11.488 Y-8.325
X11.803 Y-8.37
X12.091 Y-8.388
X12.395 Y-8.383
X12.488 Y-8.374
X12.792 Y-8.312
X13.076 Y-8.188
X13.328 Y-8.007
X13.537 Y-7.778
X13.694 Y-7.51
X13.792 Y-7.216
X13.826 Y-6.908
X13.829 Y-6.356
X13.892 Y-5.873
X13.918 Y-5.687
X13.951 Y-5.563
G3 X13.385 Y-4.788 I-0.619 J0.143
G1 X8.863 Y-4.407
G3 X8.175 Y-5.018 I-0.053 J-0.633
G1 Y-6.802
X8.186 Y-7.014
X8.21 Y-7.197
X8.251 Y-7.39
X8.313 Y-7.597
X8.399 Y-7.818
X8.507 Y-8.04
X8.644 Y-8.273
X8.808 Y-8.507
X8.997 Y-8.735
X9.216 Y-8.959
X9.466 Y-9.177
X9.741 Y-9.38
X10.038 Y-9.566
X10.349 Y-9.726
X10.658 Y-9.855
X10.98 Y-9.96
X11.277 Y-10.031
X11.594 Y-10.081
X11.88 Y-10.102
X12.183 Y-10.101
X12.463 Y-10.076
X12.589 Y-10.055
X12.875 Y-9.977
X13.14 Y-9.843
X13.373 Y-9.66
X13.565 Y-9.433
X13.707 Y-9.173
X13.795 Y-8.889
X13.825 Y-8.594
X13.826 Y-6.96
Y-6.908
G3 X13.206 Y-6.291 I-0.635 J-0.019
G1 X8.824 Y-6.19
G3 X8.175 Y-6.802 I-0.015 J-0.635
G1 Y-8.709
X8.182 Y-8.859
X8.206 Y-9.029
X8.249 Y-9.218
X8.31 Y-9.416
X8.393 Y-9.623
X8.502 Y-9.843
X8.633 Y-10.059
X8.793 Y-10.282
X8.982 Y-10.505
X9.195 Y-10.72
X9.434 Y-10.924
X9.699 Y-11.116
X9.993 Y-11.295
X10.308 Y-11.454
X10.625 Y-11.583
X10.953 Y-11.686
X11.268 Y-11.759
X11.581 Y-11.804
X11.888 Y-11.824
X12.18 Y-11.82
X12.477 Y-11.791
X12.603 Y-11.769
X12.887 Y-11.688
X13.149 Y-11.554
X13.379 Y-11.37
X13.568 Y-11.144
X13.709 Y-10.885
X13.796 Y-10.603
X13.825 Y-10.31
Y-8.594
G3 X13.174 Y-7.981 I-0.635 J-0.022
G1 X8.793 Y-8.096
G3 X8.175 Y-8.709 I0.017 J-0.635
G1 Y-10.371
X8.187 Y-10.607
X8.208 Y-10.769
X8.247 Y-10.951
X8.304 Y-11.141
X8.382 Y-11.342
X8.486 Y-11.555
X8.61 Y-11.766
X8.764 Y-11.986
X8.947 Y-12.206
X9.152 Y-12.416
X9.386 Y-12.621
X9.65 Y-12.816
X9.939 Y-12.995
X10.249 Y-13.155
X10.571 Y-13.29
X10.893 Y-13.395
X11.22 Y-13.474
X11.527 Y-13.522
X11.844 Y-13.545
X12.133 Y-13.544
X12.437 Y-13.517
X12.589 Y-13.492
X12.875 Y-13.414
X13.14 Y-13.28
X13.373 Y-13.096
X13.565 Y-12.87
X13.707 Y-12.609
X13.795 Y-12.326
X13.825 Y-12.031
Y-10.31
G3 X13.182 Y-9.697 I-0.635 J-0.022
G1 X8.801 Y-9.758
G3 X8.175 Y-10.371 I0.009 J-0.635
G1 Y-12.155
X8.184 Y-12.336
X8.206 Y-12.5
X8.244 Y-12.678
X8.301 Y-12.871
X8.378 Y-13.067
X8.481 Y-13.28
X8.606 Y-13.492
X8.758 Y-13.708
X8.941 Y-13.928
X9.148 Y-14.14
X9.379 Y-14.343
X9.642 Y-14.537
X9.93 Y-14.716
X10.242 Y-14.877
X10.563 Y-15.011
X10.89 Y-15.118
X11.215 Y-15.196
X11.525 Y-15.245
X11.84 Y-15.268
X12.131 Y-15.266
X12.435 Y-15.24
X12.589 Y-15.214
X12.875 Y-15.136
X13.14 Y-15.002
X13.373 Y-14.819
X13.565 Y-14.592
X13.707 Y-14.332
X13.795 Y-14.048
X13.825 Y-13.753
Y-12.031
G3 X13.172 Y-11.418 I-0.635 J-0.022
G1 X8.792 Y-11.542
G3 X8.175 Y-12.155 I0.018 J-0.635
G1 Y-13.939
X8.182 Y-14.089
X8.207 Y-14.259
X8.248 Y-14.436
X8.311 Y-14.633
X8.391 Y-14.83
X8.498 Y-15.043
X8.63 Y-15.259
X8.785 Y-15.473
X8.973 Y-15.691
X9.187 Y-15.904
X9.425 Y-16.105
X9.69 Y-16.295
X9.982 Y-16.471
X10.299 Y-16.628
X10.62 Y-16.757
X10.953 Y-16.86
X11.271 Y-16.931
X11.588 Y-16.975
X11.895 Y-16.993
X12.191 Y-16.987
X12.488 Y-16.956
X12.611 Y-16.934
X12.893 Y-16.852
X13.154 Y-16.717
X13.382 Y-16.533
X13.57 Y-16.307
X13.71 Y-16.049
X13.796 Y-15.769
X13.825 Y-15.477
Y-13.753
G3 X13.163 Y-13.141 I-0.635 J-0.022
G1 X8.783 Y-13.327
G3 X8.175 Y-13.939 I0.027 J-0.634
G1 Y-15.623
X8.183 Y-15.789
X8.204 Y-15.95
X8.243 Y-16.131
X8.299 Y-16.317
X8.377 Y-16.517
X8.479 Y-16.728
X8.603 Y-16.938
X8.757 Y-17.158
X8.938 Y-17.375
X9.142 Y-17.585
X9.377 Y-17.79
X9.641 Y-17.985
X9.929 Y-18.164
X10.238 Y-18.324
X10.562 Y-18.459
X10.883 Y-18.564
X11.214 Y-18.643
X11.521 Y-18.691
X11.84 Y-18.715
X12.129 Y-18.713
X12.434 Y-18.687
X12.589 Y-18.661
X12.875 Y-18.583
X13.14 Y-18.449
X13.373 Y-18.265
X13.565 Y-18.039
X13.707 Y-17.779
X13.795 Y-17.495
X13.825 Y-17.2
Y-15.477
G3 X13.169 Y-14.864 I-0.635 J-0.022
G1 X8.788 Y-15.01
G3 X8.175 Y-15.623 I0.021 J-0.635
G1 Y-17.284
X8.186 Y-17.512
X8.208 Y-17.676
X8.246 Y-17.853
X8.303 Y-18.045
X8.379 Y-18.241
X8.482 Y-18.453
X8.607 Y-18.664
X8.758 Y-18.879
X8.94 Y-19.099
X9.147 Y-19.311
X9.378 Y-19.513
X9.64 Y-19.707
X9.928 Y-19.886
X10.24 Y-20.047
X10.561 Y-20.181
X10.888 Y-20.288
X11.213 Y-20.366
X11.524 Y-20.414
X11.839 Y-20.438
X12.131 Y-20.436
X12.434 Y-20.41
X12.589 Y-20.384
X12.875 Y-20.306
X13.14 Y-20.172
X13.373 Y-19.988
X13.565 Y-19.762
X13.707 Y-19.502
X13.795 Y-19.218
X13.825 Y-18.923
Y-17.2
G3 X13.178 Y-16.587 I-0.635 J-0.022
G1 X8.797 Y-16.672
G3 X8.175 Y-17.284 I0.012 J-0.635
G1 Y-19.069
X8.183 Y-19.232
X8.205 Y-19.396
X8.243 Y-19.573
X8.3 Y-19.766
X8.377 Y-19.962
X8.48 Y-20.174
X8.604 Y-20.386
X8.756 Y-20.601
X8.938 Y-20.821
X9.145 Y-21.033
X9.377 Y-21.236
X9.639 Y-21.43
X9.927 Y-21.609
X10.239 Y-21.77
X10.561 Y-21.904
X10.887 Y-22.011
X11.213 Y-22.089
X11.523 Y-22.138
X11.839 Y-22.161
X12.13 Y-22.159
X12.434 Y-22.133
X12.589 Y-22.107
X12.875 Y-22.029
X13.14 Y-21.895
X13.373 Y-21.712
X13.565 Y-21.485
X13.707 Y-21.225
X13.795 Y-20.941
X13.825 Y-20.646
Y-18.923
G3 X13.169 Y-18.31 I-0.635 J-0.022
G1 X8.789 Y-18.456
G3 X8.175 Y-19.069 I0.021 J-0.635
G1 Y-20.853
X8.182 Y-21.003
X8.21 Y-21.176
X8.253 Y-21.353
X8.318 Y-21.551
X8.402 Y-21.751
X8.511 Y-21.962
X8.648 Y-22.181
X8.806 Y-22.395
X8.996 Y-22.611
X9.215 Y-22.825
X9.458 Y-23.026
X9.726 Y-23.213
X10.02 Y-23.385
X10.339 Y-23.54
X10.66 Y-23.664
X10.997 Y-23.764
X11.309 Y-23.831
X11.63 Y-23.872
X11.933 Y-23.887
X12.232 Y-23.877
X12.525 Y-23.844
X12.627 Y-23.824
X12.906 Y-23.741
X13.163 Y-23.604
X13.389 Y-23.42
X13.574 Y-23.195
X13.712 Y-22.939
X13.796 Y-22.66
X13.825 Y-22.37
Y-20.646
G3 X13.16 Y-20.034 I-0.635 J-0.022
G1 X8.78 Y-20.241
G3 X8.175 Y-20.853 I0.03 J-0.634
G1 Y-22.537
X8.182 Y-22.686
X8.204 Y-22.847
X8.243 Y-23.029
X8.299 Y-23.214
X8.379 Y-23.417
X8.48 Y-23.625
X8.604 Y-23.836
X8.76 Y-24.057
X8.94 Y-24.272
X9.145 Y-24.482
X9.382 Y-24.688
X9.647 Y-24.883
X9.934 Y-25.061
X10.242 Y-25.219
X10.57 Y-25.356
X10.889 Y-25.459
X11.222 Y-25.538
X11.527 Y-25.586
X11.847 Y-25.609
X12.136 Y-25.607
X12.441 Y-25.58
X12.591 Y-25.554
X12.877 Y-25.476
X13.142 Y-25.342
X13.374 Y-25.158
X13.565 Y-24.931
X13.708 Y-24.671
X13.795 Y-24.388
X13.825 Y-24.093
Y-22.37
G3 X13.166 Y-21.758 I-0.635 J-0.022
G1 X8.786 Y-21.924
G3 X8.175 Y-22.537 I0.024 J-0.635
G1 Y-24.198
X8.185 Y-24.406
X8.207 Y-24.57
X8.245 Y-24.747
X8.302 Y-24.939
X8.378 Y-25.134
X8.481 Y-25.347
X8.606 Y-25.558
X8.757 Y-25.773
X8.94 Y-25.993
X9.146 Y-26.204
X9.377 Y-26.406
X9.64 Y-26.6
X9.928 Y-26.78
X10.24 Y-26.941
X10.561 Y-27.075
X10.887 Y-27.181
X11.213 Y-27.26
X11.523 Y-27.308
X11.839 Y-27.332
X12.13 Y-27.33
X12.434 Y-27.304
X12.565 Y-27.282
X12.873 Y-27.195
X13.156 Y-27.043
X13.399 Y-26.835
X13.592 Y-26.579
X13.725 Y-26.287
X13.793 Y-25.973
X13.815 Y-25.759
X13.825 Y-25.536
Y-24.093
G3 X13.175 Y-23.481 I-0.635 J-0.022
G1 X8.794 Y-23.585
G3 X8.175 Y-24.198 I0.015 J-0.635
G1 Y-25.536
X8.185 Y-25.759
X8.231 Y-26.205
X8.256 Y-26.366
X8.297 Y-26.541
X8.36 Y-26.734
X8.443 Y-26.932
X8.549 Y-27.138
X8.683 Y-27.355
X8.838 Y-27.566
X9.024 Y-27.779
X9.24 Y-27.99
X9.48 Y-28.19
X9.743 Y-28.376
X10.033 Y-28.547
X10.204 Y-28.631
X10.3 Y-28.673
X10.399 Y-28.709
X10.5 Y-28.738
G3 X11.101 Y-27.69 I0.13 J0.622
G1 X9.336 Y-25.736
G3 X8.231 Y-26.205 I-0.471 J-0.426
G1 X8.254 Y-26.428
X8.284 Y-26.651
X8.361 Y-26.874
X8.475 Y-27.175
X8.539 Y-27.32
X8.698 Y-27.554
X8.844 Y-27.766
X8.921 Y-27.864
X9.057 Y-27.989
X9.367 Y-28.263
X9.423 Y-28.305
X9.478 Y-28.338
X9.813 Y-28.514
X10.036 Y-28.621
X10.18 Y-28.659
X10.594 Y-28.76
X10.705 Y-28.776
X10.928 Y-28.778
X11.151
X11.374 Y-28.767
X11.597 Y-28.714
X11.932 Y-28.631
X11.988 Y-28.613
X12.043 Y-28.589
X12.489 Y-28.355
X12.59 Y-28.296
X12.691 Y-28.212
X12.943 Y-27.989
X13.066 Y-27.878
X13.116 Y-27.822
X13.158 Y-27.763
X13.381 Y-27.44
X13.461 Y-27.32
X13.555 Y-27.097
X13.639 Y-26.874
X13.716 Y-26.651
X13.746 Y-26.428
X13.793 Y-25.973
X13.794 Y-25.93 Z-5.496
X13.785 Y-25.876 Z-5.479
X13.777 Y-25.826 Z-5.45
X13.771 Y-25.785 Z-5.411
X13.766 Y-25.754 Z-5.362
X13.762 Y-25.734 Z-5.308
X13.761 Y-25.728 Z-5.251
G0 Z5
X14.97 Y-2.805
Z-4.23
G1 Z-4.865 F1016
X14.975 Y-2.811 Z-4.964
X14.989 Y-2.83 Z-5.061
X15.013 Y-2.859 Z-5.153
X15.046 Y-2.9 Z-5.238
X15.086 Y-2.95 Z-5.314
X15.134 Y-3.009 Z-5.379
X15.187 Y-3.075 Z-5.431
X15.245 Y-3.147 Z-5.469
X15.306 Y-3.223 Z-5.492
X15.368 Y-3.3 Z-5.5
G3 X15.612 Y-3.353 I0.155 J0.124
G1 X15.835 Y-3.231
X16.058 Y-3.123
X16.281 Y-3.037
X16.504 Y-2.964
X16.727 Y-2.911
X16.794 Y-2.901
X16.947 Y-2.871
X17.11 Y-2.825
X17.296 Y-2.756
X17.495 Y-2.663
X17.704 Y-2.545
X17.923 Y-2.396
X18.15 Y-2.214
X18.372 Y-2.005
X18.599 Y-1.752
X18.814 Y-1.472
X19.016 Y-1.159
X19.205 Y-0.807
X19.353 Y-0.468
X19.476 Y-0.111
X19.558 Y0.21
X19.617 Y0.549
X19.645 Y0.858
X19.648 Y1.172
X19.627 Y1.473
X19.613 Y1.565
X19.539 Y1.856
X19.407 Y2.125
X19.224 Y2.363
X18.996 Y2.559
X18.734 Y2.705
X18.447 Y2.795
X18.149 Y2.825
X17.619
X17.396 Y2.833
X16.95 Y2.878
X16.727 Y2.911
G3 X16.022 Y2.27 I-0.069 J-0.631
G1 X16.09 Y-2.279
G3 X16.794 Y-2.901 I0.635 J0.009
G1 X16.95 Y-2.878
X17.396 Y-2.833
X17.619 Y-2.825
X18.288
X18.438 Y-2.818
X18.607 Y-2.793
X18.782 Y-2.753
X18.979 Y-2.691
X19.18 Y-2.609
X19.391 Y-2.503
X19.614 Y-2.368
X19.832 Y-2.21
X20.052 Y-2.022
X20.272 Y-1.801
X20.479 Y-1.557
X20.672 Y-1.288
X20.852 Y-0.99
X21.013 Y-0.667
X21.139 Y-0.353
X21.243 Y-0.019
X21.312 Y0.287
X21.357 Y0.606
X21.375 Y0.905
X21.369 Y1.203
X21.34 Y1.494
X21.319 Y1.609
X21.238 Y1.892
X21.103 Y2.152
X20.919 Y2.381
X20.693 Y2.57
X20.435 Y2.71
X20.154 Y2.796
X19.861 Y2.825
X18.149
G3 X17.536 Y2.17 I0.022 J-0.635
G1 X17.675 Y-2.211
G3 X18.288 Y-2.825 I0.635 J0.02
G1 X19.972
X20.152 Y-2.816
X20.314 Y-2.795
X20.498 Y-2.755
X20.686 Y-2.699
X20.89 Y-2.62
X21.102 Y-2.517
X21.314 Y-2.392
X21.536 Y-2.236
X21.755 Y-2.054
X21.965 Y-1.849
X22.171 Y-1.613
X22.367 Y-1.348
X22.547 Y-1.06
X22.706 Y-0.75
X22.841 Y-0.427
X22.946 Y-0.106
X23.025 Y0.221
X23.073 Y0.528
X23.096 Y0.845
X23.095 Y1.134
X23.068 Y1.438
X23.043 Y1.589
X22.965 Y1.875
X22.831 Y2.14
X22.647 Y2.373
X22.421 Y2.565
X22.16 Y2.707
X21.877 Y2.795
X21.582 Y2.825
X19.861
G3 X19.249 Y2.174 I0.022 J-0.635
G1 X19.359 Y-2.206
G3 X19.972 Y-2.825 I0.635 J0.016
G1 X21.756
X21.906 Y-2.818
X22.074 Y-2.793
X22.253 Y-2.753
X22.449 Y-2.692
X22.646 Y-2.612
X22.86 Y-2.506
X23.075 Y-2.376
X23.289 Y-2.221
X23.509 Y-2.034
X23.722 Y-1.822
X23.923 Y-1.586
X24.114 Y-1.321
X24.291 Y-1.03
X24.449 Y-0.714
X24.579 Y-0.393
X24.683 Y-0.061
X24.756 Y0.258
X24.801 Y0.573
X24.821 Y0.882
X24.816 Y1.176
X24.786 Y1.475
X24.763 Y1.606
X24.682 Y1.889
X24.547 Y2.15
X24.363 Y2.38
X24.137 Y2.569
X23.879 Y2.709
X23.597 Y2.796
X23.305 Y2.825
X21.582
G3 X20.969 Y2.165 I0.022 J-0.635
G1 X21.144 Y-2.216
G3 X21.756 Y-2.825 I0.635 J0.025
G1 X23.417
X23.617 Y-2.815
X23.777 Y-2.794
X23.958 Y-2.755
X24.146 Y-2.699
X24.345 Y-2.622
X24.556 Y-2.519
X24.766 Y-2.395
X24.985 Y-2.242
X25.204 Y-2.06
X25.413 Y-1.856
X25.617 Y-1.622
X25.812 Y-1.358
X25.992 Y-1.07
X26.152 Y-0.76
X26.287 Y-0.437
X26.392 Y-0.115
X26.471 Y0.215
X26.519 Y0.522
X26.543 Y0.84
X26.541 Y1.13
X26.515 Y1.435
X26.489 Y1.589
X26.411 Y1.875
X26.277 Y2.14
X26.093 Y2.373
X25.866 Y2.565
X25.606 Y2.707
X25.323 Y2.795
X25.028 Y2.825
X23.305
G3 X22.692 Y2.174 I0.022 J-0.635
G1 X22.805 Y-2.207
G3 X23.417 Y-2.825 I0.635 J0.016
G1 X25.202
X25.351 Y-2.818
X25.519 Y-2.794
X25.696 Y-2.755
X25.891 Y-2.694
X26.087 Y-2.616
X26.3 Y-2.511
X26.514 Y-2.382
X26.728 Y-2.229
X26.948 Y-2.044
X27.16 Y-1.833
X27.362 Y-1.598
X27.554 Y-1.334
X27.731 Y-1.044
X27.89 Y-0.728
X28.021 Y-0.407
X28.126 Y-0.077
X28.2 Y0.244
X28.246 Y0.558
X28.267 Y0.869
X28.263 Y1.163
X28.234 Y1.464
X28.21 Y1.601
X28.13 Y1.885
X27.995 Y2.148
X27.811 Y2.378
X27.585 Y2.568
X27.326 Y2.709
X27.045 Y2.796
X26.751 Y2.825
X25.028
G3 X24.415 Y2.165 I0.022 J-0.635
G1 X24.589 Y-2.216
G3 X25.202 Y-2.825 I0.635 J0.025
G1 X26.885
X27.063 Y-2.816
X27.225 Y-2.795
X27.404 Y-2.757
X27.594 Y-2.7
X27.791 Y-2.623
X28.003 Y-2.52
X28.213 Y-2.396
X28.431 Y-2.243
X28.65 Y-2.061
X28.86 Y-1.856
X29.064 Y-1.623
X29.259 Y-1.36
X29.438 Y-1.071
X29.598 Y-0.761
X29.733 Y-0.439
X29.839 Y-0.115
X29.917 Y0.213
X29.966 Y0.522
X29.989 Y0.839
X29.988 Y1.13
X29.961 Y1.434
X29.935 Y1.589
X29.857 Y1.875
X29.724 Y2.14
X29.54 Y2.373
X29.313 Y2.565
X29.053 Y2.707
X28.77 Y2.795
X28.474 Y2.825
X26.751
G3 X26.138 Y2.171 I0.022 J-0.635
G1 X26.273 Y-2.21
G3 X26.885 Y-2.825 I0.635 J0.019
G1 X28.547
X28.787 Y-2.813
X28.951 Y-2.791
X29.127 Y-2.754
X29.32 Y-2.696
X29.515 Y-2.62
X29.727 Y-2.517
X29.939 Y-2.393
X30.154 Y-2.242
X30.374 Y-2.059
X30.585 Y-1.852
X30.787 Y-1.621
X30.981 Y-1.359
X31.16 Y-1.071
X31.321 Y-0.759
X31.455 Y-0.438
X31.562 Y-0.112
X31.64 Y0.214
X31.689 Y0.524
X31.712 Y0.84
X31.71 Y1.131
X31.684 Y1.435
X31.638 Y1.707
X31.523 Y2.016
X31.342 Y2.291
X31.105 Y2.52
X30.823 Y2.69
X30.51 Y2.794
X30.182 Y2.827
X30.108 Y2.826
X29.662 Y2.825
X28.474
G3 X27.861 Y2.18 I0.022 J-0.635
G1 X27.934 Y-2.201
G3 X28.547 Y-2.825 I0.635 J0.011
G1 X29.885
X30.108 Y-2.826
X30.331 Y-2.829
X30.481 Y-2.823
X30.641 Y-2.804
X30.819 Y-2.768
X31.008 Y-2.714
X31.204 Y-2.64
X31.416 Y-2.541
X31.625 Y-2.421
X31.843 Y-2.272
X32.063 Y-2.093
X32.274 Y-1.892
X32.479 Y-1.663
X32.677 Y-1.403
X32.859 Y-1.118
X33.022 Y-0.811
X33.163 Y-0.484
X33.275 Y-0.155
X33.355 Y0.162
X33.41 Y0.489
X33.436 Y0.784
X33.438 Y1.101
X33.416 Y1.386
X33.372 Y1.673
X33.305 Y1.953
X33.291 Y1.995
X33.157 Y2.292
X32.961 Y2.552
X32.713 Y2.763
X32.425 Y2.915
X32.11 Y3
X31.785 Y3.014
X31.464 Y2.957
G3 X31.054 Y2.53 I0.2 J-0.603
G1 X29.751 Y-2.02
G3 X30.331 Y-2.829 I0.61 J-0.175
G1 X30.554 Y-2.832
X30.777 Y-2.841
X31.223 Y-2.91
X31.446 Y-2.952
X31.507 Y-2.97
X31.652 Y-3.005
X31.802 Y-3.021
X31.952 Y-3.024
X32.122 Y-3.014
X32.298 Y-2.988
X32.494 Y-2.944
X32.698 Y-2.881
X32.911 Y-2.795
X33.137 Y-2.682
X33.361 Y-2.547
X33.591 Y-2.382
X33.822 Y-2.186
X34.044 Y-1.965
X34.255 Y-1.717
X34.454 Y-1.441
X34.639 Y-1.137
X34.803 Y-0.81
X34.943 Y-0.465
X35.057 Y-0.102
X35.138 Y0.252
X35.188 Y0.601
X35.21 Y0.941
X35.205 Y1.254
X35.173 Y1.579
X35.122 Y1.865
X35.043 Y2.164
X34.948 Y2.433
X34.834 Y2.689
X34.696 Y2.942
X34.553 Y3.161
X34.519 Y3.205
X34.301 Y3.429
X34.04 Y3.599
X33.747 Y3.707
X33.437 Y3.748
X33.126 Y3.719
X32.829 Y3.622
X32.561 Y3.462
X32.435 Y3.381
G3 X32.174 Y2.988 I0.361 J-0.522
G1 X31.085 Y-2.238
G3 X31.507 Y-2.97 I0.622 J-0.13
G1 X31.669 Y-3.018
X31.892 Y-3.104
X32.115 Y-3.202
X32.338 Y-3.319
X32.374 Y-3.342
X32.504 Y-3.417
X32.643 Y-3.473
X32.787 Y-3.515
X32.941 Y-3.545
X33.103 Y-3.564
X33.288 Y-3.571
X33.483 Y-3.562
X33.693 Y-3.535
X33.921 Y-3.488
X34.152 Y-3.42
X34.401 Y-3.324
X34.657 Y-3.202
X34.911 Y-3.054
X35.175 Y-2.87
X35.438 Y-2.654
X35.691 Y-2.41
X35.935 Y-2.133
X36.167 Y-1.822
X36.382 Y-1.481
X36.571 Y-1.118
X36.734 Y-0.734
X36.868 Y-0.332
X36.969 Y0.082
X37.037 Y0.506
X37.072 Y0.936
X37.071 Y1.367
X37.036 Y1.797
X36.971 Y2.196
X36.879 Y2.571
X36.765 Y2.913
X36.632 Y3.224
X36.477 Y3.52
X36.316 Y3.775
X36.125 Y4.03
X35.937 Y4.243
X35.724 Y4.448
X35.505 Y4.627
X35.477 Y4.647
X35.194 Y4.8
X34.885 Y4.889
X34.565 Y4.909
X34.247 Y4.859
X33.947 Y4.742
X33.68 Y4.563
X33.458 Y4.331
X33.369 Y4.215
G3 X33.268 Y3.99 I0.517 J-0.369
X33.261 Y3.955 I0.619 J-0.143
G1 X32.109 Y-2.712
G3 X32.374 Y-3.342 I0.626 J-0.108
G1 X32.561 Y-3.462
X32.784 Y-3.632
X33.007 Y-3.815
X33.092 Y-3.903
X33.202 Y-4.005
X33.322 Y-4.095
X33.451 Y-4.172
X33.586 Y-4.237
X33.737 Y-4.294
X33.902 Y-4.343
X34.092 Y-4.382
X34.291 Y-4.406
X34.515 Y-4.416
X34.755 Y-4.407
X35.005 Y-4.378
X35.279 Y-4.323
X35.558 Y-4.243
X35.849 Y-4.134
X36.156 Y-3.989
X36.462 Y-3.814
X36.767 Y-3.606
X37.077 Y-3.355
X37.382 Y-3.065
X37.671 Y-2.742
X37.943 Y-2.384
X38.197 Y-1.987
X38.428 Y-1.554
X38.63 Y-1.088
X38.798 Y-0.594
X38.927 Y-0.083
X39.016 Y0.441
X39.062 Y0.971
X39.066 Y1.498
X39.028 Y2.017
X38.949 Y2.521
X38.832 Y3.012
X38.68 Y3.481
X38.492 Y3.931
X38.276 Y4.351
X38.057 Y4.704
X37.817 Y5.03
X37.582 Y5.3
X37.322 Y5.554
X37.076 Y5.759
X36.8 Y5.953
X36.542 Y6.105
X36.26 Y6.242
X35.987 Y6.349
X35.716 Y6.431
X35.406 Y6.464
X35.097 Y6.431
X34.801 Y6.333
X34.532 Y6.176
X34.302 Y5.966
X34.122 Y5.712
X33.999 Y5.426
G3 X33.981 Y5.335 I0.613 J-0.167
G1 X33.963 Y5.18
X32.933 Y-3.402
G3 X33.092 Y-3.903 I0.63 J-0.076
G1 X33.23 Y-4.046
X33.301 Y-4.126
X33.472 Y-4.349
X33.622 Y-4.572
X33.676 Y-4.661
X33.757 Y-4.788
X33.857 Y-4.9
X33.967 Y-5.001
X34.086 Y-5.093
X34.226 Y-5.183
X34.383 Y-5.268
X34.558 Y-5.345
X34.76 Y-5.415
X34.974 Y-5.471
X35.216 Y-5.513
X35.477 Y-5.538
X35.752 Y-5.541
X36.058 Y-5.521
X36.372 Y-5.474
X36.703 Y-5.397
X37.057 Y-5.284
X37.415 Y-5.137
X37.777 Y-4.954
X38.151 Y-4.725
X38.529 Y-4.449
X38.894 Y-4.136
X39.25 Y-3.776
X39.477 Y-3.507
X39.626 Y-3.295
X39.735 Y-3.06
X39.802 Y-2.81
X39.825 Y-2.552
Y3.903
X39.813 Y4.147
X39.773 Y4.452
X39.704 Y4.775
X39.606 Y5.101
X39.479 Y5.428
X39.318 Y5.759
X39.126 Y6.086
X38.901 Y6.405
X38.648 Y6.711
X38.367 Y6.998
X38.095 Y7.236
X37.799 Y7.455
X37.521 Y7.628
X37.224 Y7.781
X36.938 Y7.901
X36.65 Y7.995
X36.355 Y8.065
X36.08 Y8.108
X35.784 Y8.13
X35.646 Y8.129
X35.319 Y8.091
X35.008 Y7.981
X34.73 Y7.805
X34.497 Y7.572
X34.321 Y7.294
X34.211 Y6.983
X34.173 Y6.656
X34.171 Y6.356
X34.113 Y5.91
X34.08 Y5.687
X33.999 Y5.426
G3 X34.434 Y4.65 I0.613 J-0.167
G1 X39.013 Y3.315
G3 X39.825 Y3.903 I0.178 J0.61
G1 Y6.356
X39.814 Y6.579
X39.787 Y6.78
X39.74 Y7.001
X39.671 Y7.234
X39.579 Y7.468
X39.459 Y7.716
X39.311 Y7.967
X39.139 Y8.212
X38.939 Y8.452
X38.709 Y8.688
X38.452 Y8.913
X38.17 Y9.122
X37.876 Y9.304
X37.577 Y9.459
X37.263 Y9.59
X36.975 Y9.684
X36.66 Y9.76
X36.374 Y9.804
X36.077 Y9.826
X35.787 Y9.825
X35.52 Y9.802
X35.411 Y9.783
X35.125 Y9.705
X34.86 Y9.572
X34.627 Y9.388
X34.435 Y9.161
X34.293 Y8.901
X34.205 Y8.618
X34.175 Y8.322
Y7.025
X34.173 Y6.656
G3 X34.765 Y6.041 I0.635 J0.019
G1 X39.148 Y5.745
G3 X39.825 Y6.356 I0.043 J0.634
G1 Y8.363
X39.817 Y8.518
X39.794 Y8.694
X39.752 Y8.889
X39.693 Y9.088
X39.609 Y9.303
X39.502 Y9.523
X39.372 Y9.745
X39.212 Y9.973
X39.025 Y10.198
X38.814 Y10.414
X38.576 Y10.621
X38.31 Y10.818
X38.018 Y11
X37.707 Y11.161
X37.392 Y11.292
X37.07 Y11.397
X36.754 Y11.473
X36.446 Y11.521
X36.138 Y11.544
X35.849 Y11.543
X35.55 Y11.517
X35.411 Y11.493
X35.125 Y11.415
X34.86 Y11.282
X34.627 Y11.098
X34.435 Y10.871
X34.293 Y10.611
X34.205 Y10.328
X34.175 Y10.032
Y8.322
G3 X34.816 Y7.709 I0.635 J0.022
G1 X39.196 Y7.751
G3 X39.825 Y8.363 I-0.006 J0.635
G1 Y10.148
X39.817 Y10.312
X39.795 Y10.477
X39.756 Y10.661
X39.698 Y10.854
X39.62 Y11.055
X39.515 Y11.271
X39.39 Y11.484
X39.236 Y11.703
X39.052 Y11.925
X38.844 Y12.138
X38.61 Y12.341
X38.347 Y12.536
X38.058 Y12.716
X37.746 Y12.877
X37.426 Y13.011
X37.101 Y13.117
X36.778 Y13.194
X36.468 Y13.243
X36.155 Y13.266
X35.864 Y13.264
X35.561 Y13.238
X35.411 Y13.213
X35.125 Y13.135
X34.86 Y13.001
X34.627 Y12.817
X34.435 Y12.591
X34.293 Y12.331
X34.205 Y12.047
X34.175 Y11.752
Y10.032
G3 X34.826 Y9.42 I0.635 J0.022
G1 X39.207 Y9.535
G3 X39.825 Y10.148 I-0.017 J0.635
G1 Y11.932
X39.818 Y12.082
X39.792 Y12.252
X39.751 Y12.43
X39.689 Y12.628
X39.608 Y12.826
X39.5 Y13.039
X39.368 Y13.256
X39.212 Y13.47
X39.024 Y13.689
X38.809 Y13.903
X38.571 Y14.104
X38.305 Y14.294
X38.014 Y14.469
X37.696 Y14.627
X37.376 Y14.755
X37.043 Y14.858
X36.726 Y14.928
X36.409 Y14.973
X36.102 Y14.991
X35.807 Y14.984
X35.51 Y14.954
X35.388 Y14.932
X35.106 Y14.85
X34.846 Y14.715
X34.617 Y14.531
X34.43 Y14.305
X34.29 Y14.047
X34.204 Y13.767
X34.175 Y13.475
Y11.752
G3 X34.836 Y11.14 I0.635 J0.022
G1 X39.216 Y11.319
G3 X39.825 Y11.932 I-0.026 J0.634
G1 Y13.616
X39.816 Y13.785
X39.795 Y13.946
X39.757 Y14.127
X39.701 Y14.314
X39.623 Y14.515
X39.52 Y14.725
X39.397 Y14.935
X39.242 Y15.155
X39.062 Y15.373
X38.857 Y15.582
X38.622 Y15.787
X38.358 Y15.983
X38.07 Y16.162
X37.761 Y16.321
X37.437 Y16.457
X37.116 Y16.562
X36.785 Y16.641
X36.479 Y16.689
X36.16 Y16.713
X35.87 Y16.711
X35.565 Y16.685
X35.411 Y16.659
X35.125 Y16.581
X34.86 Y16.447
X34.627 Y16.263
X34.435 Y16.036
X34.293 Y15.776
X34.205 Y15.493
X34.175 Y15.198
Y13.475
G3 X34.83 Y12.862 I0.635 J0.022
G1 X39.211 Y13.003
G3 X39.825 Y13.616 I-0.02 J0.635
G1 Y15.277
X39.813 Y15.509
X39.792 Y15.674
X39.754 Y15.85
X39.696 Y16.043
X39.62 Y16.238
X39.517 Y16.45
X39.393 Y16.662
X39.242 Y16.877
X39.059 Y17.097
X38.853 Y17.309
X38.621 Y17.51
X38.359 Y17.704
X38.071 Y17.884
X37.759 Y18.044
X37.438 Y18.179
X37.112 Y18.285
X36.786 Y18.363
X36.476 Y18.412
X36.16 Y18.435
X35.869 Y18.434
X35.565 Y18.408
X35.411 Y18.382
X35.125 Y18.303
X34.86 Y18.17
X34.627 Y17.986
X34.435 Y17.759
X34.293 Y17.499
X34.205 Y17.216
X34.175 Y16.92
Y15.198
G3 X34.821 Y14.585 I0.635 J0.022
G1 X39.202 Y14.664
G3 X39.825 Y15.277 I-0.012 J0.635
G1 Y17.061
X39.817 Y17.23
X39.795 Y17.394
X39.757 Y17.571
X39.7 Y17.763
X39.623 Y17.959
X39.52 Y18.172
X39.396 Y18.383
X39.244 Y18.599
X39.061 Y18.819
X38.855 Y19.031
X38.623 Y19.233
X38.361 Y19.427
X38.072 Y19.607
X37.76 Y19.768
X37.439 Y19.902
X37.112 Y20.009
X36.787 Y20.087
X36.476 Y20.135
X36.161 Y20.159
X35.87 Y20.157
X35.566 Y20.131
X35.411 Y20.105
X35.125 Y20.027
X34.86 Y19.893
X34.627 Y19.709
X34.435 Y19.482
X34.293 Y19.222
X34.205 Y18.939
X34.175 Y18.644
Y16.92
G3 X34.83 Y16.308 I0.635 J0.022
G1 X39.211 Y16.449
G3 X39.825 Y17.061 I-0.02 J0.635
G1 Y18.845
X39.818 Y18.995
X39.791 Y19.168
X39.748 Y19.345
X39.684 Y19.543
X39.601 Y19.742
X39.492 Y19.954
X39.357 Y20.172
X39.199 Y20.385
X39.01 Y20.602
X38.791 Y20.816
X38.55 Y21.017
X38.283 Y21.205
X37.989 Y21.378
X37.671 Y21.533
X37.349 Y21.658
X37.013 Y21.759
X36.7 Y21.827
X36.38 Y21.869
X36.076 Y21.884
X35.778 Y21.875
X35.484 Y21.843
X35.377 Y21.822
X35.097 Y21.739
X34.839 Y21.603
X34.613 Y21.419
X34.427 Y21.194
X34.289 Y20.937
X34.204 Y20.658
X34.175 Y20.367
Y18.644
G3 X34.839 Y18.031 I0.635 J0.022
G1 X39.22 Y18.233
G3 X39.825 Y18.845 I-0.029 J0.634
G1 Y20.529
X39.817 Y20.68
X39.796 Y20.841
X39.758 Y21.022
X39.702 Y21.207
X39.623 Y21.41
X39.522 Y21.618
X39.398 Y21.828
X39.243 Y22.049
X39.064 Y22.265
X38.86 Y22.475
X38.623 Y22.681
X38.359 Y22.876
X38.072 Y23.055
X37.765 Y23.214
X37.438 Y23.35
X37.118 Y23.455
X36.786 Y23.534
X36.48 Y23.582
X36.16 Y23.606
X35.871 Y23.604
X35.566 Y23.578
X35.411 Y23.552
X35.125 Y23.474
X34.86 Y23.34
X34.627 Y23.156
X34.435 Y22.93
X34.293 Y22.67
X34.205 Y22.386
X34.175 Y22.091
Y20.367
G3 X34.833 Y19.755 I0.635 J0.022
G1 X39.214 Y19.917
G3 X39.825 Y20.529 I-0.023 J0.635
G1 Y22.191
X39.814 Y22.403
X39.793 Y22.567
X39.755 Y22.744
X39.697 Y22.936
X39.621 Y23.132
X39.518 Y23.344
X39.394 Y23.555
X39.243 Y23.77
X39.06 Y23.99
X38.854 Y24.202
X38.622 Y24.404
X38.36 Y24.598
X38.072 Y24.777
X37.76 Y24.938
X37.439 Y25.072
X37.112 Y25.179
X36.787 Y25.257
X36.476 Y25.305
X36.161 Y25.329
X35.87 Y25.327
X35.566 Y25.301
X35.411 Y25.275
X35.125 Y25.197
X34.86 Y25.063
X34.627 Y24.879
X34.435 Y24.653
X34.293 Y24.393
X34.205 Y24.109
X34.175 Y23.814
Y22.091
G3 X34.824 Y21.478 I0.635 J0.022
G1 X39.205 Y21.578
G3 X39.825 Y22.191 I-0.014 J0.635
G1 Y23.975
X39.818 Y24.125
X39.796 Y24.289
X39.758 Y24.466
X39.7 Y24.659
X39.623 Y24.855
X39.52 Y25.068
X39.395 Y25.279
X39.243 Y25.495
X39.06 Y25.715
X38.853 Y25.927
X38.621 Y26.129
X38.359 Y26.323
X38.07 Y26.502
X37.758 Y26.663
X37.436 Y26.797
X37.109 Y26.903
X36.784 Y26.981
X36.473 Y27.029
X36.158 Y27.052
X35.866 Y27.05
X35.563 Y27.024
X35.411 Y26.998
X35.09 Y26.906
X34.797 Y26.743
X34.548 Y26.519
X34.356 Y26.245
X34.231 Y25.934
X34.178 Y25.603
X34.175 Y25.536
Y23.814
G3 X34.833 Y23.201 I0.635 J0.022
G1 X39.214 Y23.363
G3 X39.825 Y23.975 I-0.023 J0.635
G1 Y25.536
X39.815 Y25.759
X39.766 Y26.075
X39.725 Y26.25
X39.661 Y26.446
X39.579 Y26.644
X39.471 Y26.853
X39.337 Y27.07
X39.18 Y27.282
X38.993 Y27.497
X38.776 Y27.709
X38.536 Y27.91
X38.27 Y28.097
X37.979 Y28.269
X37.662 Y28.423
X37.343 Y28.548
X37.012 Y28.648
X36.879 Y28.676
X36.658 Y28.707
X36.434 Y28.704
X36.213 Y28.667
G3 X35.982 Y27.566 I0.173 J-0.611
G1 X38.776 Y25.263
G3 X39.815 Y25.759 I0.404 J0.49
G1 X39.746 Y26.428
X39.715 Y26.651
X39.698 Y26.716
X39.639 Y26.874
X39.555 Y27.097
X39.475 Y27.293
X39.46 Y27.32
X39.31 Y27.543
X39.156 Y27.766
X39.102 Y27.84
X39.029 Y27.913
X38.691 Y28.212
X38.583 Y28.301
X38.336 Y28.435
X38.137 Y28.54
X38.025 Y28.597
X37.914 Y28.635
X37.468 Y28.745
X37.356 Y28.77
X37.245 Y28.778
X36.799
X36.687 Y28.775
X36.576 Y28.756
X36.13 Y28.646
X36.018 Y28.615
X35.907 Y28.563
X35.461 Y28.328
X35.385 Y28.278
X35.309 Y28.212
X35.015 Y27.952
X34.916 Y27.859
X34.844 Y27.766
X34.569 Y27.367
X34.539 Y27.32
X34.445 Y27.097
X34.346 Y26.834
X34.284 Y26.651
X34.254 Y26.428
X34.185 Y25.759
X34.178 Y25.603
Y25.597
X34.188 Y25.541 Z-5.492
X34.197 Y25.489 Z-5.471
X34.206 Y25.443 Z-5.438
X34.212 Y25.405 Z-5.396
X34.217 Y25.377 Z-5.346
X34.222 Y25.364 Z-5.299
X34.224 Y25.36 Z-5.251
G0 Z5
X14.314 Y4.53
Z-4.865
G1 Z-5.5 F1016
G3 X14.26 Y4.772 I-0.635 J-0.015
G1 X14.141 Y5.018
X14.05 Y5.246
X13.977 Y5.464
X13.918 Y5.687
X13.913 Y5.724
X13.885 Y5.872
X13.839 Y6.014
X13.779 Y6.152
X13.707 Y6.286
X13.613 Y6.432
X13.501 Y6.578
X13.365 Y6.729
X13.204 Y6.881
X13.023 Y7.026
X12.807 Y7.173
X12.572 Y7.306
X12.305 Y7.43
X12.004 Y7.542
X11.686 Y7.631
X11.333 Y7.701
X10.948 Y7.745
X10.549 Y7.758
X10.142 Y7.739
X9.766 Y7.691
X9.416 Y7.617
X9.236 Y7.564
X8.944 Y7.443
X8.685 Y7.262
X8.47 Y7.03
X8.308 Y6.758
X8.209 Y6.458
X8.175 Y6.144
Y4.17
G3 X9.008 Y3.589 I0.635 J0.022
G1 X13.479 Y5.057
G3 X13.913 Y5.724 I-0.198 J0.603
G1 X13.887 Y5.91
X13.829 Y6.356
X13.826 Y6.802
X13.818 Y6.96
X13.797 Y7.109
X13.763 Y7.255
X13.714 Y7.406
X13.648 Y7.564
X13.56 Y7.734
X13.455 Y7.904
X13.32 Y8.085
X13.166 Y8.263
X12.98 Y8.444
X12.763 Y8.624
X12.524 Y8.792
X12.246 Y8.956
X11.939 Y9.105
X11.611 Y9.233
X11.257 Y9.34
X10.908 Y9.414
X10.543 Y9.462
X10.219 Y9.479
X9.884 Y9.469
X9.577 Y9.435
X9.279 Y9.377
X9.26 Y9.372
X8.963 Y9.253
X8.697 Y9.074
X8.477 Y8.841
X8.312 Y8.567
X8.21 Y8.263
X8.175 Y7.944
Y6.144
G3 X8.904 Y5.538 I0.635 J0.022
G1 X13.286 Y6.193
G3 X13.826 Y6.802 I-0.094 J0.628
G1 X13.825 Y7.025
Y8.263
X13.817 Y8.416
X13.797 Y8.568
X13.764 Y8.725
X13.711 Y8.901
X13.641 Y9.08
X13.548 Y9.273
X13.43 Y9.472
X13.29 Y9.673
X13.117 Y9.881
X12.921 Y10.082
X12.695 Y10.279
X12.437 Y10.47
X12.153 Y10.647
X11.847 Y10.804
X11.519 Y10.941
X11.173 Y11.054
X10.853 Y11.131
X10.513 Y11.184
X10.211 Y11.207
X9.89 Y11.205
X9.598 Y11.18
X9.309 Y11.131
X9.295 Y11.128
X8.989 Y11.014
X8.716 Y10.835
X8.488 Y10.602
X8.317 Y10.324
X8.211 Y10.015
X8.175 Y9.691
Y7.944
G3 X8.856 Y7.333 I0.635 J0.022
G1 X13.236 Y7.652
G3 X13.825 Y8.263 I-0.046 J0.633
G1 Y9.925
X13.818 Y10.074
X13.793 Y10.241
X13.753 Y10.412
X13.692 Y10.602
X13.612 Y10.797
X13.509 Y11.001
X13.377 Y11.216
X13.224 Y11.426
X13.041 Y11.639
X12.826 Y11.851
X12.589 Y12.052
X12.326 Y12.239
X12.034 Y12.414
X11.717 Y12.57
X11.38 Y12.704
X11.062 Y12.802
X10.729 Y12.875
X10.415 Y12.919
X10.112 Y12.936
X9.801 Y12.929
X9.523 Y12.9
X9.386 Y12.874
X9.104 Y12.793
X8.844 Y12.657
X8.616 Y12.473
X8.429 Y12.247
X8.29 Y11.99
X8.204 Y11.709
X8.175 Y11.418
Y9.691
G3 X8.843 Y9.079 I0.635 J0.022
G1 X13.224 Y9.313
G3 X13.825 Y9.925 I-0.034 J0.634
G1 Y11.608
X13.818 Y11.758
X13.795 Y11.919
X13.755 Y12.099
X13.697 Y12.288
X13.618 Y12.485
X13.513 Y12.697
X13.387 Y12.907
X13.231 Y13.124
X13.047 Y13.342
X12.84 Y13.551
X12.603 Y13.754
X12.338 Y13.947
X12.046 Y14.125
X11.734 Y14.283
X11.411 Y14.414
X11.086 Y14.517
X10.758 Y14.593
X10.449 Y14.639
X10.132 Y14.66
X9.841 Y14.655
X9.538 Y14.627
X9.399 Y14.602
X9.115 Y14.522
X8.852 Y14.387
X8.622 Y14.203
X8.432 Y13.977
X8.291 Y13.718
X8.204 Y13.437
X8.175 Y13.143
Y11.418
G3 X8.837 Y10.806 I0.635 J0.022
G1 X13.218 Y10.996
G3 X13.825 Y11.608 I-0.028 J0.634
G1 Y13.27
X13.816 Y13.459
X13.794 Y13.621
X13.756 Y13.8
X13.699 Y13.989
X13.623 Y14.186
X13.52 Y14.398
X13.397 Y14.607
X13.244 Y14.824
X13.062 Y15.043
X12.857 Y15.253
X12.625 Y15.456
X12.362 Y15.651
X12.073 Y15.831
X11.763 Y15.991
X11.44 Y16.125
X11.116 Y16.231
X10.788 Y16.31
X10.479 Y16.358
X10.161 Y16.382
X9.871 Y16.38
X9.566 Y16.354
X9.411 Y16.328
X9.125 Y16.25
X8.86 Y16.116
X8.627 Y15.932
X8.435 Y15.706
X8.293 Y15.445
X8.205 Y15.162
X8.175 Y14.867
Y13.143
G3 X8.828 Y12.53 I0.635 J0.022
G1 X13.209 Y12.657
G3 X13.825 Y13.27 I-0.018 J0.635
G1 Y15.054
X13.818 Y15.204
X13.793 Y15.374
X13.752 Y15.55
X13.69 Y15.747
X13.61 Y15.944
X13.503 Y16.156
X13.372 Y16.372
X13.217 Y16.585
X13.03 Y16.804
X12.816 Y17.017
X12.578 Y17.218
X12.313 Y17.408
X12.022 Y17.583
X11.705 Y17.741
X11.383 Y17.87
X11.05 Y17.973
X10.732 Y18.044
X10.416 Y18.089
X10.108 Y18.107
X9.812 Y18.101
X9.514 Y18.071
X9.389 Y18.048
X9.107 Y17.967
X8.847 Y17.831
X8.618 Y17.647
X8.43 Y17.422
X8.29 Y17.163
X8.204 Y16.883
X8.175 Y16.591
Y14.867
G3 X8.837 Y14.255 I0.635 J0.022
G1 X13.218 Y14.442
G3 X13.825 Y15.054 I-0.027 J0.634
G1 Y16.738
X13.817 Y16.904
X13.796 Y17.064
X13.757 Y17.245
X13.701 Y17.432
X13.623 Y17.632
X13.521 Y17.843
X13.398 Y18.052
X13.243 Y18.272
X13.063 Y18.49
X12.858 Y18.699
X12.624 Y18.904
X12.36 Y19.099
X12.072 Y19.278
X11.762 Y19.438
X11.439 Y19.573
X11.117 Y19.678
X10.786 Y19.757
X10.479 Y19.805
X10.16 Y19.829
X9.871 Y19.827
X9.566 Y19.801
X9.411 Y19.775
X9.125 Y19.697
X8.86 Y19.563
X8.627 Y19.379
X8.435 Y19.153
X8.293 Y18.893
X8.205 Y18.609
X8.175 Y18.314
Y16.591
G3 X8.831 Y15.978 I0.635 J0.022
G1 X13.212 Y16.125
G3 X13.825 Y16.738 I-0.021 J0.635
G1 Y18.399
X13.814 Y18.626
X13.792 Y18.791
X13.754 Y18.967
X13.697 Y19.16
X13.621 Y19.355
X13.518 Y19.567
X13.393 Y19.779
X13.242 Y19.993
X13.06 Y20.213
X12.853 Y20.425
X12.622 Y20.627
X12.36 Y20.821
X12.072 Y21
X11.76 Y21.161
X11.439 Y21.295
X11.112 Y21.402
X10.787 Y21.48
X10.476 Y21.528
X10.161 Y21.552
X9.869 Y21.55
X9.566 Y21.524
X9.411 Y21.498
X9.125 Y21.42
X8.86 Y21.286
X8.627 Y21.102
X8.435 Y20.876
X8.293 Y20.616
X8.205 Y20.332
X8.175 Y20.037
Y18.314
G3 X8.822 Y17.701 I0.635 J0.022
G1 X13.203 Y17.787
G3 X13.825 Y18.399 I-0.012 J0.635
G1 Y20.184
X13.817 Y20.346
X13.795 Y20.511
X13.758 Y20.687
X13.7 Y20.88
X13.623 Y21.076
X13.52 Y21.288
X13.396 Y21.5
X13.244 Y21.715
X13.062 Y21.936
X12.855 Y22.147
X12.623 Y22.35
X12.361 Y22.544
X12.073 Y22.723
X11.761 Y22.884
X11.439 Y23.018
X11.113 Y23.125
X10.787 Y23.203
X10.477 Y23.252
X10.161 Y23.275
X9.87 Y23.274
X9.566 Y23.247
X9.411 Y23.221
X9.125 Y23.143
X8.86 Y23.009
X8.627 Y22.826
X8.435 Y22.599
X8.293 Y22.339
X8.205 Y22.055
X8.175 Y21.76
Y20.037
G3 X8.831 Y19.424 I0.635 J0.022
G1 X13.212 Y19.571
G3 X13.825 Y20.184 I-0.021 J0.635
G1 Y21.968
X13.818 Y22.118
X13.79 Y22.291
X13.747 Y22.469
X13.682 Y22.667
X13.598 Y22.867
X13.488 Y23.078
X13.352 Y23.296
X13.193 Y23.51
X13.003 Y23.727
X12.783 Y23.94
X12.54 Y24.141
X12.272 Y24.329
X11.978 Y24.501
X11.659 Y24.655
X11.338 Y24.779
X11.001 Y24.879
X10.689 Y24.945
X10.368 Y24.987
X10.065 Y25.001
X9.766 Y24.991
X9.474 Y24.958
X9.372 Y24.938
X9.093 Y24.855
X8.836 Y24.718
X8.611 Y24.534
X8.426 Y24.309
X8.288 Y24.052
X8.204 Y23.774
X8.175 Y23.484
Y21.76
G3 X8.84 Y21.148 I0.635 J0.022
G1 X13.22 Y21.356
G3 X13.825 Y21.968 I-0.03 J0.634
G1 Y23.652
X13.818 Y23.801
X13.796 Y23.962
X13.757 Y24.145
X13.701 Y24.33
X13.621 Y24.533
X13.52 Y24.74
X13.395 Y24.951
X13.239 Y25.173
X13.059 Y25.388
X12.854 Y25.598
X12.616 Y25.804
X12.351 Y25.999
X12.064 Y26.176
X11.756 Y26.335
X11.428 Y26.471
X11.109 Y26.574
X10.776 Y26.653
X10.471 Y26.7
X10.151 Y26.723
X9.862 Y26.721
X9.557 Y26.694
X9.408 Y26.668
X9.122 Y26.589
X8.858 Y26.456
X8.626 Y26.272
X8.435 Y26.045
X8.292 Y25.785
X8.205 Y25.502
X8.175 Y25.208
Y23.484
G3 X8.834 Y22.872 I0.635 J0.022
G1 X13.215 Y23.039
G3 X13.825 Y23.652 I-0.024 J0.635
G1 Y25.313
X13.815 Y25.52
X13.793 Y25.684
X13.755 Y25.861
X13.698 Y26.053
X13.622 Y26.248
X13.519 Y26.461
X13.394 Y26.672
X13.243 Y26.887
X13.06 Y27.107
X12.854 Y27.318
X12.623 Y27.52
X12.36 Y27.715
X12.072 Y27.894
X11.76 Y28.055
X11.439 Y28.189
X11.113 Y28.296
X10.787 Y28.374
X10.477 Y28.422
X10.161 Y28.446
X10.125
X9.86 Y28.42
X9.604 Y28.348
X9.365 Y28.231
X9.151 Y28.073
G3 X9.249 Y27.076 I0.437 J-0.46
G1 X12.851 Y24.799
G3 X13.825 Y25.313 I0.339 J0.537
G1 Y25.536
X13.815 Y25.759
X13.746 Y26.428
X13.716 Y26.651
X13.639 Y26.874
X13.555 Y27.097
X13.461 Y27.32
X13.381 Y27.44
X13.156 Y27.766
X13.116 Y27.822
X13.066 Y27.878
X12.935 Y27.996
X12.691 Y28.212
X12.59 Y28.296
X12.489 Y28.355
X12.043 Y28.589
X11.988 Y28.613
X11.932 Y28.631
X11.597 Y28.714
X11.374 Y28.767
X11.151 Y28.778
X10.928
X10.705 Y28.776
X10.594 Y28.76
X10.18 Y28.659
X10.036 Y28.621
X9.813 Y28.514
X9.478 Y28.338
X9.423 Y28.305
X9.367 Y28.263
X9.057 Y27.989
X8.921 Y27.864
X8.844 Y27.766
X8.69 Y27.543
X8.539 Y27.32
X8.475 Y27.175
X8.361 Y26.874
X8.284 Y26.651
X8.254 Y26.428
X8.185 Y25.759
X8.175 Y25.536
Y25.208
X8.187 Y25.154 Z-5.494
X8.198 Y25.102 Z-5.475
X8.207 Y25.057 Z-5.445
X8.216 Y25.018 Z-5.406
X8.222 Y24.989 Z-5.359
X8.229 Y24.972 Z-5.306
X8.232 Y24.966 Z-5.251
G0 Z5
X34.212 Y-4.009
Z-4.23
G1 Z-4.865 F1016
X34.206 Y-4.014 Z-4.964
X34.188 Y-4.029 Z-5.061
X34.159 Y-4.054 Z-5.153
X34.119 Y-4.087 Z-5.238
X34.069 Y-4.129 Z-5.314
X34.011 Y-4.177 Z-5.379
X33.946 Y-4.232 Z-5.431
X33.875 Y-4.291 Z-5.469
X33.801 Y-4.353 Z-5.492
X33.725 Y-4.417 Z-5.5
G3 X33.676 Y-4.661 I0.127 J-0.152
G1 X33.753 Y-4.795
X33.859 Y-5.018
X33.9 Y-5.105
X34.011 Y-5.464
X34.062 Y-5.605
X34.129 Y-5.739
X34.21 Y-5.866
X34.302 Y-5.984
X34.409 Y-6.102
X34.537 Y-6.221
X34.688 Y-6.341
X34.855 Y-6.453
X35.052 Y-6.564
X35.267 Y-6.662
X35.508 Y-6.75
X35.78 Y-6.825
X36.065 Y-6.88
X36.383 Y-6.915
X36.726 Y-6.924
X37.081 Y-6.906
X37.469 Y-6.854
X37.878 Y-6.766
X38.29 Y-6.642
X38.723 Y-6.472
X38.993 Y-6.341
X39.272 Y-6.164
X39.504 Y-5.929
X39.68 Y-5.649
X39.788 Y-5.337
X39.825 Y-5.009
Y-2.552
G3 X38.865 Y-2.029 I-0.635 J-0.022
G1 X34.298 Y-4.752
G3 X34.011 Y-5.464 I0.325 J-0.545
G1 X34.08 Y-5.687
X34.113 Y-5.91
X34.171 Y-6.356
Y-6.393
X34.18 Y-6.543
X34.218 Y-6.688
X34.271 Y-6.829
X34.335 Y-6.964
X34.419 Y-7.11
X34.521 Y-7.256
X34.644 Y-7.407
X34.792 Y-7.561
X34.96 Y-7.71
X35.159 Y-7.86
X35.38 Y-7.999
X35.63 Y-8.13
X35.915 Y-8.252
X36.218 Y-8.354
X36.558 Y-8.438
X36.933 Y-8.499
X37.32 Y-8.531
X37.702 Y-8.532
X38.092 Y-8.501
X38.425 Y-8.448
X38.767 Y-8.364
X38.809 Y-8.351
X39.09 Y-8.224
X39.339 Y-8.041
X39.544 Y-7.812
X39.698 Y-7.544
X39.793 Y-7.251
X39.825 Y-6.944
Y-5.009
G3 X39 Y-4.425 I-0.635 J-0.022
G1 X34.615 Y-5.806
G3 X34.171 Y-6.393 I0.191 J-0.606
G1 X34.175 Y-7.025
Y-7.594
X34.182 Y-7.744
X34.209 Y-7.891
X34.25 Y-8.043
X34.306 Y-8.2
X34.384 Y-8.372
X34.479 Y-8.544
X34.6 Y-8.728
X34.744 Y-8.911
X34.915 Y-9.096
X35.119 Y-9.284
X35.345 Y-9.461
X35.605 Y-9.633
X35.899 Y-9.796
X36.214 Y-9.937
X36.552 Y-10.058
X36.918 Y-10.157
X37.254 Y-10.219
X37.607 Y-10.255
X37.92 Y-10.262
X38.249 Y-10.243
X38.542 Y-10.202
X38.665 Y-10.174
X38.98 Y-10.066
X39.263 Y-9.89
X39.499 Y-9.655
X39.677 Y-9.373
X39.788 Y-9.059
X39.825 Y-8.728
Y-6.944
G3 X39.097 Y-6.338 I-0.635 J-0.022
G1 X34.716 Y-6.988
G3 X34.175 Y-7.594 I0.093 J-0.628
G1 Y-9.032
X34.182 Y-9.182
X34.202 Y-9.331
X34.238 Y-9.498
X34.29 Y-9.67
X34.364 Y-9.857
X34.459 Y-10.052
X34.576 Y-10.25
X34.724 Y-10.46
X34.894 Y-10.664
X35.094 Y-10.868
X35.327 Y-11.071
X35.584 Y-11.259
X35.864 Y-11.433
X36.173 Y-11.591
X36.506 Y-11.73
X36.832 Y-11.835
X37.173 Y-11.916
X37.496 Y-11.966
X37.804 Y-11.988
X38.123 Y-11.986
X38.406 Y-11.961
X38.709 Y-11.909
X39.013 Y-11.794
X39.286 Y-11.616
X39.513 Y-11.382
X39.684 Y-11.105
X39.789 Y-10.797
X39.825 Y-10.473
Y-8.728
G3 X39.146 Y-8.117 I-0.635 J-0.022
G1 X34.766 Y-8.421
G3 X34.175 Y-9.032 I0.044 J-0.633
G1 Y-10.594
X34.186 Y-10.822
X34.208 Y-10.985
X34.244 Y-11.154
X34.301 Y-11.343
X34.375 Y-11.533
X34.475 Y-11.74
X34.598 Y-11.95
X34.746 Y-12.16
X34.926 Y-12.377
X35.131 Y-12.587
X35.361 Y-12.788
X35.621 Y-12.98
X35.91 Y-13.159
X36.22 Y-13.319
X36.55 Y-13.457
X36.877 Y-13.564
X37.2 Y-13.642
X37.523 Y-13.692
X37.82 Y-13.714
X38.137 Y-13.713
X38.419 Y-13.688
X38.589 Y-13.66
X38.875 Y-13.581
X39.14 Y-13.448
X39.373 Y-13.264
X39.565 Y-13.037
X39.707 Y-12.777
X39.795 Y-12.494
X39.825 Y-12.198
Y-10.473
G3 X39.173 Y-9.86 I-0.635 J-0.022
G1 X34.792 Y-9.981
G3 X34.175 Y-10.594 I0.017 J-0.635
G1 Y-12.378
X34.182 Y-12.528
X34.205 Y-12.694
X34.244 Y-12.869
X34.303 Y-13.062
X34.38 Y-13.257
X34.485 Y-13.469
X34.612 Y-13.682
X34.764 Y-13.896
X34.948 Y-14.114
X35.157 Y-14.327
X35.391 Y-14.528
X35.653 Y-14.72
X35.944 Y-14.898
X36.257 Y-15.058
X36.579 Y-15.19
X36.909 Y-15.295
X37.232 Y-15.371
X37.545 Y-15.418
X37.858 Y-15.439
X38.151 Y-15.436
X38.454 Y-15.408
X38.598 Y-15.383
X38.882 Y-15.303
X39.145 Y-15.169
X39.377 Y-14.985
X39.567 Y-14.759
X39.708 Y-14.499
X39.796 Y-14.217
X39.825 Y-13.923
Y-12.198
G3 X39.164 Y-11.586 I-0.635 J-0.022
G1 X34.784 Y-11.765
G3 X34.175 Y-12.378 I0.026 J-0.634
G1 Y-14.062
X34.184 Y-14.238
X34.205 Y-14.4
X34.243 Y-14.578
X34.3 Y-14.768
X34.377 Y-14.965
X34.48 Y-15.177
X34.603 Y-15.387
X34.755 Y-15.603
X34.938 Y-15.823
X35.143 Y-16.033
X35.376 Y-16.236
X35.638 Y-16.431
X35.927 Y-16.61
X36.238 Y-16.771
X36.56 Y-16.905
X36.885 Y-17.011
X37.212 Y-17.09
X37.521 Y-17.138
X37.839 Y-17.162
X38.129 Y-17.16
X38.434 Y-17.134
X38.589 Y-17.108
X38.875 Y-17.03
X39.14 Y-16.896
X39.373 Y-16.712
X39.565 Y-16.486
X39.707 Y-16.225
X39.795 Y-15.942
X39.825 Y-15.647
Y-13.923
G3 X39.17 Y-13.311 I-0.635 J-0.022
G1 X34.79 Y-13.449
G3 X34.175 Y-14.062 I0.02 J-0.635
G1 Y-15.723
X34.187 Y-15.96
X34.208 Y-16.124
X34.246 Y-16.3
X34.304 Y-16.493
X34.38 Y-16.688
X34.483 Y-16.9
X34.607 Y-17.111
X34.758 Y-17.326
X34.941 Y-17.546
X35.147 Y-17.758
X35.379 Y-17.96
X35.64 Y-18.154
X35.928 Y-18.333
X36.24 Y-18.494
X36.561 Y-18.628
X36.888 Y-18.735
X37.213 Y-18.813
X37.524 Y-18.861
X37.839 Y-18.885
X38.131 Y-18.883
X38.434 Y-18.857
X38.589 Y-18.831
X38.875 Y-18.753
X39.14 Y-18.619
X39.373 Y-18.435
X39.565 Y-18.209
X39.707 Y-17.948
X39.795 Y-17.665
X39.825 Y-17.37
Y-15.647
G3 X39.179 Y-15.034 I-0.635 J-0.022
G1 X34.799 Y-15.11
G3 X34.175 Y-15.723 I0.011 J-0.635
G1 Y-17.507
X34.184 Y-17.679
X34.205 Y-17.844
X34.243 Y-18.02
X34.301 Y-18.213
X34.377 Y-18.409
X34.48 Y-18.621
X34.604 Y-18.833
X34.756 Y-19.048
X34.939 Y-19.268
X35.145 Y-19.48
X35.377 Y-19.682
X35.639 Y-19.876
X35.928 Y-20.056
X36.24 Y-20.217
X36.561 Y-20.351
X36.888 Y-20.458
X37.213 Y-20.536
X37.524 Y-20.584
X37.839 Y-20.608
X38.13 Y-20.606
X38.434 Y-20.58
X38.589 Y-20.554
X38.875 Y-20.476
X39.14 Y-20.342
X39.373 Y-20.158
X39.565 Y-19.932
X39.707 Y-19.672
X39.795 Y-19.388
X39.825 Y-19.093
Y-17.37
G3 X39.17 Y-16.757 I-0.635 J-0.022
G1 X34.79 Y-16.895
G3 X34.175 Y-17.507 I0.02 J-0.635
G1 Y-19.292
X34.182 Y-19.441
X34.209 Y-19.613
X34.251 Y-19.791
X34.315 Y-19.988
X34.397 Y-20.187
X34.506 Y-20.398
X34.64 Y-20.616
X34.798 Y-20.83
X34.986 Y-21.047
X35.204 Y-21.261
X35.445 Y-21.462
X35.711 Y-21.65
X36.004 Y-21.823
X36.323 Y-21.979
X36.644 Y-22.105
X36.979 Y-22.207
X37.294 Y-22.275
X37.613 Y-22.317
X37.918 Y-22.333
X38.216 Y-22.325
X38.51 Y-22.293
X38.621 Y-22.272
X38.901 Y-22.189
X39.159 Y-22.053
X39.386 Y-21.869
X39.572 Y-21.644
X39.711 Y-21.387
X39.796 Y-21.107
X39.825 Y-20.817
Y-19.093
G3 X39.162 Y-18.481 I-0.635 J-0.022
G1 X34.781 Y-18.679
G3 X34.175 Y-19.292 I0.029 J-0.634
G1 Y-20.975
X34.183 Y-21.13
X34.204 Y-21.29
X34.243 Y-21.472
X34.298 Y-21.657
X34.377 Y-21.859
X34.478 Y-22.067
X34.602 Y-22.278
X34.757 Y-22.498
X34.936 Y-22.715
X35.141 Y-22.924
X35.377 Y-23.13
X35.641 Y-23.326
X35.928 Y-23.504
X36.236 Y-23.663
X36.562 Y-23.799
X36.882 Y-23.904
X37.214 Y-23.983
X37.52 Y-24.031
X37.84 Y-24.055
X38.129 Y-24.053
X38.434 Y-24.027
X38.589 Y-24.001
X38.875 Y-23.923
X39.14 Y-23.789
X39.373 Y-23.605
X39.565 Y-23.379
X39.707 Y-23.119
X39.795 Y-22.835
X39.825 Y-22.54
Y-20.817
G3 X39.167 Y-20.204 I-0.635 J-0.022
G1 X34.787 Y-20.363
G3 X34.175 Y-20.975 I0.023 J-0.635
G1 Y-22.637
X34.186 Y-22.852
X34.207 Y-23.017
X34.245 Y-23.193
X34.303 Y-23.385
X34.379 Y-23.581
X34.482 Y-23.793
X34.606 Y-24.004
X34.757 Y-24.219
X34.94 Y-24.439
X35.146 Y-24.651
X35.378 Y-24.853
X35.64 Y-25.047
X35.928 Y-25.226
X36.24 Y-25.387
X36.561 Y-25.521
X36.888 Y-25.628
X37.213 Y-25.706
X37.524 Y-25.755
X37.839 Y-25.778
X38.13 Y-25.776
X38.434 Y-25.75
X38.589 Y-25.724
X38.875 Y-25.646
X39.14 Y-25.512
X39.373 Y-25.329
X39.565 Y-25.102
X39.707 Y-24.842
X39.795 Y-24.558
X39.825 Y-24.263
Y-22.54
G3 X39.176 Y-21.927 I-0.635 J-0.022
G1 X34.796 Y-22.024
G3 X34.175 Y-22.637 I0.014 J-0.635
G1 Y-24.421
X34.183 Y-24.572
X34.204 Y-24.737
X34.242 Y-24.913
X34.3 Y-25.106
X34.376 Y-25.302
X34.479 Y-25.514
X34.603 Y-25.726
X34.755 Y-25.942
X34.938 Y-26.162
X35.144 Y-26.374
X35.376 Y-26.576
X35.638 Y-26.77
X35.927 Y-26.949
X36.239 Y-27.11
X36.56 Y-27.245
X36.887 Y-27.351
X37.213 Y-27.429
X37.523 Y-27.478
X37.839 Y-27.501
X38.13 Y-27.5
X38.434 Y-27.474
X38.547 Y-27.455
X38.855 Y-27.368
X39.138 Y-27.216
X39.381 Y-27.008
X39.574 Y-26.751
X39.708 Y-26.46
X39.775 Y-26.146
X39.815 Y-25.759
X39.825 Y-25.536
Y-24.263
G3 X39.167 Y-23.651 I-0.635 J-0.022
G1 X34.787 Y-23.809
G3 X34.175 Y-24.421 I0.023 J-0.635
G1 Y-25.536
X34.185 Y-25.759
X34.254 Y-26.428
X34.288 Y-26.61
X34.337 Y-26.792
X34.405 Y-26.982
X34.498 Y-27.188
X34.611 Y-27.392
X34.753 Y-27.606
X34.922 Y-27.822
X35.114 Y-28.03
X35.336 Y-28.234
X35.413 Y-28.292
X35.487 Y-28.339
X35.564 Y-28.383
G3 X36.369 Y-27.459 I0.277 J0.571
G1 X35.416 Y-26.032
G3 X34.254 Y-26.428 I-0.528 J-0.353
G1 X34.284 Y-26.651
X34.346 Y-26.834
X34.445 Y-27.097
X34.539 Y-27.32
X34.569 Y-27.367
X34.844 Y-27.766
X34.916 Y-27.859
X35.015 Y-27.952
X35.309 Y-28.212
X35.385 Y-28.278
X35.461 Y-28.328
X35.907 Y-28.563
X36.018 Y-28.615
X36.13 Y-28.646
X36.576 Y-28.756
X36.687 Y-28.775
X36.799 Y-28.778
X37.245
X37.356 Y-28.77
X37.468 Y-28.745
X37.914 Y-28.635
X38.025 Y-28.597
X38.137 Y-28.54
X38.36 Y-28.423
X38.583 Y-28.301
X38.691 Y-28.212
X39.029 Y-27.913
X39.102 Y-27.84
X39.156 Y-27.766
X39.31 Y-27.543
X39.46 Y-27.32
X39.475 Y-27.293
X39.555 Y-27.097
X39.639 Y-26.874
X39.698 Y-26.716
X39.715 Y-26.651
X39.746 Y-26.428
X39.775 Y-26.146
X39.776 Y-26.103 Z-5.496
X39.768 Y-26.048 Z-5.479
X39.759 Y-25.999 Z-5.45
X39.753 Y-25.958 Z-5.411
X39.748 Y-25.927 Z-5.362
X39.744 Y-25.907 Z-5.308
X39.743 Y-25.901 Z-5.251
G0 Z5
Z15
M9
G28 G91 Z0
G28 X0 Y0
M30
%
